kpg/editing/james luts/eastman rm lut.cube
TITLE "Generated by Resolve"
LUT_3D_SIZE 9
0.0484169 0.0270848 0.0371862
0.0488594 0.0271305 0.0373693
0.0902419 0.024918 0.035996
0.237888 0.0206607 0.0379339
0.441733 0.0149386 0.0495766
0.56997 0.0285191 0.0966354
0.696284 0.113558 0.215274
0.881849 0.259709 0.444724
0.932006 0.530968 0.687602
0.0493629 0.0343023 0.0403906
0.0500801 0.0337224 0.0400702
0.0823682 0.0309911 0.0380713
0.224063 0.0182803 0.0354009
0.446448 0.0133669 0.0440528
0.576913 0.0321965 0.0952468
0.714382 0.128405 0.229389
0.908141 0.285054 0.466056
0.927855 0.568795 0.715023
0.0539101 0.113024 0.0488136
0.0560464 0.113588 0.045182
0.129458 0.1178 0.0473945
0.317494 0.06215 0.0418097
0.456992 0.0142061 0.038819
0.582834 0.0385748 0.091783
0.733516 0.144167 0.237461
0.924361 0.310872 0.472236
0.932708 0.603998 0.734417
0.0525826 0.25626 0.056672
0.0489967 0.262074 0.0436713
0.0722972 0.274525 0.0387579
0.347829 0.301305 0.048127
0.588296 0.213016 0.0579232
0.649927 0.135744 0.0790112
0.734844 0.159594 0.206241
0.913146 0.337926 0.451438
0.928481 0.636698 0.74548
0.0520638 0.442039 0.0645914
0.0490425 0.452537 0.0775464
0.0530861 0.459129 0.0585031
0.188006 0.497627 0.0460212
0.628901 0.581201 0.101167
0.854551 0.534676 0.16463
0.900038 0.436088 0.187228
0.911238 0.353704 0.347723
0.919966 0.660731 0.725765
0.160113 0.624109 0.202655
0.138109 0.636454 0.250004
0.148562 0.638544 0.235157
0.195315 0.639567 0.180652
0.483818 0.750744 0.222583
0.845411 0.825086 0.317632
0.999817 0.781277 0.383062
1 0.729244 0.346105
0.926528 0.656519 0.62002
0.265476 0.747585 0.334905
0.252201 0.754543 0.361715
0.256275 0.757382 0.359304
0.306172 0.767346 0.328618
0.457984 0.800244 0.363882
0.717769 0.90753 0.504448
0.942214 0.973205 0.644327
0.996017 0.951644 0.687572
0.99968 0.926268 0.665019
0.524193 0.832929 0.528222
0.531731 0.838376 0.547875
0.554299 0.841962 0.548669
0.583566 0.85127 0.568154
0.672572 0.87924 0.619043
0.792004 0.924392 0.706783
0.91078 0.973526 0.787289
0.960678 0.987274 0.859281
0.960082 0.988083 0.888518
0.825895 0.947234 0.834745
0.836515 0.94963 0.838819
0.847684 0.951308 0.841031
0.857923 0.953323 0.843397
0.872068 0.958068 0.854063
0.905943 0.96907 0.876143
0.936522 0.979919 0.902113
0.95555 0.987808 0.920027
0.957626 0.990188 0.938155
0.0484016 0.027039 0.0377356
0.0490425 0.0275425 0.0382849
0.0860761 0.0278477 0.0413519
0.235523 0.0248112 0.0503853
0.436744 0.017792 0.0744335
0.560632 0.033875 0.134401
0.680064 0.119768 0.252766
0.862089 0.272068 0.483055
0.915099 0.542885 0.709773
0.0493935 0.0342718 0.0413825
0.0501717 0.0339208 0.0415961
0.0935988 0.0314031 0.0429694
0.234424 0.0236973 0.0470588
0.444251 0.0168307 0.0667735
0.566018 0.0368963 0.132601
0.697993 0.134936 0.26566
0.883864 0.298756 0.505364
0.908446 0.581018 0.737316
0.0545205 0.113252 0.0614939
0.0531319 0.115557 0.0505989
0.131075 0.118196 0.049073
0.321248 0.0599374 0.047303
0.476539 0.0188449 0.0530861
0.583719 0.0414435 0.115038
0.730755 0.147845 0.255909
0.916991 0.319402 0.494392
0.924453 0.612528 0.74847
0.0525063 0.259892 0.074342
0.0495613 0.266239 0.0590372
0.0559091 0.271519 0.0367132
0.350927 0.302647 0.0478828
0.592874 0.210285 0.0640116
0.660365 0.135317 0.0937819
0.735668 0.157885 0.223453
0.916518 0.343618 0.462867
0.928557 0.64213 0.75259
0.0509346 0.445716 0.0798657
0.0487984 0.455314 0.0888075
0.052491 0.461662 0.0669871
0.173816 0.494789 0.044419
0.631388 0.583886 0.102724
0.860471 0.530632 0.170901
0.903868 0.435523 0.194354
0.908705 0.353552 0.366033
0.92134 0.666575 0.733288
0.158114 0.628 0.21886
0.137331 0.638956 0.259052
0.146166 0.643687 0.252552
0.192233 0.640482 0.184192
0.480751 0.751003 0.223194
0.84802 0.828473 0.320729
0.999741 0.781399 0.393881
0.999954 0.727291 0.357946
0.926406 0.661189 0.629328
0.265461 0.750439 0.344167
0.252537 0.757046 0.369146
0.255756 0.758236 0.36321
0.299382 0.767559 0.33669
0.457755 0.800443 0.368261
0.719829 0.90811 0.510277
0.942748 0.97409 0.649104
0.994095 0.952285 0.694987
0.999771 0.927398 0.673609
0.531121 0.835737 0.536965
0.536477 0.841749 0.560098
0.562234 0.845075 0.557656
0.586099 0.852155 0.571923
0.674983 0.8804 0.623667
0.795148 0.925658 0.711437
0.911681 0.973602 0.790784
0.960311 0.98735 0.861769
0.960082 0.98819 0.890608
0.82948 0.94844 0.838254
0.838468 0.950576 0.843153
0.851255 0.952377 0.844114
0.861036 0.95433 0.846723
0.873808 0.958785 0.855985
0.907225 0.969512 0.877821
0.937301 0.980179 0.903059
0.955535 0.987854 0.921019
0.957519 0.990112 0.93846
0.0480812 0.0280766 0.0487221
0.0512398 0.0292515 0.0517281
0.0757763 0.0303502 0.0563516
0.238437 0.0263676 0.0668193
0.448142 0.0202029 0.0919509
0.570428 0.0391699 0.153613
0.683543 0.121767 0.27126
0.864637 0.278569 0.504997
0.916045 0.549966 0.720012
0.0489052 0.036286 0.0491951
0.0483864 0.0302892 0.057496
0.0830243 0.0321813 0.0656748
0.25359 0.026154 0.0641184
0.462287 0.0191501 0.0896315
0.577462 0.0430152 0.155154
0.702434 0.137331 0.285664
0.887098 0.306004 0.529137
0.910063 0.588495 0.748623
0.0529793 0.108003 0.0811933
0.0525978 0.110567 0.0858625
0.116213 0.11635 0.101381
0.330175 0.0720226 0.0928359
0.495262 0.0230716 0.0775311
0.590784 0.0437018 0.132326
0.736492 0.150973 0.274388
0.920272 0.326696 0.518578
0.924544 0.62034 0.760861
0.053254 0.262257 0.110857
0.0503395 0.269825 0.103548
0.0548409 0.276356 0.0719921
0.342626 0.318212 0.0892653
0.592401 0.201373 0.0808576
0.675731 0.131395 0.132296
0.747494 0.162753 0.26009
0.922042 0.351736 0.487633
0.928618 0.649622 0.764508
0.0500649 0.45304 0.117281
0.0480964 0.461662 0.131624
0.0496681 0.465599 0.0984665
0.117784 0.483787 0.0462501
0.632502 0.58584 0.104982
0.864881 0.517845 0.179355
0.910094 0.427146 0.208453
0.903929 0.351507 0.404654
0.922591 0.673411 0.744823
0.154116 0.635309 0.253956
0.13463 0.647334 0.293706
0.142031 0.648127 0.272435
0.17998 0.642084 0.200626
0.464591 0.7449 0.219318
0.850462 0.830991 0.323613
0.999863 0.777935 0.41648
0.999954 0.719951 0.385306
0.92462 0.665339 0.646662
0.264378 0.755581 0.366567
0.243412 0.765515 0.404868
0.253529 0.762768 0.380911
0.28513 0.76788 0.356207
0.454948 0.799802 0.371908
0.718959 0.906859 0.516213
0.943328 0.97499 0.654398
0.991791 0.952255 0.707469
0.999695 0.926238 0.688746
0.539223 0.83978 0.551888
0.532601 0.846937 0.586892
0.55697 0.850736 0.587427
0.586999 0.853376 0.577554
0.672267 0.880186 0.628016
0.797192 0.926299 0.716518
0.911742 0.97351 0.795178
0.95964 0.987442 0.864317
0.960616 0.988388 0.893721
0.833112 0.94992 0.842954
0.836805 0.952224 0.851164
0.848417 0.954177 0.853239
0.864286 0.955795 0.850568
0.874708 0.959091 0.857466
0.90779 0.969696 0.879179
0.937697 0.980423 0.904662
0.955047 0.987869 0.922408
0.956817 0.990158 0.938903
0.0477455 0.0293278 0.0880751
0.0523537 0.0305486 0.101366
0.0835126 0.0302739 0.125307
0.21117 0.0312657 0.154757
0.441337 0.0254978 0.188312
0.583963 0.0499733 0.236484
0.670192 0.115389 0.312886
0.864012 0.291341 0.555215
0.918547 0.560739 0.742428
0.0475929 0.0348669 0.095491
0.0477607 0.0294041 0.111376
0.072755 0.0303655 0.149508
0.237751 0.0306096 0.174044
0.466026 0.0259861 0.193545
0.596262 0.0563821 0.238575
0.69073 0.130083 0.330587
0.887068 0.321065 0.582879
0.91223 0.599115 0.769635
0.0482948 0.105135 0.140429
0.0476692 0.0964218 0.163622
0.0633249 0.077348 0.217014
0.285664 0.0488746 0.234501
0.489952 0.0285344 0.194476
0.612528 0.06009 0.215228
0.72549 0.143084 0.322332
0.920409 0.343389 0.578546
0.923278 0.631342 0.783398
0.0509194 0.253178 0.191943
0.0494392 0.260853 0.203342
0.0522164 0.266911 0.21239
0.3205 0.320317 0.299046
0.578302 0.21387 0.25803
0.694148 0.138994 0.230747
0.752651 0.166461 0.303181
0.928008 0.368017 0.550927
0.926558 0.660792 0.787991
0.0501869 0.467765 0.218372
0.0486915 0.478553 0.239872
0.049958 0.484565 0.22388
0.103227 0.497597 0.170581
0.607446 0.599191 0.267567
0.857206 0.490913 0.236362
0.921202 0.399649 0.285222
0.909438 0.371374 0.47393
0.923598 0.684672 0.770382
0.150423 0.65098 0.337758
0.13666 0.665599 0.376074
0.140322 0.668162 0.362997
0.152682 0.655756 0.27953
0.391501 0.713069 0.229999
0.844404 0.835294 0.353307
0.999954 0.767987 0.455192
0.98529 0.696239 0.446464
0.913436 0.669718 0.687892
0.264546 0.765454 0.411856
0.245075 0.778485 0.453056
0.247211 0.778347 0.441703
0.264775 0.773404 0.396399
0.42974 0.795132 0.380194
0.706401 0.89929 0.523308
0.942885 0.975784 0.661234
0.988937 0.950057 0.729244
0.99707 0.921386 0.717998
0.54847 0.846738 0.579217
0.541314 0.853635 0.613687
0.557183 0.858396 0.623819
0.580514 0.862211 0.623316
0.645838 0.877775 0.642329
0.791394 0.925109 0.723171
0.906661 0.972259 0.803281
0.957946 0.987579 0.867674
0.961761 0.988724 0.898573
0.836545 0.951232 0.848798
0.840375 0.95378 0.857023
0.846326 0.95613 0.863432
0.858335 0.958251 0.865034
0.86949 0.959869 0.86389
0.904341 0.969711 0.882368
0.934112 0.980331 0.908858
0.953002 0.987808 0.92462
0.95729 0.99025 0.939345
0.0475166 0.0298161 0.178668
0.0505837 0.0303044 0.205951
0.0758373 0.0298009 0.252949
0.212833 0.0292363 0.31368
0.411078 0.0371862 0.363943
0.554971 0.0774243 0.399832
0.648051 0.138155 0.449805
0.837324 0.301503 0.63621
0.923613 0.579568 0.785611
0.0475471 0.0323033 0.205768
0.0475776 0.0302586 0.223301
0.0612345 0.0308537 0.276967
0.222416 0.0296788 0.345907
0.437476 0.0408026 0.384054
0.572442 0.0860914 0.406592
0.655955 0.142504 0.460014
0.863737 0.33344 0.673579
0.918196 0.615961 0.80885
0.0476234 0.0505684 0.254414
0.0473793 0.0407416 0.259312
0.0475013 0.0331731 0.279744
0.221881 0.0313115 0.389578
0.472572 0.0499733 0.409247
0.587716 0.094316 0.408179
0.659709 0.147875 0.467536
0.896803 0.365026 0.695811
0.922347 0.649088 0.824384
0.0473793 0.228809 0.312322
0.047425 0.230213 0.329137
0.0474556 0.227237 0.353246
0.176333 0.217288 0.464851
0.559197 0.182254 0.509636
0.623346 0.122866 0.423972
0.668269 0.14699 0.448798
0.917861 0.392752 0.689464
0.923354 0.678904 0.831052
0.0487068 0.465232 0.376196
0.0487068 0.474052 0.38822
0.0502937 0.484367 0.400122
0.0809796 0.506539 0.429236
0.576211 0.583764 0.557794
0.801694 0.472236 0.50367
0.877226 0.36376 0.474403
0.912398 0.404089 0.600351
0.921935 0.704341 0.821134
0.151003 0.669688 0.465583
0.145708 0.679164 0.485206
0.15169 0.686275 0.485496
0.158816 0.691447 0.464988
0.407507 0.723644 0.460548
0.790753 0.82797 0.58143
0.969497 0.746044 0.542199
0.935714 0.680278 0.571954
0.911009 0.701778 0.758328
0.269963 0.786297 0.5037
0.25481 0.798978 0.537636
0.258244 0.801511 0.532845
0.264088 0.801221 0.509911
0.392126 0.800061 0.465293
0.679774 0.878813 0.585748
0.930953 0.971801 0.704646
0.981643 0.943954 0.768322
0.981994 0.914794 0.775006
0.552911 0.8589 0.62977
0.548837 0.865919 0.658976
0.566323 0.870222 0.668849
0.591318 0.874662 0.674723
0.626368 0.87924 0.667384
0.766186 0.920119 0.734478
0.894255 0.968612 0.815732
0.956939 0.987625 0.87126
0.961959 0.988769 0.907576
0.839948 0.953475 0.859281
0.843702 0.95581 0.866682
0.850309 0.958312 0.873732
0.857984 0.960571 0.877485
0.867292 0.962615 0.878935
0.889128 0.9691 0.890959
0.928512 0.980728 0.915434
0.950057 0.987671 0.928054
0.957214 0.990341 0.940139
0.0475013 0.0333715 0.287419
0.049897 0.0331121 0.320806
0.0686961 0.0331121 0.365164
0.195346 0.0328679 0.437354
0.396902 0.0431525 0.47332
0.546807 0.101823 0.501335
0.651179 0.15935 0.550042
0.765911 0.264912 0.668132
0.942718 0.58967 0.849653
0.0476234 0.033875 0.30457
0.0475166 0.0348363 0.33167
0.0586557 0.0352483 0.378546
0.196857 0.03505 0.46067
0.409537 0.0480049 0.487007
0.562982 0.113451 0.517739
0.654932 0.165942 0.566262
0.799786 0.301472 0.714931
0.937163 0.624521 0.865782
0.0473487 0.0464637 0.337682
0.0473793 0.0367285 0.314244
0.0478828 0.0374609 0.357198
0.167163 0.0374151 0.46688
0.424613 0.057969 0.507637
0.576837 0.124666 0.531853
0.659129 0.172274 0.577356
0.838666 0.336187 0.757443
0.938384 0.656901 0.878019
0.0472725 0.178882 0.437308
0.047364 0.171328 0.44361
0.047303 0.153155 0.448157
0.0826734 0.120897 0.512398
0.448386 0.109255 0.574517
0.606943 0.142855 0.549752
0.661479 0.177264 0.587152
0.873823 0.369116 0.793286
0.936843 0.68632 0.882795
0.0489662 0.442252 0.485267
0.0497292 0.449058 0.493797
0.0511025 0.453681 0.504402
0.0556191 0.456428 0.529931
0.437568 0.496895 0.704128
0.835889 0.494163 0.782406
0.898772 0.372351 0.762249
0.914153 0.393683 0.803906
0.934051 0.713375 0.880156
0.141222 0.655604 0.570581
0.146731 0.661952 0.576791
0.153841 0.669337 0.583932
0.165316 0.678813 0.593347
0.385504 0.739406 0.663905
0.773632 0.792203 0.7626
0.917296 0.739681 0.742397
0.911421 0.678737 0.727077
0.921889 0.730404 0.84065
0.272541 0.800809 0.621256
0.26511 0.806302 0.635157
0.268925 0.809598 0.636652
0.276005 0.816571 0.634501
0.38526 0.838209 0.635004
0.727275 0.898283 0.750301
0.905943 0.949584 0.825925
0.965393 0.933364 0.832914
0.955459 0.909789 0.846479
0.550149 0.880919 0.702327
0.54905 0.88687 0.724636
0.567849 0.890776 0.733867
0.595514 0.895293 0.74287
0.640162 0.901671 0.752285
0.759731 0.926497 0.784527
0.895186 0.968399 0.861555
0.955962 0.988296 0.892638
0.960632 0.987549 0.919127
0.837858 0.956756 0.876677
0.843854 0.958755 0.882506
0.851743 0.960922 0.886885
0.859373 0.962844 0.890776
0.870375 0.96527 0.894438
0.886015 0.968383 0.894911
0.927031 0.980346 0.916197
0.950301 0.987655 0.930495
0.957351 0.990463 0.940795
0.0483864 0.0388495 0.377661
0.0503243 0.0396124 0.384192
0.0671855 0.0408331 0.422446
0.162158 0.0430457 0.48539
0.35967 0.0585794 0.533043
0.516487 0.104204 0.553903
0.654002 0.177829 0.622156
0.686961 0.208484 0.651469
0.962493 0.573617 0.926619
0.0474098 0.0416876 0.374609
0.0482795 0.042771 0.386099
0.0589303 0.0440681 0.422004
0.156069 0.0467842 0.492363
0.380056 0.0684977 0.548135
0.534844 0.114717 0.566842
0.658091 0.18352 0.633631
0.710491 0.23473 0.68336
0.96318 0.60885 0.935653
0.047303 0.0504616 0.371481
0.047364 0.0437476 0.360601
0.0484627 0.0452125 0.398337
0.12253 0.0481117 0.482231
0.382589 0.0739452 0.557595
0.563684 0.132494 0.589364
0.660197 0.188266 0.641627
0.735134 0.261418 0.711696
0.962921 0.642023 0.940826
0.0472114 0.119081 0.452232
0.047425 0.106081 0.44361
0.0472419 0.0877852 0.429633
0.0483406 0.0601511 0.429496
0.346883 0.0868238 0.574716
0.585092 0.155261 0.615061
0.664363 0.193057 0.650324
0.761349 0.287251 0.741436
0.960678 0.671641 0.94313
0.0561837 0.431708 0.54992
0.0574655 0.436591 0.555047
0.0591135 0.438941 0.561013
0.0616007 0.433448 0.572106
0.331228 0.425483 0.773556
0.836606 0.490105 0.943511
0.857176 0.361654 0.821805
0.795438 0.318288 0.77731
0.956481 0.69865 0.940841
0.132006 0.626413 0.616083
0.135286 0.630854 0.620478
0.138506 0.634546 0.625406
0.146578 0.64062 0.637919
0.307179 0.695735 0.751415
0.696056 0.752926 0.853437
0.920623 0.750454 0.892042
0.948455 0.692515 0.917861
0.95053 0.716564 0.932357
0.27097 0.788418 0.695125
0.267323 0.793271 0.704448
0.270756 0.796826 0.707744
0.27689 0.801465 0.711864
0.338415 0.834195 0.740826
0.71899 0.904479 0.849195
0.899321 0.933028 0.902708
0.952468 0.930144 0.902403
0.945525 0.910231 0.900557
0.499657 0.892409 0.769665
0.515419 0.895354 0.776471
0.535851 0.899336 0.784939
0.567956 0.905074 0.796048
0.622477 0.915557 0.813611
0.762493 0.943282 0.859815
0.91545 0.976104 0.918578
0.956924 0.986328 0.934432
0.95288 0.984649 0.937652
0.833616 0.960372 0.89543
0.840726 0.96202 0.899153
0.848157 0.963745 0.902144
0.85658 0.965438 0.906096
0.868894 0.967819 0.910811
0.886931 0.971908 0.916289
0.924926 0.980926 0.928176
0.950515 0.98909 0.943664
0.956069 0.991577 0.948028
0.0524605 0.047776 0.432197
0.0527657 0.0484016 0.42855
0.0533455 0.0488746 0.43154
0.109422 0.0519417 0.487922
0.323278 0.0697032 0.56199
0.493202 0.105791 0.583764
0.639719 0.172534 0.635416
0.677852 0.206653 0.668833
0.95877 0.511269 0.942748
0.0478523 0.0481117 0.41912
0.0477913 0.0483101 0.415167
0.0479438 0.0486305 0.418433
0.0923781 0.052491 0.481926
0.330434 0.0721599 0.566598
0.518914 0.113436 0.590845
0.647211 0.177295 0.639612
0.681056 0.209476 0.671962
0.96672 0.552209 0.951125
0.0473335 0.0558022 0.404379
0.0474403 0.0578775 0.407691
0.0473487 0.0542153 0.400717
0.062623 0.0512856 0.457343
0.319219 0.0707713 0.565042
0.545907 0.123064 0.59678
0.651926 0.180972 0.642847
0.682445 0.212833 0.673213
0.970108 0.588586 0.955032
0.0473335 0.125048 0.474342
0.0472572 0.128801 0.475715
0.0473335 0.124071 0.474083
0.047364 0.0762951 0.435554
0.251194 0.0726635 0.559106
0.554086 0.147234 0.623224
0.664744 0.194461 0.655589
0.685359 0.21619 0.676387
0.969528 0.622171 0.955947
0.0662699 0.44889 0.584436
0.0673228 0.452705 0.587106
0.0673228 0.446433 0.589273
0.0670481 0.432547 0.592828
0.236698 0.412512 0.754833
0.759136 0.475807 0.95404
0.872908 0.390723 0.860014
0.68957 0.219852 0.680644
0.967132 0.652674 0.954803
0.136599 0.619837 0.64593
0.139284 0.624125 0.648615
0.140887 0.626261 0.65153
0.141222 0.624826 0.656001
0.262181 0.672633 0.771786
0.638773 0.725475 0.873106
0.928496 0.759548 0.946395
0.959823 0.694362 0.949493
0.963882 0.674174 0.95227
0.238605 0.765942 0.714977
0.245594 0.770596 0.719615
0.25565 0.776425 0.726375
0.271015 0.784924 0.737346
0.380774 0.827802 0.795651
0.692363 0.888045 0.880095
0.888823 0.926314 0.924712
0.937942 0.924086 0.927474
0.929503 0.900114 0.928466
0.431067 0.880415 0.79176
0.448768 0.88368 0.796628
0.472953 0.887953 0.803586
0.51191 0.894881 0.814313
0.57818 0.907622 0.833585
0.735576 0.940429 0.88217
0.908644 0.973983 0.935225
0.950851 0.984665 0.950118
0.953948 0.984436 0.952834
0.818219 0.960342 0.905776
0.826047 0.962142 0.909209
0.833417 0.963745 0.911849
0.842725 0.965347 0.915175
0.856901 0.968597 0.920089
0.878355 0.972778 0.926329
0.923369 0.981964 0.940963
0.954055 0.98996 0.954711
0.957595 0.989837 0.956115
0.047776 0.0489357 0.426917
0.0474861 0.0487373 0.417029
0.0472267 0.0483558 0.412482
0.0471656 0.0481117 0.409766
0.187213 0.0566415 0.527916
0.484779 0.105196 0.588037
0.623011 0.156619 0.621042
0.65861 0.187182 0.649546
0.768185 0.295811 0.75874
0.0473335 0.052781 0.405524
0.0473335 0.0543526 0.403449
0.0474098 0.0568704 0.40647
0.0472877 0.0584421 0.413596
0.170047 0.0558633 0.521813
0.493095 0.106935 0.588327
0.63476 0.163745 0.6271
0.659876 0.187869 0.65066
0.823316 0.346624 0.81268
0.0473793 0.0825971 0.446677
0.0471351 0.0870222 0.450172
0.0473335 0.0917372 0.454871
0.0473335 0.092958 0.455985
0.134447 0.0544137 0.506584
0.493095 0.107271 0.58883
0.647959 0.176486 0.638819
0.659236 0.188968 0.650156
0.878828 0.396384 0.865904
0.0473182 0.166445 0.502205
0.0475471 0.176135 0.505516
0.0478676 0.194766 0.513207
0.0481727 0.205951 0.518166
0.0706188 0.107805 0.517403
0.50132 0.142351 0.628305
0.667353 0.197574 0.658351
0.660853 0.190326 0.651698
0.927886 0.448188 0.912398
0.0749371 0.471565 0.604395
0.0771649 0.480278 0.606989
0.0796521 0.488853 0.61001
0.0788586 0.482399 0.610651
0.0914015 0.456611 0.633173
0.606165 0.457511 0.899077
0.926238 0.451011 0.91632
0.685969 0.216144 0.676951
0.955917 0.500801 0.939605
0.151995 0.643717 0.6654
0.154986 0.649302 0.667643
0.153887 0.646891 0.667643
0.148318 0.634607 0.666789
0.182879 0.64303 0.701808
0.577401 0.710552 0.858991
0.901717 0.768933 0.94667
0.955047 0.716869 0.945327
0.96759 0.554879 0.951965
0.214038 0.752758 0.710903
0.216159 0.755688 0.712917
0.222278 0.759655 0.717174
0.245899 0.769421 0.731365
0.314366 0.808606 0.781994
0.66392 0.87538 0.878218
0.874586 0.922362 0.925338
0.931914 0.924636 0.932998
0.929717 0.898558 0.929259
0.360189 0.866361 0.79202
0.377508 0.870054 0.795682
0.411536 0.875822 0.803204
0.480476 0.886381 0.818814
0.597436 0.908125 0.850462
0.760754 0.943175 0.898131
0.90164 0.970977 0.937743
0.948943 0.982467 0.951858
0.953384 0.98323 0.95317
0.786816 0.955108 0.903593
0.794263 0.95642 0.906523
0.80412 0.958572 0.909819
0.816464 0.961349 0.913832
0.834577 0.964828 0.918593
0.862837 0.970428 0.927077
0.918456 0.981689 0.943709
0.953826 0.98938 0.955093
0.959701 0.993774 0.958129
