kpg/editing/james luts/eastman rm lut.cube
TITLE "Generated by Resolve"
LUT_3D_SIZE 5
0.0484169 0.0270848 0.0371862
0.0902419 0.024918 0.035996
0.441733 0.0149386 0.0495766
0.696284 0.113558 0.215274
0.932006 0.530968 0.687602
0.0539101 0.113024 0.0488136
0.129458 0.1178 0.0473945
0.456992 0.0142061 0.038819
0.733516 0.144167 0.237461
0.932708 0.603998 0.734417
0.0520638 0.442039 0.0645914
0.0530861 0.459129 0.0585031
0.628901 0.581201 0.101167
0.900038 0.436088 0.187228
0.919966 0.660731 0.725765
0.265476 0.747585 0.334905
0.256275 0.757382 0.359304
0.457984 0.800244 0.363882
0.942214 0.973205 0.644327
0.99968 0.926268 0.665019
0.825895 0.947234 0.834745
0.847684 0.951308 0.841031
0.872068 0.958068 0.854063
0.936522 0.979919 0.902113
0.957626 0.990188 0.938155
0.0480812 0.0280766 0.0487221
0.0757763 0.0303502 0.0563516
0.448142 0.0202029 0.0919509
0.683543 0.121767 0.27126
0.916045 0.549966 0.720012
0.0529793 0.108003 0.0811933
0.116213 0.11635 0.101381
0.495262 0.0230716 0.0775311
0.736492 0.150973 0.274388
0.924544 0.62034 0.760861
0.0500649 0.45304 0.117281
0.0496681 0.465599 0.0984665
0.632502 0.58584 0.104982
0.910094 0.427146 0.208453
0.922591 0.673411 0.744823
0.264378 0.755581 0.366567
0.253529 0.762768 0.380911
0.454948 0.799802 0.371908
0.943328 0.97499 0.654398
0.999695 0.926238 0.688746
0.833112 0.94992 0.842954
0.848417 0.954177 0.853239
0.874708 0.959091 0.857466
0.937697 0.980423 0.904662
0.956817 0.990158 0.938903
0.0475166 0.0298161 0.178668
0.0758373 0.0298009 0.252949
0.411078 0.0371862 0.363943
0.648051 0.138155 0.449805
0.923613 0.579568 0.785611
0.0476234 0.0505684 0.254414
0.0475013 0.0331731 0.279744
0.472572 0.0499733 0.409247
0.659709 0.147875 0.467536
0.922347 0.649088 0.824384
0.0487068 0.465232 0.376196
0.0502937 0.484367 0.400122
0.576211 0.583764 0.557794
0.877226 0.36376 0.474403
0.921935 0.704341 0.821134
0.269963 0.786297 0.5037
0.258244 0.801511 0.532845
0.392126 0.800061 0.465293
0.930953 0.971801 0.704646
0.981994 0.914794 0.775006
0.839948 0.953475 0.859281
0.850309 0.958312 0.873732
0.867292 0.962615 0.878935
0.928512 0.980728 0.915434
0.957214 0.990341 0.940139
0.0483864 0.0388495 0.377661
0.0671855 0.0408331 0.422446
0.35967 0.0585794 0.533043
0.654002 0.177829 0.622156
0.962493 0.573617 0.926619
0.047303 0.0504616 0.371481
0.0484627 0.0452125 0.398337
0.382589 0.0739452 0.557595
0.660197 0.188266 0.641627
0.962921 0.642023 0.940826
0.0561837 0.431708 0.54992
0.0591135 0.438941 0.561013
0.331228 0.425483 0.773556
0.857176 0.361654 0.821805
0.956481 0.69865 0.940841
0.27097 0.788418 0.695125
0.270756 0.796826 0.707744
0.338415 0.834195 0.740826
0.899321 0.933028 0.902708
0.945525 0.910231 0.900557
0.833616 0.960372 0.89543
0.848157 0.963745 0.902144
0.868894 0.967819 0.910811
0.924926 0.980926 0.928176
0.956069 0.991577 0.948028
0.047776 0.0489357 0.426917
0.0472267 0.0483558 0.412482
0.187213 0.0566415 0.527916
0.623011 0.156619 0.621042
0.768185 0.295811 0.75874
0.0473793 0.0825971 0.446677
0.0473335 0.0917372 0.454871
0.134447 0.0544137 0.506584
0.647959 0.176486 0.638819
0.878828 0.396384 0.865904
0.0749371 0.471565 0.604395
0.0796521 0.488853 0.61001
0.0914015 0.456611 0.633173
0.926238 0.451011 0.91632
0.955917 0.500801 0.939605
0.214038 0.752758 0.710903
0.222278 0.759655 0.717174
0.314366 0.808606 0.781994
0.874586 0.922362 0.925338
0.929717 0.898558 0.929259
0.786816 0.955108 0.903593
0.80412 0.958572 0.909819
0.834577 0.964828 0.918593
0.918456 0.981689 0.943709
0.959701 0.993774 0.958129
