kpg/editing/james luts/eastman rm lut.cube
TITLE "Generated by Resolve"
LUT_3D_SIZE 33
0.0484169 0.0270848 0.0371862
0.0484169 0.0270848 0.0371862
0.0484169 0.0270848 0.0371862
0.0484169 0.0270848 0.0371862
0.0488594 0.0271305 0.0373693
0.0509041 0.0275425 0.0378119
0.0568093 0.0264897 0.0369421
0.0704356 0.0255741 0.0364385
0.0902419 0.024918 0.035996
0.116335 0.0243076 0.0360876
0.151827 0.0233463 0.0363317
0.192416 0.0220035 0.03682
0.237888 0.0206607 0.0379339
0.285924 0.0192264 0.0392004
0.336019 0.017731 0.0407721
0.392203 0.0156863 0.0442206
0.441733 0.0149386 0.0495766
0.482292 0.0151827 0.0564889
0.517418 0.0171817 0.0662699
0.545739 0.0211032 0.0792096
0.56997 0.0285191 0.0966354
0.594507 0.0402838 0.11957
0.622553 0.0582742 0.145617
0.658213 0.0847791 0.178775
0.696284 0.113558 0.215274
0.732906 0.141848 0.255879
0.780713 0.175784 0.308492
0.832288 0.214633 0.373526
0.881849 0.259709 0.444724
0.913237 0.316121 0.51313
0.922774 0.382635 0.570626
0.930022 0.455253 0.628885
0.932006 0.530968 0.687602
0.0484169 0.0270848 0.0371862
0.0484169 0.0270848 0.0371862
0.0484169 0.0270848 0.0371862
0.0484169 0.0270848 0.0371862
0.0489204 0.0275273 0.0375067
0.0504005 0.0279698 0.0378729
0.0554513 0.0269169 0.0371405
0.0683452 0.025391 0.0360876
0.0881208 0.0244755 0.0355688
0.114458 0.0242313 0.0359045
0.149111 0.0235142 0.0363317
0.190097 0.021912 0.0366369
0.237125 0.0202487 0.0372473
0.287388 0.0188602 0.0385595
0.341146 0.0173037 0.0403601
0.396704 0.0152743 0.043473
0.442847 0.0146792 0.0482338
0.483589 0.0149386 0.0549172
0.518502 0.0171817 0.0649577
0.54699 0.0213321 0.0779278
0.571542 0.0290684 0.0962844
0.597101 0.0419318 0.120027
0.626734 0.0616312 0.148196
0.662867 0.0887465 0.181994
0.701274 0.117433 0.21912
0.737026 0.145098 0.258839
0.787213 0.180636 0.313375
0.839414 0.21912 0.378653
0.888655 0.266011 0.450584
0.916075 0.323491 0.516884
0.923629 0.391394 0.576425
0.928969 0.4645 0.63534
0.931136 0.540612 0.694759
0.0484169 0.0270848 0.0371862
0.0484169 0.0270848 0.0371862
0.0484169 0.0270848 0.0371862
0.0484169 0.0270848 0.0371862
0.0489662 0.0281987 0.0377508
0.0498512 0.0287633 0.0378576
0.0538796 0.0286412 0.0376593
0.0645609 0.0272679 0.0370336
0.0843519 0.0252995 0.0357366
0.111009 0.0237888 0.0354467
0.145174 0.0227512 0.0357214
0.185809 0.0213169 0.0361486
0.233616 0.0198215 0.03682
0.286122 0.0184482 0.0379187
0.342016 0.0168154 0.0395514
0.399542 0.0149233 0.0425879
0.446738 0.0145266 0.0478523
0.487236 0.0150454 0.0550698
0.520027 0.0171664 0.063859
0.547799 0.0216068 0.0766308
0.572946 0.0299382 0.0958114
0.599771 0.043946 0.120653
0.631632 0.065568 0.150835
0.667292 0.092256 0.184833
0.705394 0.120943 0.222156
0.742779 0.149905 0.263218
0.794339 0.185748 0.318685
0.846326 0.223636 0.383352
0.895415 0.272038 0.45568
0.918456 0.331273 0.520455
0.924086 0.400122 0.581979
0.927916 0.47393 0.641672
0.9299 0.549798 0.700755
0.0485084 0.0286259 0.0377966
0.0485389 0.027985 0.0375372
0.0484321 0.0272526 0.0371557
0.0484169 0.0271 0.0371862
0.0489052 0.0289311 0.0379797
0.0497444 0.0303502 0.038529
0.0524605 0.0308385 0.0385748
0.0607156 0.0295872 0.0378119
0.0793469 0.0275578 0.0371405
0.105684 0.0248417 0.0357061
0.140093 0.0222324 0.0352941
0.181674 0.0205692 0.0354772
0.22826 0.0192569 0.0363165
0.282048 0.0178073 0.0372625
0.340398 0.0161288 0.0387121
0.39826 0.0141909 0.0405737
0.449165 0.0142214 0.0467536
0.491066 0.0151064 0.0551003
0.522911 0.0171817 0.0637064
0.548638 0.0218204 0.0756085
0.575036 0.0311742 0.0956436
0.603555 0.0465858 0.122271
0.635996 0.0690776 0.153323
0.672557 0.0964981 0.188205
0.709895 0.124727 0.225986
0.748669 0.154238 0.267597
0.801068 0.190509 0.3243
0.853895 0.228733 0.389013
0.901488 0.278141 0.460426
0.920394 0.338766 0.524575
0.924758 0.40911 0.587625
0.926818 0.48365 0.648325
0.928878 0.559182 0.708064
0.0493629 0.0343023 0.0403906
0.0492714 0.0336004 0.0398413
0.0492256 0.0330968 0.0395209
0.0493935 0.0329747 0.0394903
0.0500801 0.0337224 0.0400702
0.0519875 0.0341344 0.0398718
0.0563668 0.0342718 0.0397192
0.0656901 0.0334325 0.0390021
0.0823682 0.0309911 0.0380713
0.107591 0.0279545 0.0375067
0.138705 0.0240024 0.0359045
0.178119 0.0205692 0.0352941
0.224063 0.0182803 0.0354009
0.277348 0.0167697 0.0363317
0.33669 0.0152743 0.038117
0.396475 0.0134737 0.039826
0.446448 0.0133669 0.0440528
0.491615 0.014847 0.0532387
0.525658 0.0174868 0.0640574
0.550896 0.0225834 0.076112
0.576913 0.0321965 0.0952468
0.607248 0.0492561 0.123598
0.640452 0.0728771 0.155383
0.677241 0.100099 0.190936
0.714382 0.128405 0.229389
0.755108 0.158694 0.272221
0.807828 0.195041 0.329519
0.860273 0.233387 0.39379
0.908141 0.285054 0.466056
0.922499 0.346319 0.528572
0.925536 0.417884 0.5935
0.926406 0.493416 0.655833
0.927855 0.568795 0.715023
0.0502327 0.0444343 0.043122
0.0501564 0.0428779 0.0419776
0.0504005 0.0414435 0.0415045
0.0506905 0.0408942 0.0415198
0.0519875 0.0421149 0.0421149
0.0549935 0.0424353 0.0419776
0.0627909 0.0425422 0.041413
0.0771191 0.0404974 0.0405432
0.0965438 0.0379492 0.0399329
0.122881 0.0344396 0.0394293
0.155291 0.0295262 0.0382544
0.191501 0.0233005 0.0360876
0.229419 0.0186007 0.0353246
0.276493 0.0159304 0.0352331
0.332799 0.0142977 0.0371099
0.393149 0.0131228 0.039353
0.443992 0.0128328 0.0428473
0.489006 0.0142214 0.0502327
0.526421 0.0174868 0.0628367
0.554604 0.0236057 0.0780041
0.579782 0.033814 0.0960708
0.610819 0.0523079 0.124865
0.645212 0.0766918 0.157824
0.682414 0.104311 0.194385
0.71902 0.13225 0.232731
0.761944 0.164034 0.277226
0.815015 0.200351 0.334722
0.868147 0.23946 0.399329
0.913207 0.291432 0.469764
0.925048 0.354025 0.532586
0.926833 0.426993 0.599145
0.925566 0.502815 0.662013
0.926726 0.578485 0.72195
0.0514076 0.0616617 0.0458228
0.051606 0.0597238 0.0446174
0.0520638 0.0578927 0.0440223
0.0528267 0.0572519 0.0441749
0.05449 0.0589761 0.0451667
0.0572213 0.0609293 0.0457923
0.0659495 0.0609293 0.0451972
0.0857099 0.0604562 0.0445563
0.115541 0.0543832 0.0430304
0.148043 0.0473487 0.0408789
0.182742 0.0398413 0.0395819
0.220478 0.0320287 0.0381323
0.259571 0.0245975 0.0364233
0.294102 0.017319 0.0352178
0.340124 0.0143587 0.0359655
0.390631 0.0125429 0.0377813
0.438682 0.0121614 0.0412909
0.485222 0.0135653 0.0487526
0.524941 0.0172885 0.0597543
0.554635 0.0236667 0.0759747
0.581704 0.0346075 0.0980087
0.614633 0.0554513 0.125017
0.649546 0.0806897 0.158618
0.68719 0.107988 0.195834
0.723857 0.135973 0.235538
0.767956 0.168566 0.280766
0.821653 0.205127 0.338537
0.875517 0.245182 0.403098
0.918624 0.297688 0.471809
0.93106 0.361074 0.533501
0.934127 0.433738 0.598703
0.932754 0.510201 0.662531
0.934615 0.585351 0.722164
0.0534981 0.0853285 0.0471656
0.052842 0.0843977 0.0464332
0.0530098 0.0828717 0.0453498
0.0542 0.082414 0.0452583
0.0562295 0.0844892 0.0460822
0.0597696 0.0869459 0.047425
0.0681621 0.0889601 0.0484321
0.0909743 0.0879683 0.0469368
0.127352 0.084947 0.0458076
0.169192 0.0759899 0.0447547
0.209201 0.0627451 0.0420539
0.250767 0.048249 0.0405127
0.287114 0.0390173 0.0396277
0.328664 0.0282902 0.0382544
0.368963 0.0187228 0.0364691
0.404288 0.0130312 0.036347
0.43856 0.0118257 0.0390326
0.47657 0.0124361 0.0447242
0.517464 0.0161288 0.0559854
0.55378 0.0244907 0.072755
0.583642 0.0361334 0.0964523
0.615915 0.0556649 0.12607
0.654169 0.0846723 0.158419
0.692058 0.112154 0.19649
0.72845 0.139849 0.237095
0.774472 0.173663 0.283574
0.828351 0.21001 0.341497
0.88278 0.251621 0.406607
0.921981 0.303883 0.472877
0.932647 0.368841 0.535546
0.935134 0.44239 0.60206
0.932204 0.519478 0.667628
0.933928 0.594583 0.728511
0.0539101 0.113024 0.0488136
0.0529793 0.112535 0.0476539
0.0526131 0.111833 0.0455787
0.053727 0.111971 0.0446937
0.0560464 0.113588 0.045182
0.0601053 0.116121 0.046479
0.0689403 0.119341 0.0487678
0.0886244 0.12137 0.0495766
0.129458 0.1178 0.0473945
0.177523 0.113008 0.0461585
0.225406 0.102251 0.0453803
0.273732 0.0833906 0.0432593
0.317494 0.06215 0.0418097
0.35668 0.0476844 0.0407111
0.39884 0.0319219 0.0396582
0.432898 0.0201267 0.0379797
0.456992 0.0142061 0.038819
0.477623 0.0126955 0.0412451
0.508705 0.0147402 0.0496986
0.5449 0.0222477 0.06598
0.582834 0.0385748 0.091783
0.616602 0.0578012 0.123919
0.655268 0.0852674 0.158022
0.696391 0.115892 0.19498
0.733516 0.144167 0.237461
0.781598 0.178561 0.286091
0.834699 0.215152 0.342489
0.88867 0.257328 0.40766
0.924361 0.310872 0.472236
0.933623 0.37615 0.536065
0.935515 0.450782 0.604395
0.931563 0.528588 0.671962
0.932708 0.603998 0.734417
0.0531472 0.144488 0.0499275
0.0522316 0.144549 0.0484779
0.0518196 0.144091 0.0459907
0.0518654 0.145174 0.0436561
0.0536507 0.146441 0.0425116
0.0573892 0.148669 0.0434882
0.0662394 0.152895 0.0460975
0.0837873 0.15697 0.0490578
0.119387 0.159136 0.049836
0.175967 0.153521 0.047715
0.233677 0.147799 0.0467842
0.286183 0.135485 0.04654
0.338003 0.110704 0.0454108
0.385794 0.0843977 0.0434272
0.428748 0.061677 0.0426032
0.462181 0.0437018 0.0415198
0.489464 0.0285801 0.0415045
0.504784 0.0205081 0.0422522
0.513451 0.0169985 0.0464179
0.533989 0.0200504 0.0568399
0.571466 0.0340124 0.0818189
0.615885 0.0617685 0.117937
0.653742 0.0866102 0.156359
0.69633 0.117723 0.194324
0.736141 0.147753 0.235187
0.786664 0.182666 0.286778
0.839887 0.219699 0.340856
0.893111 0.263355 0.406439
0.924651 0.317525 0.469261
0.933806 0.38352 0.535592
0.935134 0.45861 0.605417
0.930922 0.537392 0.67538
0.931167 0.613184 0.739696
0.0527504 0.179126 0.0519265
0.0516213 0.17969 0.0497292
0.0510109 0.17969 0.0467994
0.0506905 0.181003 0.0442969
0.0504158 0.182498 0.0413825
0.0534218 0.183444 0.0403906
0.0609903 0.187427 0.0422065
0.0781415 0.192172 0.0448768
0.110445 0.196872 0.0485389
0.162951 0.20061 0.0500038
0.230518 0.194049 0.0476387
0.294118 0.18793 0.0471962
0.349844 0.175586 0.0489204
0.406027 0.145647 0.0488441
0.453483 0.114534 0.0457923
0.490776 0.0892958 0.0460822
0.517617 0.07364 0.0464485
0.540856 0.0542 0.048188
0.548302 0.0372168 0.0501259
0.546914 0.0275883 0.0548409
0.55967 0.0298619 0.0671702
0.599512 0.0515297 0.100649
0.652873 0.0921035 0.147631
0.692012 0.118135 0.192309
0.735897 0.151446 0.23389
0.788525 0.187655 0.287037
0.842985 0.224964 0.340932
0.89456 0.270039 0.403235
0.923262 0.324315 0.464607
0.9337 0.391531 0.534569
0.934554 0.466529 0.605447
0.929763 0.54551 0.677058
0.92958 0.621347 0.742794
0.0528725 0.216419 0.0545357
0.0512093 0.217792 0.0521096
0.0504005 0.218296 0.0486152
0.0500038 0.219745 0.0455024
0.0497139 0.221439 0.0430762
0.0496834 0.221744 0.0390021
0.0537575 0.223392 0.0391394
0.0676432 0.228901 0.041001
0.0973983 0.235111 0.044007
0.143603 0.243 0.0486305
0.209186 0.249393 0.0501717
0.287297 0.243061 0.0481422
0.358801 0.236301 0.0487526
0.420661 0.222827 0.0509194
0.477516 0.188235 0.0510414
0.518715 0.1561 0.0495918
0.549432 0.130053 0.0514229
0.572412 0.118654 0.0537575
0.590555 0.10074 0.0577554
0.594583 0.0791638 0.0622263
0.584833 0.0533303 0.0658122
0.592493 0.0490425 0.0809644
0.631403 0.0747845 0.120974
0.692332 0.124636 0.178042
0.729656 0.150454 0.23003
0.786496 0.190768 0.285283
0.842298 0.229877 0.340795
0.892134 0.276555 0.399496
0.918227 0.331655 0.459663
0.930144 0.398703 0.530816
0.932784 0.474266 0.603601
0.928466 0.553094 0.677165
0.928817 0.629328 0.745007
0.0525826 0.25626 0.056672
0.0505074 0.258198 0.0543374
0.0495918 0.259312 0.05066
0.0492561 0.260716 0.0476692
0.0489967 0.262074 0.0436713
0.0488899 0.264179 0.0412146
0.0487678 0.262974 0.0352483
0.0543374 0.267369 0.0366369
0.0722972 0.274525 0.0387579
0.11133 0.283711 0.0418097
0.168811 0.295949 0.0477913
0.253986 0.30724 0.0495918
0.347829 0.301305 0.048127
0.432959 0.293324 0.0491493
0.501152 0.278843 0.0519417
0.549203 0.246723 0.0536202
0.588296 0.213016 0.0579232
0.612009 0.187655 0.0607004
0.632563 0.176715 0.0649729
0.64654 0.158816 0.0714427
0.649927 0.135744 0.0790112
0.637232 0.101732 0.082887
0.638086 0.0846571 0.0991684
0.666484 0.102281 0.138506
0.734844 0.159594 0.206241
0.781491 0.189212 0.276127
0.841794 0.23241 0.334661
0.890272 0.281529 0.395254
0.913146 0.337926 0.451438
0.926406 0.405875 0.523781
0.930129 0.481605 0.599176
0.92781 0.560586 0.675853
0.928481 0.636698 0.74548
0.0505226 0.298543 0.0543221
0.049073 0.301167 0.0531472
0.0483864 0.302525 0.0503395
0.0479744 0.30341 0.0467231
0.0476692 0.304906 0.0436713
0.0474403 0.306447 0.0402991
0.0472725 0.308232 0.0365454
0.0475319 0.307042 0.0309758
0.0539101 0.313146 0.0322271
0.0767834 0.322347 0.0336309
0.126452 0.334722 0.0374151
0.199863 0.354528 0.0443732
0.307424 0.374105 0.0479438
0.416175 0.370398 0.0477913
0.510994 0.365362 0.0504311
0.578332 0.356374 0.0561685
0.627909 0.328573 0.0611124
0.668849 0.291478 0.0714733
0.694911 0.26717 0.080293
0.711391 0.253193 0.0861524
0.725017 0.236408 0.0951553
0.725078 0.208072 0.104433
0.709545 0.169024 0.10956
0.699916 0.139834 0.121798
0.711101 0.140917 0.156786
0.787243 0.199985 0.237293
0.837369 0.229999 0.323293
0.889372 0.282963 0.384222
0.910719 0.341726 0.443076
0.921889 0.411063 0.511131
0.927062 0.488182 0.590692
0.926497 0.567864 0.671672
0.927337 0.643671 0.744717
0.0486305 0.342031 0.0517128
0.047776 0.344717 0.0525216
0.047364 0.346807 0.0517433
0.0470893 0.347799 0.049134
0.0469368 0.348775 0.0461433
0.0470436 0.349813 0.042649
0.0469978 0.351797 0.039765
0.0470436 0.35317 0.0352026
0.0479286 0.353033 0.0298924
0.0585489 0.361578 0.0305943
0.0941634 0.374487 0.0327916
0.159823 0.394247 0.0379339
0.253071 0.426169 0.0474556
0.383627 0.45098 0.0524453
0.498314 0.444938 0.0552071
0.583337 0.441138 0.0600748
0.648844 0.432883 0.0682536
0.700633 0.411002 0.0761883
0.737621 0.376242 0.0854505
0.768429 0.345968 0.101793
0.785367 0.3308 0.110613
0.797726 0.31194 0.119081
0.804379 0.286458 0.129564
0.795819 0.248936 0.138979
0.773571 0.209064 0.148318
0.774777 0.198962 0.180789
0.844297 0.2448 0.2701
0.885573 0.279011 0.370031
0.908614 0.342077 0.430335
0.918593 0.414496 0.501823
0.92282 0.493462 0.578164
0.92372 0.573938 0.663996
0.925841 0.65005 0.741619
0.0486458 0.388724 0.0547036
0.0476387 0.391897 0.0573434
0.0472267 0.394659 0.0591287
0.0471046 0.396475 0.0582742
0.0471046 0.397848 0.056199
0.0471962 0.399069 0.0527657
0.0473793 0.400931 0.0486458
0.0477455 0.403906 0.045182
0.0483864 0.405188 0.0392004
0.0525521 0.406683 0.0330358
0.076997 0.419104 0.0336004
0.133547 0.436439 0.0366674
0.209964 0.462074 0.0435645
0.318761 0.499397 0.0555581
0.462333 0.521141 0.0625315
0.56585 0.514839 0.0700542
0.646799 0.511864 0.0799115
0.710689 0.505302 0.0933547
0.763607 0.489036 0.107301
0.799207 0.458045 0.117708
0.828794 0.424689 0.133989
0.846098 0.408515 0.144579
0.855497 0.387442 0.149859
0.859907 0.362325 0.151827
0.850874 0.323842 0.153979
0.833494 0.280324 0.166415
0.837629 0.261494 0.204135
0.891371 0.295766 0.30663
0.905287 0.337285 0.415229
0.915511 0.414099 0.488884
0.918471 0.496513 0.567468
0.919524 0.579126 0.652262
0.923766 0.656138 0.735836
0.0520638 0.442039 0.0645914
0.0504005 0.445457 0.071458
0.0492714 0.448463 0.0760815
0.0491188 0.45069 0.07776
0.0490425 0.452537 0.0775464
0.0495308 0.454002 0.0743572
0.0505379 0.455482 0.0691234
0.0516213 0.457053 0.0637675
0.0530861 0.459129 0.0585031
0.0567636 0.459617 0.0489052
0.0719615 0.462486 0.0407111
0.12018 0.476738 0.0407111
0.188006 0.497627 0.0460212
0.273075 0.529198 0.0574807
0.403037 0.571756 0.0758068
0.533745 0.587732 0.0866255
0.628901 0.581201 0.101167
0.705806 0.578531 0.119234
0.767544 0.573053 0.138415
0.818921 0.560754 0.15462
0.854551 0.534676 0.16463
0.878462 0.502983 0.174731
0.893095 0.485649 0.183627
0.902159 0.466102 0.190311
0.900038 0.436088 0.187228
0.886595 0.39884 0.176196
0.871534 0.354452 0.17763
0.882948 0.327901 0.219654
0.911238 0.353704 0.347723
0.909545 0.407446 0.473701
0.914534 0.495338 0.556374
0.91545 0.582101 0.640909
0.919966 0.660731 0.725765
0.0627298 0.49189 0.0843519
0.0596933 0.495277 0.0955367
0.0573434 0.498756 0.104417
0.0570535 0.501244 0.109575
0.0569619 0.503166 0.111894
0.0575265 0.504616 0.110109
0.0588846 0.505516 0.104097
0.0614328 0.505913 0.095201
0.0643778 0.506935 0.0880751
0.0692454 0.507988 0.0794995
0.0807202 0.507958 0.0643778
0.118456 0.515572 0.055375
0.18175 0.53434 0.0579232
0.255833 0.560876 0.0690471
0.353368 0.599161 0.0903182
0.484794 0.638392 0.113161
0.598108 0.651209 0.128939
0.687266 0.643854 0.147921
0.762112 0.64181 0.171359
0.823865 0.637476 0.192859
0.873762 0.6262 0.208164
0.90898 0.603204 0.216526
0.927321 0.576226 0.22005
0.93695 0.560006 0.223529
0.939956 0.542596 0.225162
0.932433 0.514153 0.21973
0.918441 0.473518 0.210346
0.902068 0.427359 0.204318
0.910765 0.396368 0.242557
0.913832 0.420584 0.404639
0.906889 0.486778 0.542473
0.910338 0.580606 0.631525
0.916136 0.663813 0.714885
0.0860304 0.538964 0.118074
0.0798505 0.542275 0.132723
0.0757 0.546014 0.14583
0.0742657 0.548684 0.152422
0.0734722 0.550668 0.157259
0.074052 0.55227 0.157946
0.076524 0.55314 0.15375
0.0804303 0.553079 0.144289
0.0863966 0.552911 0.13257
0.0929122 0.55346 0.122927
0.1028 0.554131 0.111376
0.125231 0.554421 0.0900282
0.181964 0.56965 0.0842756
0.2533 0.593179 0.0923629
0.333242 0.624704 0.111803
0.440314 0.667826 0.140719
0.555749 0.701747 0.163348
0.658778 0.713085 0.180987
0.743084 0.705898 0.201114
0.817273 0.703868 0.227481
0.879805 0.69865 0.25008
0.927291 0.687785 0.26334
0.959503 0.668788 0.270039
0.975174 0.645914 0.270039
0.981598 0.631632 0.268727
0.976211 0.618723 0.262074
0.964691 0.590784 0.250507
0.949828 0.549233 0.237903
0.936034 0.497444 0.235691
0.930251 0.463813 0.277913
0.91603 0.495277 0.469108
0.905455 0.571176 0.61471
0.913252 0.662379 0.706477
0.122911 0.582742 0.160723
0.114763 0.586206 0.176547
0.107866 0.5897 0.190448
0.105303 0.592554 0.19852
0.103624 0.594995 0.20531
0.103868 0.596506 0.207034
0.106401 0.597559 0.204685
0.111162 0.597452 0.196277
0.117494 0.596963 0.184604
0.12578 0.596078 0.170901
0.134356 0.596094 0.159579
0.146334 0.596674 0.146807
0.182528 0.602594 0.127398
0.251759 0.624353 0.126696
0.328862 0.653437 0.141665
0.415534 0.690883 0.167376
0.512016 0.731594 0.19675
0.617044 0.763516 0.220813
0.714824 0.774792 0.239307
0.795941 0.767575 0.257969
0.869718 0.764508 0.283925
0.9337 0.757229 0.307118
0.978073 0.7458 0.318822
1 0.72958 0.323018
0.999786 0.709865 0.321569
0.999847 0.70132 0.314519
0.999908 0.691188 0.306874
0.999756 0.665187 0.293355
0.982437 0.62417 0.274723
0.964904 0.568856 0.26894
0.942504 0.531945 0.3308
0.919997 0.575677 0.543175
0.911162 0.65301 0.688991
0.160113 0.624109 0.202655
0.151156 0.62768 0.219287
0.143648 0.631128 0.234211
0.140566 0.633906 0.243046
0.138109 0.636454 0.250004
0.138262 0.63827 0.253208
0.139544 0.639216 0.252216
0.143359 0.639414 0.246128
0.148562 0.638544 0.235157
0.155825 0.637293 0.220813
0.165698 0.635584 0.2038
0.175357 0.635569 0.191119
0.195315 0.639567 0.180652
0.247974 0.654444 0.169314
0.324483 0.680507 0.174548
0.407614 0.714794 0.195819
0.483818 0.750744 0.222583
0.572137 0.789136 0.252369
0.671809 0.820218 0.278172
0.765957 0.831937 0.296864
0.845411 0.825086 0.317632
0.916579 0.82089 0.342779
0.981231 0.810315 0.366155
0.999817 0.79704 0.377371
0.999817 0.781277 0.383062
1 0.767712 0.383612
1 0.75967 0.374655
0.999741 0.750454 0.361212
1 0.729244 0.346105
0.999954 0.694286 0.323552
0.989441 0.637156 0.316533
0.951934 0.598779 0.40206
0.926528 0.656519 0.62002
0.196231 0.662531 0.239658
0.188373 0.6654 0.253971
0.182269 0.667872 0.264836
0.18024 0.669886 0.270222
0.178271 0.671733 0.275456
0.178866 0.673487 0.27837
0.180209 0.674784 0.278904
0.183291 0.675425 0.274907
0.187686 0.674922 0.266423
0.194186 0.673732 0.253315
0.203662 0.671885 0.235447
0.215442 0.670192 0.21529
0.232517 0.674723 0.20621
0.262608 0.685054 0.201373
0.328115 0.707607 0.199252
0.414939 0.741054 0.214343
0.487999 0.776074 0.240116
0.558984 0.810529 0.268269
0.640345 0.844831 0.297322
0.731334 0.871519 0.32253
0.819944 0.882521 0.347097
0.890166 0.877638 0.375082
0.951583 0.872053 0.403861
0.999817 0.861601 0.427985
0.999908 0.8486 0.442924
0.999832 0.833219 0.449393
0.999725 0.821973 0.450629
0.999847 0.815595 0.443214
0.999939 0.807202 0.429953
0.999969 0.786938 0.415412
0.999985 0.754665 0.393286
0.999786 0.702174 0.393942
0.957778 0.667994 0.487404
0.225879 0.696086 0.274388
0.218082 0.698741 0.288304
0.211566 0.701411 0.299748
0.209476 0.703197 0.305348
0.207126 0.704952 0.310109
0.207309 0.706432 0.313054
0.208011 0.70753 0.313558
0.210285 0.708003 0.310765
0.213718 0.707912 0.304631
0.218738 0.707012 0.293828
0.227466 0.705989 0.278309
0.240009 0.704738 0.25803
0.261997 0.709133 0.242435
0.287068 0.718318 0.238727
0.322072 0.730968 0.238071
0.396841 0.755306 0.243214
0.47071 0.786343 0.265309
0.539422 0.819318 0.29456
0.60708 0.85124 0.326635
0.683909 0.883207 0.362783
0.772076 0.910109 0.401297
0.853864 0.922454 0.435599
0.914351 0.920943 0.467109
0.962036 0.915038 0.490806
0.999771 0.906447 0.513359
0.999863 0.895399 0.528069
0.999771 0.883177 0.53521
0.999756 0.870619 0.53782
0.999817 0.865751 0.531441
0.999695 0.858396 0.516838
0.999817 0.841321 0.499855
0.999847 0.813504 0.479561
0.999908 0.770367 0.48838
0.250233 0.724422 0.306264
0.242863 0.727138 0.318837
0.236179 0.729824 0.330831
0.233875 0.731487 0.335805
0.231662 0.732952 0.340551
0.231266 0.733776 0.341817
0.231525 0.734462 0.342046
0.233478 0.734874 0.340352
0.235935 0.735195 0.336507
0.240513 0.735195 0.329061
0.247669 0.734783 0.316014
0.262226 0.736675 0.300801
0.28368 0.74049 0.282658
0.317281 0.750286 0.275166
0.350103 0.75964 0.277897
0.389258 0.770901 0.288334
0.452918 0.791043 0.307195
0.52134 0.818036 0.336233
0.588678 0.848539 0.372778
0.654429 0.87892 0.410773
0.731884 0.911376 0.453513
0.814206 0.938277 0.493843
0.881041 0.95021 0.527382
0.931182 0.952987 0.558877
0.963546 0.946975 0.576059
0.998611 0.940078 0.593774
0.999695 0.932372 0.607156
0.999771 0.92314 0.615595
0.999634 0.91371 0.62089
0.999664 0.909422 0.615198
0.999756 0.903197 0.601923
0.999756 0.887419 0.587945
0.99971 0.864424 0.571069
0.265476 0.747585 0.334905
0.260945 0.749416 0.342657
0.256001 0.751598 0.352667
0.254017 0.753079 0.357595
0.252201 0.754543 0.361715
0.25214 0.755367 0.362493
0.252216 0.755856 0.362463
0.253437 0.756237 0.361135
0.256275 0.757382 0.359304
0.261372 0.758648 0.356344
0.270085 0.760967 0.350393
0.283131 0.7635 0.341192
0.306172 0.767346 0.328618
0.345632 0.773266 0.321706
0.38555 0.781399 0.328511
0.418387 0.789807 0.344091
0.457984 0.800244 0.363882
0.52076 0.820935 0.390967
0.587335 0.847593 0.425147
0.652445 0.877394 0.463737
0.717769 0.90753 0.504448
0.788708 0.937224 0.546654
0.852216 0.958038 0.582544
0.90219 0.96788 0.612757
0.942214 0.973205 0.644327
0.9626 0.967575 0.655573
0.984253 0.9635 0.670192
0.993576 0.958328 0.679973
0.996017 0.951644 0.687572
0.996765 0.945052 0.691829
0.998215 0.942504 0.687327
0.999695 0.938415 0.676692
0.99968 0.926268 0.665019
0.283604 0.766827 0.358251
0.282582 0.767788 0.361868
0.279057 0.769421 0.368872
0.276951 0.770672 0.373785
0.275196 0.771939 0.378439
0.275273 0.772381 0.379034
0.275593 0.772763 0.378851
0.277272 0.772885 0.377569
0.279896 0.773434 0.376486
0.286198 0.774899 0.375799
0.299153 0.777142 0.375036
0.321492 0.779583 0.373983
0.349615 0.782971 0.374151
0.383444 0.788037 0.377127
0.423529 0.79617 0.38674
0.462959 0.80589 0.404501
0.497673 0.815946 0.426505
0.537682 0.828794 0.451087
0.596353 0.849744 0.481117
0.659754 0.876875 0.516701
0.722774 0.90602 0.555154
0.781643 0.932708 0.592996
0.835538 0.95433 0.627298
0.880858 0.96878 0.657649
0.918929 0.97763 0.688594
0.950362 0.982666 0.720088
0.962341 0.978973 0.728664
0.973465 0.977325 0.740642
0.977417 0.974578 0.748516
0.977447 0.970291 0.753552
0.97763 0.966094 0.756313
0.978698 0.964584 0.750408
0.981414 0.962142 0.741238
0.334874 0.782666 0.384588
0.336309 0.783551 0.388846
0.335698 0.784802 0.395804
0.335714 0.786099 0.401846
0.336141 0.787045 0.407187
0.338827 0.787823 0.410178
0.34168 0.788281 0.41178
0.345968 0.788724 0.411963
0.349508 0.78909 0.412131
0.357458 0.790326 0.41474
0.371389 0.793011 0.421302
0.389532 0.79646 0.428443
0.411627 0.800748 0.435843
