kpg/editing/james luts/neutral lut.cube
TITLE "Generated by Resolve"
LUT_3D_SIZE 5
0.0132143 0.0132143 0.013077
0.143984 0.0139773 0.0352789
0.620661 0.0216373 0.171633
0.986481 0.256977 0.561944
0.984894 0.825055 0.944625
0.00750744 0.159091 0.0318914
0.140093 0.146029 0.0187991
0.572869 0 0.0286564
0.986435 0.2663 0.527993
0.984909 0.82504 0.94345
0.00915541 0.590448 0.17406
0.0323491 0.592859 0.108598
0.57615 0.588876 0.0793622
1 0.410819 0.135302
0.985168 0.824598 0.933455
0.288731 0.976562 0.475349
0.295232 0.975952 0.461097
0.544747 0.986557 0.486793
0.961913 0.988464 0.597574
1 0.909422 0.597665
0.906218 0.992035 0.923491
0.906538 0.992065 0.922957
0.907866 0.992294 0.919463
0.957717 0.993667 0.928069
0.994247 0.993347 0.955901
0.0182193 0.0116274 0.119814
0.152178 0.0145571 0.132662
0.643915 0.0264591 0.283391
0.986557 0.251957 0.592355
0.984894 0.82536 0.945663
0.0108492 0.142931 0.129854
0.134951 0.13402 0.133959
0.617395 0.0214694 0.170199
0.986435 0.260334 0.562554
0.984894 0.825299 0.944625
0 0.584802 0.242405
0.0196994 0.588647 0.174594
0.574121 0.586938 0.080354
0.993942 0.402487 0.2168
0.985122 0.824872 0.934981
0.284489 0.97734 0.497673
0.297871 0.97641 0.478859
0.538155 0.986343 0.488243
0.961837 0.988357 0.59791
1 0.906676 0.61677
0.906264 0.99202 0.924163
0.906615 0.99205 0.92372
0.908217 0.992279 0.92018
0.95758 0.993667 0.928145
0.994247 0.993347 0.955917
0.0484779 0 0.479652
0.198596 0 0.510262
0.638041 0.0261997 0.588022
0.983093 0.166857 0.740612
0.984894 0.827329 0.953201
0 0.043122 0.505714
0.0708171 0 0.555734
0.643336 0.0275273 0.591989
0.983459 0.169253 0.727184
0.984909 0.827314 0.9523
0 0.542535 0.511528
0.00505074 0.544518 0.514275
0.566186 0.565454 0.566537
0.985565 0.365148 0.587442
0.984955 0.827039 0.944762
0.249882 0.974075 0.620676
0.265034 0.975723 0.612467
0.41091 0.978653 0.537179
0.960922 0.987442 0.601923
0.998077 0.89514 0.724804
0.906126 0.991821 0.93048
0.906523 0.991867 0.929992
0.909636 0.992111 0.925872
0.955825 0.993637 0.929137
0.994247 0.993347 0.956054
0.147555 0 0.913451
0.175402 0 0.916564
0.615076 0 0.937224
0.980789 0.0764477 0.980789
0.984512 0.809964 0.982742
0 0.0215152 0.945861
0.0615702 0 0.949142
0.613336 0 0.962448
0.980789 0.0766308 0.980804
0.984497 0.80975 0.982574
0 0.510887 0.825589
0 0.497353 0.835691
0.419501 0.434333 0.955032
0.980835 0.11133 0.970352
0.984436 0.80798 0.981262
0.182879 0.92903 0.903593
0.187213 0.928801 0.903441
0.239597 0.930739 0.906569
0.934936 0.934829 0.935332
0.986954 0.882414 0.952132
0.897383 0.991714 0.96228
0.897856 0.991714 0.962142
0.901961 0.99176 0.961074
0.931426 0.992752 0.942855
0.994217 0.993347 0.957427
0 0.133318 0.963409
0 0.134813 0.963302
0 0.0980087 0.965713
0.980545 0.0590524 0.980545
0.980758 0.598383 0.980758
0 0.204807 0.959243
0 0.209339 0.958984
0 0.165499 0.961456
0.980713 0.0670329 0.980713
0.980804 0.598764 0.980804
0 0.576471 0.906737
0 0.57702 0.906706
0 0.548196 0.91429
0.979675 0.343252 0.979675
0.980926 0.601907 0.980926
0 0.910277 0.961959
0 0.906691 0.961273
0.139452 0.897154 0.971374
0.897093 0.917845 0.987274
0.985656 0.85005 0.985656
0.848859 0.990677 0.99118
0.849775 0.990677 0.991165
0.856855 0.990875 0.991348
0.905547 0.992203 0.992493
0.993469 0.993469 0.993469
