kpg/editing/james luts/neutral lut.cube
TITLE "Generated by Resolve"
LUT_3D_SIZE 9
0.0132143 0.0132143 0.013077
0.0325322 0.014023 0.0166934
0.143984 0.0139773 0.0352789
0.33991 0.0145571 0.0701305
0.620661 0.0216373 0.171633
0.934859 0.0723888 0.343053
0.986481 0.256977 0.561944
0.980987 0.562188 0.800824
0.984894 0.825055 0.944625
0.0154116 0.0388342 0.0207828
0.031693 0.0321813 0.0155795
0.112215 0.0285496 0.0149844
0.318273 0 0.0331273
0.605722 0.0196384 0.135668
0.930678 0.0794232 0.31252
0.986419 0.260365 0.549325
0.980926 0.562539 0.797284
0.984909 0.825055 0.944183
0.00750744 0.159091 0.0318914
0.0315709 0.148638 0.0075227
0.140093 0.146029 0.0187991
0.341039 0.0858473 0.0141909
0.572869 0 0.0286564
0.924926 0.0769818 0.278523
0.986435 0.2663 0.527993
0.980819 0.563333 0.79118
0.984909 0.82504 0.94345
0 0.347295 0.0771496
0 0.347143 0.040589
0.0648966 0.345968 0
0.331289 0.340459 0.0149233
0.611658 0.267475 0.0426184
0.871931 0.0911116 0.0444953
0.986297 0.260761 0.476143
0.980591 0.56553 0.770855
0.984955 0.824979 0.9411
0.00915541 0.590448 0.17406
0.0206455 0.591775 0.155596
0.0323491 0.592859 0.108598
0.199832 0.594095 0.0390478
0.57615 0.588876 0.0793622
0.869032 0.550561 0.142824
1 0.410819 0.135302
0.981064 0.571206 0.688411
0.985168 0.824598 0.933455
0.0917678 0.850187 0.33106
0.095079 0.851209 0.320882
0.110597 0.849668 0.304479
0.148104 0.847196 0.189502
0.493111 0.862898 0.205463
0.820966 0.846662 0.277836
1 0.807248 0.362264
0.983658 0.714244 0.313161
0.985397 0.810895 0.911238
0.288731 0.976562 0.475349
0.292576 0.976257 0.468757
0.295232 0.975952 0.461097
0.364553 0.977539 0.46981
0.544747 0.986557 0.486793
0.770779 0.990845 0.525154
0.961913 0.988464 0.597574
1 0.960281 0.647547
1 0.909422 0.597665
0.687724 0.98793 0.74641
0.688594 0.988037 0.745174
0.689708 0.98822 0.742809
0.691249 0.988586 0.736965
0.725261 0.990051 0.7467
0.827176 0.99176 0.758801
0.932326 0.993423 0.781186
0.993133 0.993805 0.836515
0.996002 0.993271 0.875914
0.906218 0.992035 0.923491
0.906355 0.99205 0.923293
0.906538 0.992065 0.922957
0.907073 0.992142 0.922103
0.907866 0.992294 0.919463
0.921828 0.992828 0.923278
0.957717 0.993667 0.928069
0.983093 0.994003 0.936675
0.994247 0.993347 0.955901
0.0140841 0.0132143 0.0304875
0.0332036 0.0139467 0.0305638
0.154559 0.0157778 0.0767529
0.36231 0.0179751 0.126528
0.634089 0.0236667 0.217044
0.937804 0.0673381 0.370611
0.986496 0.254932 0.574228
0.981018 0.562127 0.804608
0.984878 0.825147 0.945068
0.0152285 0.0366827 0.0344396
0.0308995 0.0308843 0.030518
0.147112 0.0208591 0.0377966
0.338537 0.0149691 0.0699016
0.620172 0.0218204 0.171389
0.934951 0.0744945 0.343755
0.986465 0.258274 0.562188
0.980957 0.562615 0.800855
0.984894 0.825147 0.944625
0.0111849 0.156176 0.0780499
0.0106508 0.154086 0.0324407
0.139269 0.145006 0.0198825
0.349874 0.0829328 0.0383459
0.592737 0.0107729 0.0984817
0.92665 0.0863355 0.291951
0.986496 0.263798 0.541985
0.98085 0.563256 0.795285
0.984909 0.825132 0.943923
0.00196841 0.344854 0.115267
0 0.345739 0.0770428
0.0146181 0.346319 0
0.330739 0.339971 0.0160678
0.610864 0.263722 0.0676432
0.890394 0.0839704 0.0945754
0.985763 0.283177 0.460868
0.980591 0.565606 0.775067
0.984955 0.825086 0.941588
0 0.587671 0.201099
0.0129244 0.589563 0.17409
0.027985 0.590875 0.133242
0.171756 0.593423 0.0404517
0.575616 0.588479 0.0804608
0.872297 0.546838 0.164858
0.997726 0.407431 0.165255
0.980941 0.571679 0.694575
0.985153 0.824704 0.934051
0.0886244 0.849577 0.349584
0.094789 0.849622 0.33193
0.103075 0.850278 0.318608
0.146731 0.845975 0.200778
0.484993 0.862577 0.207004
0.820798 0.846372 0.280919
1 0.805661 0.379721
0.983413 0.710826 0.332631
0.985626 0.822629 0.89482
0.287617 0.976913 0.483955
0.292409 0.976532 0.476509
0.297581 0.976135 0.466987
0.351934 0.977035 0.47068
0.543252 0.986526 0.487068
0.769177 0.990845 0.526879
0.961883 0.988418 0.597742
1 0.959701 0.651423
1 0.907988 0.605402
0.687892 0.987854 0.74847
0.688823 0.987945 0.747173
0.69012 0.988128 0.745144
0.692226 0.988571 0.738659
0.723583 0.989944 0.747051
0.826795 0.99176 0.758801
0.932174 0.993408 0.781643
0.993133 0.993805 0.836545
0.995972 0.993271 0.876783
0.906233 0.992035 0.923751
0.906371 0.992035 0.923583
0.906584 0.992065 0.923293
0.907134 0.992126 0.922347
0.908003 0.992294 0.919738
0.921599 0.992813 0.923339
0.957671 0.993667 0.9281
0.983093 0.994003 0.936736
0.994247 0.993347 0.955901
0.0182193 0.0116274 0.119814
0.0695659 0.0122683 0.117678
0.152178 0.0145571 0.132662
0.364248 0.017792 0.202533
0.643915 0.0264591 0.283391
0.940093 0.0581064 0.408148
0.986557 0.251957 0.592355
0.981064 0.562051 0.810162
0.984894 0.82536 0.945663
0.011368 0.0389715 0.0895399
0.0212253 0.0119631 0.128725
0.153124 0.0153811 0.133639
0.360555 0.0182345 0.161791
0.637522 0.0244755 0.244724
0.938979 0.0664073 0.386221
0.986496 0.254902 0.581521
0.981003 0.562539 0.806592
0.984894 0.825299 0.945327
0.0108492 0.142931 0.129854
0.0144045 0.139986 0.127672
0.134951 0.13402 0.133959
0.381903 0.0850843 0.136278
0.617395 0.0214694 0.170199
0.934997 0.0782635 0.344793
0.986435 0.260334 0.562554
0.980896 0.563302 0.8009
0.984894 0.825299 0.944625
0.00341802 0.33962 0.167315
0 0.340429 0.14287
0.00947585 0.340169 0.083299
0.331044 0.34081 0.0631418
0.614221 0.252583 0.104738
0.919402 0.121706 0.193454
0.985962 0.280339 0.489525
0.980545 0.565393 0.781842
0.984939 0.825238 0.942367
0 0.584802 0.242405
0 0.585519 0.218967
0.0196994 0.588647 0.174594
0.110201 0.592569 0.0420691
0.574121 0.586938 0.080354
0.872816 0.543389 0.193637
0.993942 0.402487 0.2168
0.980682 0.572259 0.703578
0.985122 0.824872 0.934981
0.0839857 0.848539 0.376333
0.0897841 0.848615 0.360693
0.0994736 0.848798 0.332967
0.141131 0.84538 0.245304
0.471077 0.862242 0.209064
0.82031 0.845853 0.282307
1 0.803494 0.404578
0.982803 0.707195 0.370962
0.985641 0.823011 0.896483
0.284489 0.97734 0.497673
0.289921 0.977005 0.4907
0.297871 0.97641 0.478859
0.332082 0.976623 0.470573
0.538155 0.986343 0.488243
0.766598 0.990845 0.529366
0.961837 0.988357 0.59791
1 0.95877 0.65771
1 0.906676 0.61677
0.688045 0.987671 0.75256
0.689067 0.987808 0.750866
0.690532 0.988006 0.748241
0.693446 0.98851 0.741985
0.720775 0.989792 0.747448
0.826139 0.99176 0.758953
0.93193 0.993393 0.782391
0.993133 0.993805 0.836591
0.995941 0.993271 0.878157
0.906264 0.99202 0.924163
0.906401 0.992035 0.923995
0.906615 0.99205 0.92372
0.90721 0.992111 0.922774
0.908217 0.992279 0.92018
0.921218 0.992798 0.923445
0.95758 0.993667 0.928145
0.983078 0.994003 0.936828
0.994247 0.993347 0.955917
0.0277409 0.00529488 0.280156
0.0903944 0.00537118 0.282551
0.183246 0.00370794 0.300206
0.366934 0.0124361 0.330602
0.643458 0.0270542 0.425498
0.946044 0.0577249 0.511101
0.986481 0.242603 0.641733
0.981048 0.561959 0.825666
0.984878 0.825849 0.947723
0.00477607 0.0256199 0.266926
0.0298772 0.00453193 0.297536
0.151522 0.00349432 0.312474
0.364477 0.0125734 0.328099
0.640208 0.0267643 0.413886
0.94519 0.057847 0.494621
0.986603 0.245716 0.632822
0.981003 0.562295 0.822889
0.984878 0.825833 0.947311
0 0.132784 0.25211
0 0.110658 0.283894
0.0898299 0.0641642 0.343511
0.376303 0.0215915 0.337957
0.639414 0.0269169 0.385214
0.943526 0.0573129 0.465446
0.986389 0.250416 0.617792
0.98088 0.562966 0.817639
0.984894 0.825818 0.946654
0.00320439 0.312016 0.285939
0 0.312108 0.286046
0.0061799 0.31136 0.287709
0.334447 0.332799 0.333913
0.645365 0.249256 0.322911
0.938247 0.116899 0.357504
0.986481 0.267491 0.563989
0.980545 0.565118 0.800855
0.984924 0.825727 0.944671
0 0.575006 0.346029
0 0.576059 0.334462
0.00859083 0.578302 0.31249
0.0864118 0.576867 0.203433
0.572137 0.581842 0.242802
0.870024 0.52932 0.284794
0.982986 0.410315 0.365637
0.980209 0.572503 0.73135
0.985061 0.825452 0.937591
0.0772259 0.84268 0.44509
0.0808118 0.843473 0.43447
0.0872206 0.844541 0.415457
0.113527 0.846174 0.336767
0.407126 0.861097 0.216907
0.818784 0.844205 0.28719
0.997528 0.79881 0.45977
0.982773 0.695338 0.464134
0.985809 0.824033 0.90193
0.274754 0.979339 0.536248
0.280644 0.978927 0.531029
0.289662 0.978347 0.521126
0.320424 0.976898 0.489494
0.505684 0.985046 0.497169
0.758175 0.990814 0.537102
0.961639 0.988144 0.598779
1 0.956039 0.675776
1 0.902846 0.649454
0.687953 0.987152 0.764263
0.688945 0.987274 0.763119
0.690837 0.987488 0.76054
0.695644 0.988128 0.752682
0.712764 0.989288 0.748333
0.822858 0.99173 0.760128
0.931182 0.993347 0.78468
0.993118 0.99382 0.836774
0.995865 0.993271 0.881697
0.90631 0.991974 0.925795
0.906447 0.991989 0.925582
0.906691 0.992004 0.925216
0.907378 0.992081 0.924163
0.908782 0.992248 0.921599
0.920089 0.992737 0.92372
0.957244 0.993652 0.928328
0.983047 0.994003 0.937118
0.994247 0.993347 0.955947
0.0484779 0 0.479652
0.109621 0 0.486168
0.198596 0 0.510262
0.385824 0 0.537209
0.638041 0.0261997 0.588022
0.943313 0.0518959 0.677989
0.983093 0.166857 0.740612
0.980987 0.562753 0.863706
0.984894 0.827329 0.953201
0 0.00341802 0.51136
0.0598306 0 0.512688
0.159716 0 0.529793
0.372656 0 0.543023
0.637507 0.026215 0.58732
0.942779 0.0516213 0.673762
0.983246 0.167895 0.735241
0.980987 0.563058 0.861814
0.984894 0.827329 0.952865
0 0.043122 0.505714
0 0.0252384 0.534325
0.0708171 0 0.555734
0.356847 0 0.57319
0.643336 0.0275273 0.591989
0.941802 0.0511788 0.667292
0.983459 0.169253 0.727184
0.981003 0.5635 0.858381
0.984909 0.827314 0.9523
0 0.277623 0.458228
0 0.271901 0.469429
0 0.264805 0.494942
0.246433 0.215488 0.579095
0.645212 0.125597 0.59379
0.937865 0.0571908 0.635889
0.984863 0.176165 0.698726
0.980957 0.56524 0.846876
0.984909 0.827298 0.950484
0 0.542535 0.511528
0 0.543069 0.512276
0.00505074 0.544518 0.514275
0.0562142 0.536217 0.508995
0.566186 0.565454 0.566537
0.896681 0.501472 0.568124
0.985565 0.365148 0.587442
0.98024 0.571359 0.801846
0.984955 0.827039 0.944762
0.068452 0.82266 0.574594
0.0719158 0.823346 0.570291
0.0777295 0.824353 0.562554
0.095079 0.826978 0.535576
0.425818 0.836133 0.502297
0.806363 0.834363 0.534005
0.98555 0.783215 0.561242
0.978469 0.677638 0.622675
0.985718 0.826108 0.916152
0.249882 0.974075 0.620676
0.256001 0.974563 0.617533
0.265034 0.975723 0.612467
0.291508 0.979049 0.594476
0.41091 0.978653 0.537179
0.723583 0.990723 0.562829
0.960922 0.987442 0.601923
1 0.94931 0.715999
0.998077 0.89514 0.724804
0.685008 0.986282 0.795041
0.686412 0.986343 0.793927
0.688518 0.986419 0.792493
0.694865 0.986801 0.786679
0.710674 0.988312 0.76492
0.804456 0.991653 0.768231
0.92874 0.993164 0.790951
0.993072 0.993835 0.83743
0.995697 0.993133 0.891218
0.906126 0.991821 0.93048
0.906279 0.991836 0.930297
0.906523 0.991867 0.929992
0.907393 0.991928 0.928985
0.909636 0.992111 0.925872
0.916793 0.992538 0.924086
0.955825 0.993637 0.929137
0.98294 0.994003 0.937804
0.994247 0.993347 0.956054
0.101717 0 0.685496
0.130083 0 0.686687
0.209842 0 0.711589
0.386923 0 0.739284
0.635294 0 0.785214
0.942214 0.0483711 0.863188
0.980957 0.088014 0.889311
0.980194 0.51873 0.929503
0.985061 0.831632 0.965316
0.0619974 0 0.743435
0.100084 0 0.739239
0.180865 0 0.755352
0.380774 0 0.776272
0.634028 0 0.791424
0.942 0.0484169 0.862928
0.980941 0.087892 0.888624
0.980194 0.518517 0.928664
0.985061 0.831632 0.965103
0 0.0318914 0.757778
0.0176089 0.00283818 0.776074
0.107134 0 0.775586
0.338247 0 0.793484
0.64477 0 0.818219
0.941619 0.0484932 0.862547
0.980957 0.0877089 0.88719
0.980194 0.518166 0.927275
0.985046 0.831632 0.964767
0 0.203326 0.707042
0 0.17496 0.723217
0 0.140505 0.747677
0.152621 0.0790265 0.800046
0.589395 0.0307012 0.81677
0.936767 0.0565805 0.855833
0.981064 0.0872206 0.882734
0.980209 0.516915 0.92311
0.985046 0.831556 0.963943
0 0.512398 0.688167
0 0.510887 0.693034
0 0.508507 0.700542
0 0.499962 0.727031
0.498283 0.48658 0.813306
0.893019 0.413931 0.83061
0.980591 0.19823 0.859846
0.980224 0.514183 0.906401
0.985016 0.831495 0.960525
0.0568246 0.778286 0.743862
0.059968 0.778485 0.744198
0.064744 0.778866 0.744671
0.0791485 0.779538 0.745373
0.356786 0.781247 0.755047
0.78648 0.786084 0.787045
0.983886 0.745968 0.798825
0.979156 0.653681 0.82063
0.985092 0.831067 0.945037
0.212634 0.954559 0.761791
0.21471 0.954574 0.759854
0.217685 0.95465 0.757
0.234714 0.955825 0.749081
0.326925 0.963043 0.734417
0.73547 0.968124 0.771496
0.947295 0.96347 0.791272
1 0.933471 0.798993
0.986862 0.887282 0.850034
0.670863 0.986145 0.853651
0.672312 0.98616 0.85333
0.674723 0.986206 0.852644
0.681865 0.986374 0.850278
0.702159 0.986694 0.842084
0.751369 0.989075 0.797589
0.916503 0.992554 0.81239
0.992905 0.993881 0.839948
0.99588 0.991073 0.909697
0.904051 0.99173 0.941695
0.904265 0.99173 0.941558
0.904585 0.99173 0.941329
0.905577 0.99173 0.940627
0.908293 0.99176 0.938704
0.915663 0.992218 0.930648
0.949584 0.993515 0.932113
0.982483 0.993988 0.940368
0.994232 0.993347 0.956374
0.147555 0 0.913451
0.150149 0 0.911421
0.175402 0 0.916564
0.35938 0 0.934035
0.615076 0 0.937224
0.901274 0.0250553 0.96347
0.980789 0.0764477 0.980789
0.979706 0.42855 0.979706
0.984512 0.809964 0.982742
0.104631 0 0.938262
0.107927 0 0.937728
0.139498 0 0.937835
0.329747 0 0.943725
0.631098 0 0.957321
0.901183 0.024979 0.964157
0.980789 0.076524 0.980789
0.979706 0.42797 0.979706
0.984497 0.809888 0.982681
0 0.0215152 0.945861
0 0.0186618 0.946624
0.0615702 0 0.949142
0.268132 0 0.944366
0.613336 0 0.962448
0.90869 0.0267033 0.969009
0.980789 0.0766308 0.980804
0.979706 0.427024 0.979706
0.984497 0.80975 0.982574
0 0.133211 0.882856
0 0.132891 0.883513
0 0.105226 0.905379
0.0285344 0.0109407 0.943145
0.525765 0.00889601 0.952667
0.916991 0.046952 0.976959
0.980804 0.0769513 0.980804
0.979873 0.424323 0.979873
0.984497 0.809339 0.982254
0 0.510887 0.825589
0 0.503212 0.829602
0 0.497353 0.835691
0 0.481926 0.859648
0.419501 0.434333 0.955032
0.847456 0.368124 0.972961
0.980835 0.11133 0.970352
0.979644 0.414343 0.979644
0.984436 0.80798 0.981262
0 0.740505 0.859632
0 0.739437 0.860548
0 0.737636 0.862318
0 0.734188 0.871672
0.282673 0.73753 0.922271
0.7458 0.747341 0.946014
0.982254 0.704662 0.95465
0.980682 0.586786 0.972992
0.98439 0.804517 0.977325
0.182879 0.92903 0.903593
0.184649 0.928923 0.903502
0.187213 0.928801 0.903441
0.195499 0.928267 0.903075
0.239597 0.930739 0.906569
0.70103 0.93962 0.928145
0.934936 0.934829 0.935332
0.988571 0.920974 0.941314
0.986954 0.882414 0.952132
0.634607 0.985962 0.927199
0.636194 0.986007 0.92723
0.638849 0.986053 0.927199
0.646799 0.986236 0.927077
0.669322 0.986618 0.926192
0.726879 0.987778 0.922377
0.924468 0.992599 0.935256
0.987961 0.99176 0.943221
0.996765 0.985199 0.944045
0.897383 0.991714 0.96228
0.897597 0.991714 0.962203
0.897856 0.991714 0.962142
0.898756 0.99173 0.961898
0.901961 0.99176 0.961074
0.911101 0.992004 0.958343
0.931426 0.992752 0.942855
0.980102 0.993881 0.948669
0.994217 0.993347 0.957427
0.0838026 0 0.972915
0.0816358 0 0.972946
0.0783246 0 0.972961
0.129671 0 0.97229
0.540246 0 0.972473
0.888106 0 0.976349
0.980468 0.0585946 0.980468
0.980911 0.11989 0.980911
0.983474 0.763012 0.983474
0.00917067 0.0159609 0.973098
0.00547799 0.0175174 0.973037
0 0.0200809 0.97293
0.0815442 0 0.972946
0.518318 0 0.972396
0.907897 0.000549325 0.976791
0.980468 0.0585794 0.980468
0.980896 0.120745 0.980896
0.983474 0.76289 0.983474
0 0.0594797 0.969146
0 0.0604257 0.969055
0 0.0619211 0.968902
0 0.0287327 0.972122
0.483757 0 0.972091
0.908537 0.0188602 0.977203
0.980468 0.0585641 0.980468
0.980896 0.122072 0.980896
0.983474 0.762707 0.983474
0 0.15787 0.943481
0 0.158831 0.943252
0 0.16141 0.943008
0 0.117647 0.961913
0.367056 0.0170138 0.971511
0.850553 0.0387579 0.977356
0.980453 0.0585031 0.980468
0.980926 0.126009 0.980926
0.983459 0.762097 0.983459
0 0.53106 0.884947
0 0.531395 0.885008
0 0.531914 0.8851
0 0.502724 0.901274
0.213657 0.441566 0.957305
0.764797 0.384848 0.976181
0.98056 0.158846 0.98056
0.980697 0.138048 0.980697
0.983429 0.760174 0.983429
0 0.741329 0.915633
0 0.737194 0.915892
0 0.731746 0.916411
0 0.721004 0.92108
0.145205 0.714015 0.957641
0.699428 0.735225 0.979644
0.970031 0.70106 0.98201
0.980575 0.569467 0.980575
0.9832 0.753887 0.9832
0.104082 0.909865 0.95462
0.111315 0.909575 0.955108
0.122621 0.909072 0.955871
0.154849 0.90724 0.957809
0.309712 0.91339 0.974945
0.685405 0.918013 0.987396
0.919219 0.92221 0.984466
0.98764 0.90631 0.986755
0.985824 0.856489 0.985824
0.572091 0.983047 0.974289
0.574472 0.983078 0.97435
0.57818 0.983108 0.974456
0.588891 0.9832 0.974746
0.61912 0.983612 0.975738
0.691066 0.984283 0.977539
0.908293 0.98558 0.982666
0.985153 0.985138 0.985229
0.991577 0.981643 0.990707
0.880232 0.991577 0.982193
0.880491 0.991577 0.982193
0.880903 0.991592 0.982193
0.882185 0.991623 0.982193
0.885985 0.991714 0.982208
0.896315 0.991882 0.981964
0.921187 0.992599 0.981186
0.981979 0.992004 0.991302
0.996124 0.986954 0.992325
0 0.133318 0.963409
0 0.133898 0.963363
0 0.134813 0.963302
0 0.137713 0.963119
0 0.0980087 0.965713
0.7393 0.0212711 0.975372
0.980545 0.0590524 0.980545
0.98056 0.0649271 0.98056
0.980758 0.598383 0.980758
0 0.15053 0.962402
0 0.15108 0.962356
0 0.151965 0.96231
0 0.154726 0.962158
0 0.108965 0.964935
0.725505 0.027512 0.975509
0.980652 0.0607919 0.980652
0.98056 0.0649271 0.98056
0.980774 0.598535 0.980774
0 0.204807 0.959243
0 0.206561 0.959152
0 0.209339 0.958984
0 0.217441 0.958419
0 0.165499 0.961456
0.704555 0.0357366 0.975525
0.980713 0.0670329 0.980713
0.980545 0.0649119 0.980545
0.980804 0.598764 0.980804
0 0.397589 0.933318
0 0.398383 0.933288
0 0.399725 0.933028
0 0.403693 0.932097
0 0.35494 0.945815
0.667292 0.15436 0.975601
0.980789 0.0804456 0.980789
0.980545 0.0649119 0.980545
0.980896 0.599512 0.980896
0 0.576471 0.906737
0 0.576669 0.906706
0 0.57702 0.906706
0 0.578164 0.90695
0 0.548196 0.91429
0.623026 0.477913 0.973816
0.979675 0.343252 0.979675
0.980545 0.0648814 0.980545
0.980926 0.601907 0.980926
0 0.771282 0.936217
0 0.771374 0.936233
0 0.771511 0.936248
0 0.771908 0.936248
0 0.726314 0.94023
0.585168 0.726467 0.976074
0.933455 0.718502 0.981979
0.981003 0.611261 0.981003
0.980972 0.608865 0.980972
0 0.910277 0.961959
0 0.908827 0.96173
0 0.906691 0.961273
6.10361e-05 0.903166 0.963088
0.139452 0.897154 0.971374
0.627985 0.904845 0.990112
0.897093 0.917845 0.987274
0.987716 0.906828 0.987716
0.985656 0.85005 0.985656
0.462394 0.977508 0.986709
0.470253 0.977264 0.986618
0.48246 0.977127 0.986694
0.51574 0.976883 0.986816
0.592355 0.977218 0.987121
0.729076 0.978485 0.988586
0.896437 0.980362 0.991302
0.981048 0.981582 0.99266
0.990936 0.979629 0.993011
0.848859 0.990677 0.99118
0.84921 0.990677 0.99118
0.849775 0.990677 0.991165
0.851606 0.990707 0.991196
0.856855 0.990875 0.991348
0.871672 0.991302 0.991714
0.905547 0.992203 0.992493
0.980941 0.990875 0.994186
0.993469 0.993469 0.993469
