kpg/editing/james luts/neutral lut.cube
TITLE "Generated by Resolve"
LUT_3D_SIZE 33
0.0132143 0.0132143 0.013077
0.0132143 0.0132143 0.013077
0.0132143 0.0132143 0.013077
0.0132143 0.0132143 0.013077
0.0325322 0.014023 0.0166934
0.0509499 0.0144045 0.0210727
0.0785687 0.0144808 0.0255283
0.109422 0.0143587 0.0296178
0.143984 0.0139773 0.0352789
0.185321 0.0135348 0.0425879
0.233082 0.0127565 0.0516518
0.285832 0.0138094 0.0633249
0.33991 0.0145571 0.0701305
0.40618 0.0157168 0.0918746
0.476722 0.0170596 0.115877
0.547066 0.0187076 0.142046
0.620661 0.0216373 0.171633
0.697887 0.026154 0.206317
0.780163 0.0325475 0.246098
0.862303 0.0449989 0.290898
0.934859 0.0723888 0.343053
0.986938 0.106554 0.396674
0.988556 0.148257 0.447822
0.987625 0.198978 0.502937
0.986481 0.256977 0.561944
0.985672 0.333639 0.62385
0.984863 0.41117 0.684611
0.98439 0.487648 0.744076
0.980987 0.562188 0.800824
0.979568 0.632914 0.849515
0.981979 0.699977 0.890135
0.983551 0.764721 0.921386
0.984894 0.825055 0.944625
0.0132143 0.0132143 0.013077
0.0132143 0.0132143 0.013077
0.0132143 0.0132143 0.013077
0.0132143 0.0132143 0.013077
0.0296178 0.0158389 0.0135042
0.0448157 0.0157168 0.0135805
0.0723583 0.0137026 0.0140536
0.104005 0.0130617 0.0187228
0.137896 0.0135958 0.0261082
0.177996 0.0137789 0.0349279
0.225803 0.0120241 0.0430762
0.278599 0.0123598 0.053254
0.338247 0.0139773 0.0655528
0.40502 0.0148318 0.0868238
0.469947 0.016495 0.102541
0.540993 0.0180819 0.129458
0.615991 0.0211795 0.159991
0.693904 0.0256352 0.195056
0.776867 0.0320745 0.23563
0.86067 0.047303 0.282872
0.933928 0.07393 0.335973
0.986587 0.108141 0.390585
0.988418 0.14934 0.443214
0.987625 0.200076 0.498985
0.986465 0.257786 0.55903
0.985672 0.33434 0.621546
0.984863 0.411582 0.682795
0.984421 0.487861 0.742763
0.980972 0.562219 0.800076
0.979538 0.63299 0.848905
0.981964 0.699992 0.889845
0.983551 0.764721 0.921187
0.984894 0.825071 0.944503
0.0132143 0.0132143 0.013077
0.0132143 0.0132143 0.013077
0.0132143 0.0132143 0.013077
0.0132143 0.0132143 0.013077
0.0264286 0.018967 0.0134432
0.0368963 0.022034 0.01355
0.0582284 0.0217899 0.0140383
0.0929122 0.0186618 0.0141604
0.131258 0.0120699 0.0143435
0.173114 0.00915541 0.0219577
0.220783 0.00888075 0.0330053
0.271336 0.0111543 0.0449226
0.328862 0.0121309 0.0556191
0.396963 0.0130617 0.0709544
0.468788 0.0156252 0.0975509
0.542138 0.0178683 0.129229
0.61033 0.0206302 0.148165
0.689616 0.0251774 0.183261
0.773159 0.0319371 0.224872
0.859098 0.049897 0.274144
0.933074 0.0756542 0.328725
0.98616 0.10959 0.384756
0.988388 0.1505 0.438315
0.987594 0.201175 0.495064
0.98645 0.258549 0.555962
0.985672 0.335073 0.619043
0.984848 0.411978 0.681193
0.984436 0.488045 0.741711
0.980957 0.562295 0.799237
0.979522 0.633051 0.84831
0.981964 0.700023 0.889586
0.983551 0.764721 0.920989
0.984894 0.825055 0.944396
0.0134279 0.0213626 0.0140841
0.0139315 0.0177768 0.0130922
0.0140993 0.0148775 0.0130922
0.0133822 0.0133974 0.013077
0.0246128 0.0209049 0.0132296
0.0324559 0.0245365 0.0135958
0.0469062 0.0257877 0.0140078
0.0788739 0.0242466 0.0146334
0.117769 0.0194553 0.0146487
0.161975 0.0104219 0.0148775
0.212009 0.00463874 0.0213474
0.266026 0.00349432 0.0318761
0.325826 0.00773632 0.0466316
0.389822 0.00920119 0.0592355
0.458854 0.0112612 0.0785534
0.534615 0.0171511 0.114244
0.612711 0.0204776 0.150027
0.684657 0.0245823 0.171832
0.769955 0.0340276 0.214786
0.856901 0.0522774 0.265171
0.932036 0.0775616 0.320668
0.985855 0.11107 0.378714
0.988342 0.15169 0.433402
0.987701 0.202014 0.491569
0.98645 0.259464 0.552605
0.985718 0.335744 0.616617
0.984863 0.41239 0.679347
0.984451 0.488273 0.740322
0.980941 0.562417 0.798276
0.979507 0.633112 0.847715
0.981964 0.700038 0.88922
0.983566 0.764706 0.920836
0.984894 0.825055 0.944289
0.0154116 0.0388342 0.0207828
0.0167239 0.0360418 0.0148928
0.0227054 0.0329442 0.0134279
0.025864 0.0310521 0.0136263
0.031693 0.0321813 0.0155795
0.0389868 0.0341039 0.012665
0.0540932 0.034638 0.0148623
0.0794537 0.0330816 0.0153964
0.112215 0.0285496 0.0149844
0.150713 0.0199893 0.0145266
0.201358 0.00827039 0.0157321
0.257237 0.00177005 0.0230106
0.318273 0 0.0331273
0.385519 0.00328069 0.0500038
0.456001 0.00665293 0.0680858
0.524651 0.0122835 0.093904
0.605722 0.0196384 0.135668
0.688441 0.0244907 0.177111
0.766217 0.0360418 0.204791
0.854536 0.0546578 0.255894
0.930678 0.0794232 0.31252
0.985367 0.112505 0.372457
0.988251 0.153048 0.428183
0.98761 0.202976 0.487251
0.986419 0.260365 0.549325
0.985794 0.3364 0.614389
0.984863 0.412818 0.67744
0.984451 0.488365 0.739223
0.980926 0.562539 0.797284
0.979477 0.633173 0.847105
0.981964 0.700069 0.888838
0.983566 0.764691 0.920668
0.984909 0.825055 0.944183
0.0163119 0.0615091 0.0244755
0.0174105 0.0570535 0.0165866
0.0238651 0.0515145 0.0146181
0.0290684 0.0479286 0.0144198
0.0372473 0.0493782 0.0167544
0.0472725 0.049836 0.0184329
0.0619669 0.0524758 0.0148623
0.0915999 0.0491493 0.0159457
0.121141 0.0437324 0.0158846
0.157443 0.0369268 0.0148623
0.201572 0.0250858 0.0133974
0.253941 0.00631724 0.0135805
0.309255 0 0.0240635
0.378439 0 0.0353704
0.450996 0.00195315 0.0573739
0.522103 0.00694286 0.0828412
0.595468 0.0194095 0.118914
0.68249 0.0236667 0.163287
0.762509 0.0373541 0.195834
0.851698 0.0568551 0.246357
0.929305 0.0815442 0.304295
0.984817 0.114 0.365408
0.988174 0.154345 0.422889
0.987488 0.203952 0.482979
0.986404 0.26128 0.545785
0.985794 0.337118 0.611826
0.984863 0.413169 0.675654
0.984451 0.488548 0.737911
0.980911 0.562661 0.796521
0.979461 0.633249 0.846494
0.981964 0.700084 0.888472
0.983566 0.764675 0.920516
0.984894 0.825055 0.94406
0.0157168 0.0910658 0.0263523
0.0166934 0.0870527 0.0202029
0.0225223 0.0821546 0.0155642
0.0296483 0.0766613 0.0143435
0.0390021 0.0779126 0.0164034
0.0530709 0.0783398 0.0189822
0.0736706 0.0778058 0.020676
0.0954147 0.0807355 0.0153506
0.128954 0.0743114 0.0171359
0.172061 0.0587625 0.0148928
0.210025 0.0513924 0.0122377
0.258762 0.0368048 0.0100557
0.311391 0.01561 0.0100557
0.371313 0 0.0209506
0.443198 0 0.0360113
0.516579 0.00134279 0.0687877
0.592325 0.0106661 0.101625
0.674189 0.0241093 0.146746
0.764538 0.0318151 0.196643
0.848386 0.0587167 0.23505
0.927153 0.0839857 0.29305
0.983978 0.11577 0.356344
0.988067 0.155856 0.416281
0.987457 0.205112 0.477821
0.986419 0.262226 0.541939
0.985794 0.337819 0.608927
0.984863 0.413535 0.673625
0.984451 0.488853 0.736126
0.98088 0.562814 0.795331
0.979431 0.633341 0.845701
0.981964 0.70013 0.888014
0.983581 0.76466 0.920302
0.984909 0.825055 0.943923
0.012314 0.123171 0.0284733
0.0141909 0.120012 0.0233005
0.0178836 0.11632 0.0142824
0.026276 0.111192 0.0110628
0.0382239 0.111894 0.0139162
0.0509346 0.112734 0.0160525
0.0776226 0.11191 0.0190127
0.10576 0.110704 0.0202792
0.131456 0.112978 0.0140078
0.169772 0.105959 0.0167391
0.228641 0.0784314 0.0162966
0.271397 0.0668345 0.009308
0.320073 0.0521553 0.00691234
0.37702 0.0296483 0.00503548
0.441505 0 0.00602731
0.506752 0 0.0335088
0.584298 0.00137331 0.0786908
0.665537 0.0189212 0.123842
0.754849 0.0353552 0.175067
0.849622 0.0508583 0.235447
0.924086 0.0866407 0.277913
0.982818 0.118486 0.343023
0.988022 0.158221 0.406165
0.987381 0.207034 0.469932
0.986481 0.263996 0.536034
0.985779 0.339055 0.604517
0.984924 0.414206 0.670481
0.984451 0.48925 0.733593
0.980865 0.563043 0.793561
0.979385 0.633448 0.844633
0.981964 0.700175 0.887358
0.983581 0.764675 0.919951
0.984909 0.82504 0.943725
0.00750744 0.159091 0.0318914
0.00888075 0.156252 0.0260166
0.010544 0.153277 0.0128328
0.0205844 0.150378 0.00895705
0.0315709 0.148638 0.0075227
0.047013 0.149523 0.0104524
0.0683909 0.150484 0.0134127
0.106157 0.148516 0.018143
0.140093 0.146029 0.0187991
0.172198 0.147768 0.0107881
0.217212 0.139239 0.0153658
0.286168 0.106371 0.0181888
0.341039 0.0858473 0.0141909
0.386267 0.067689 0.00588998
0.447913 0.0380255 0.000823987
0.508446 0.0043946 0.00190738
0.572869 0 0.0286564
0.654795 0.00321965 0.0873884
0.744076 0.0322118 0.146777
0.840162 0.0557565 0.207385
0.924926 0.0769818 0.278523
0.980865 0.121462 0.324666
0.987716 0.16141 0.391791
0.987381 0.20943 0.459373
0.986435 0.2663 0.527993
0.985763 0.340719 0.598398
0.984985 0.415167 0.665934
0.984451 0.489769 0.730541
0.980819 0.563333 0.79118
0.979339 0.6336 0.843168
0.981964 0.700191 0.88658
0.983597 0.764675 0.919463
0.984909 0.82504 0.94345
4.57771e-05 0.199619 0.0375677
0.00146487 0.197757 0.0307469
0.00315862 0.194553 0.0195926
0.00401312 0.19379 0.00857557
0.0218662 0.192035 0.000564584
0.035584 0.19147 0.000976577
0.0590524 0.192691 0.00526436
0.0895247 0.193698 0.00933852
0.136706 0.190326 0.0155947
0.180011 0.186984 0.0170138
0.218708 0.188357 0.00746166
0.268574 0.178958 0.0131075
0.341375 0.146227 0.0201877
0.409949 0.113542 0.0171511
0.459632 0.0903334 0.00712596
0.516426 0.0581521 0.00425727
0.578744 0.020737 0.00799573
0.643885 0 0.0272374
0.728893 0.00737011 0.0952468
0.828946 0.0510872 0.171328
0.916823 0.0825818 0.243687
0.981628 0.111055 0.326055
0.987305 0.165225 0.371344
0.987198 0.212879 0.443519
0.986343 0.269612 0.516243
0.985656 0.342519 0.590311
0.984985 0.416251 0.660304
0.984466 0.490455 0.726116
0.980774 0.563729 0.787991
0.979278 0.633722 0.841642
0.981949 0.700191 0.885542
0.983627 0.764691 0.918807
0.984924 0.825025 0.943099
0 0.244205 0.0475776
0 0.242908 0.0394293
0 0.24007 0.0263371
0 0.239933 0.0216526
0 0.23975 0
0.0206302 0.238209 0
0.0403906 0.238056 0
0.0740978 0.239933 0
0.112383 0.240848 0.00521859
0.172534 0.236835 0.0134279
0.225071 0.232593 0.0151369
0.270069 0.233524 0.00428779
0.32369 0.224598 0.0138705
0.39707 0.19411 0.0222782
0.479866 0.150912 0.020264
0.53373 0.127794 0.0150301
0.58587 0.100374 0.0121309
0.650599 0.0539559 0.016556
0.716472 0.00552377 0.0323796
0.809171 0.014313 0.104829
0.906722 0.0776532 0.196674
0.976303 0.116747 0.282841
0.987533 0.152758 0.372839
0.986893 0.21709 0.420615
0.986328 0.274067 0.499641
0.985534 0.345129 0.578561
0.98497 0.417914 0.651957
0.984451 0.491279 0.7205
0.980728 0.564095 0.784268
0.979202 0.633936 0.839139
0.981949 0.700313 0.883955
0.983642 0.764706 0.917952
0.984924 0.825025 0.942611
0 0.293645 0.0617685
0 0.293065 0.0546883
0 0.290867 0.0389105
0 0.290333 0.0291295
0 0.291325 0.0227359
0 0.290715 0
0.0198978 0.289189 0
0.0512856 0.289662 0
0.0909285 0.292561 0
0.138338 0.293263 0.00187686
0.213504 0.288334 0.0129244
0.275166 0.28368 0.0139467
0.326909 0.284566 0.00125124
0.382132 0.2757 0.0148013
0.45742 0.247791 0.0238346
0.546426 0.20116 0.0303044
0.607645 0.178195 0.0296178
0.657786 0.154559 0.0261845
0.724239 0.107927 0.0290532
0.794385 0.0339208 0.0364996
0.888151 0.0286412 0.114351
0.970138 0.115724 0.223362
0.986297 0.159258 0.32221
0.987289 0.202792 0.422614
0.985977 0.279606 0.475425
0.985534 0.349004 0.561761
0.984939 0.420066 0.640543
0.984451 0.49247 0.71252
0.980667 0.564797 0.778378
0.979095 0.634302 0.835523
0.981949 0.700435 0.881804
0.983688 0.764736 0.916777
0.984939 0.82501 0.94197
0 0.347295 0.0771496
0 0.347387 0.0716564
0 0.346014 0.0586557
0 0.345342 0.0446326
0 0.347143 0.040589
0 0.347402 0.0295262
0 0.34612 0.000442512
0.0232242 0.345037 0
0.0648966 0.345968 0
0.110689 0.349142 0
0.17055 0.349996 0.00303655
0.26006 0.345068 0.0137636
0.331289 0.340459 0.0149233
0.387427 0.341665 0
0.444785 0.334127 0.0116426
0.51986 0.311009 0.0298772
0.611658 0.267475 0.0426184
0.679683 0.238804 0.0444343
0.7308 0.216037 0.0421302
0.800504 0.169299 0.0424659
0.871931 0.0911116 0.0444953
0.955169 0.0594797 0.120394
0.989242 0.162585 0.247318
0.986282 0.209735 0.366354
0.986297 0.260761 0.476143
0.985336 0.354192 0.536645
0.984955 0.423026 0.62388
0.984436 0.494087 0.701289
0.980591 0.56553 0.770855
0.978973 0.63473 0.83093
0.981949 0.700618 0.879118
0.983719 0.764752 0.915419
0.984955 0.824979 0.9411
0 0.403326 0.0927443
0 0.403754 0.088426
0 0.402289 0.080354
0 0.40209 0.0684215
0 0.402136 0.0562448
0 0.403876 0.0529641
0 0.404837 0.0415656
0 0.40351 0.0124208
0.0319371 0.402533 0
0.0835737 0.4038 0
0.136507 0.406958 0
0.209842 0.407874 0.0109102
0.314549 0.403281 0.0173953
0.389868 0.399145 0.0203098
0.449973 0.401511 0
0.509606 0.39527 0.0121462
0.584726 0.376379 0.0384222
0.677089 0.340795 0.0577707
0.749676 0.308019 0.0632181
0.804959 0.284779 0.0589914
0.874281 0.238514 0.0573739
0.938399 0.165331 0.0565194
1 0.109895 0.116854
0.989303 0.215335 0.27274
0.985443 0.269764 0.415167
0.985672 0.336278 0.535317
0.98471 0.426932 0.599252
0.984558 0.496345 0.685206
0.980529 0.566659 0.759899
0.978851 0.635218 0.824445
0.981949 0.700755 0.875319
0.983795 0.764706 0.913451
0.984955 0.824872 0.940291
0 0.461936 0.113405
0 0.462684 0.109316
0 0.462196 0.104311
0 0.462196 0.0947433
0 0.462257 0.0842298
0 0.462531 0.0732586
0 0.46389 0.0679179
0 0.465537 0.0556344
0.0102388 0.465019 0.0207218
0.0475776 0.462806 0
0.108888 0.464652 0.000503548
0.173007 0.467735 0.0116579
0.258747 0.468894 0.0179904
0.373053 0.464958 0.0278172
0.450935 0.460883 0.0333867
0.513756 0.464134 0.0100557
0.575433 0.4598 0.023682
0.650324 0.444129 0.0567483
0.743542 0.410849 0.0837415
0.818723 0.38085 0.0904707
0.872862 0.357092 0.0863966
0.935607 0.314855 0.084062
0.988891 0.249149 0.0805829
1 0.196597 0.134325
0.987167 0.283482 0.310933
0.985031 0.343709 0.472953
0.984512 0.429633 0.565545
0.98439 0.49929 0.661158
0.980606 0.568276 0.744106
0.978805 0.635935 0.815091
0.981964 0.70103 0.869947
0.983917 0.764752 0.910399
0.985 0.824826 0.938674
0 0.524315 0.139849
0 0.525231 0.135912
0 0.525521 0.132433
0 0.525658 0.125429
0 0.525597 0.11635
0.00511177 0.525567 0.106783
0.0116884 0.525719 0.094377
0.0168612 0.527352 0.0861524
0.0192569 0.529168 0.0732586
0.0240177 0.528862 0.0302586
0.0730449 0.525612 0.0120851
0.14638 0.528283 0.0178988
0.222278 0.531228 0.0249027
0.319921 0.53254 0.0343023
0.433677 0.528634 0.0469825
0.513207 0.524147 0.0531167
0.578775 0.528542 0.0295262
0.642115 0.525414 0.0414893
0.715084 0.512108 0.0802777
0.810636 0.480385 0.110414
0.87863 0.455253 0.117586
0.92845 0.430503 0.1149
0.981231 0.390005 0.112764
1 0.333867 0.106477
0.998276 0.279042 0.1617
0.983368 0.361013 0.364935
0.984573 0.415167 0.535805
0.984222 0.501106 0.627604
0.980606 0.57052 0.720623
0.97879 0.637049 0.800748
0.98201 0.701396 0.862089
0.98407 0.764691 0.906477
0.985061 0.82475 0.936477
0.00915541 0.590448 0.17406
0.0103761 0.591272 0.169726
0.0135042 0.59176 0.16759
0.0185245 0.591806 0.163119
0.0206455 0.591775 0.155596
0.0228733 0.591638 0.146899
0.0254826 0.591531 0.135637
0.0292668 0.591501 0.119493
0.0323491 0.592859 0.108598
0.036286 0.594781 0.0943008
0.0450446 0.594705 0.0428931
0.112856 0.592309 0.0315099
0.199832 0.594095 0.0390478
0.284764 0.597284 0.0479438
0.386069 0.598169 0.0592355
0.496651 0.594049 0.0727703
0.57615 0.588876 0.0793622
0.643824 0.593881 0.0569619
0.709682 0.591455 0.0668956
0.781765 0.578012 0.109041
0.869032 0.550561 0.142824
0.926375 0.529397 0.150423
0.965591 0.508904 0.145418
0.997971 0.466377 0.143664
1 0.410819 0.135302
0.995651 0.356756 0.19556
0.982605 0.430747 0.426917
0.983993 0.486229 0.598367
0.981064 0.571206 0.688411
0.978744 0.638605 0.778454
0.982055 0.702022 0.85037
0.984298 0.764813 0.899977
0.985168 0.824598 0.933455
0.0250553 0.657282 0.211933
0.0264897 0.658061 0.207782
0.0274968 0.6589 0.205966
0.029572 0.658976 0.203601
0.0319982 0.658976 0.198978
0.0351568 0.658625 0.19237
0.0391546 0.658213 0.18265
0.0442206 0.657771 0.16817
0.0499275 0.657557 0.147524
0.0546426 0.658457 0.132204
0.0598001 0.660365 0.114611
0.0810101 0.659754 0.0622873
0.169284 0.659571 0.0599832
0.267185 0.661524 0.0689555
0.355779 0.665003 0.0783093
0.454459 0.665202 0.0906996
0.560052 0.660685 0.104845
0.638987 0.654398 0.114443
0.708385 0.659037 0.100542
0.777844 0.656779 0.108309
0.846189 0.643687 0.148318
0.917082 0.620981 0.184344
0.960754 0.603876 0.192187
0.986389 0.586847 0.184924
0.989242 0.55053 0.178958
0.994751 0.491844 0.170352
0.992401 0.432944 0.236118
0.982193 0.498985 0.490379
0.982422 0.555734 0.659754
0.978592 0.638529 0.747402
0.982055 0.702815 0.832303
0.984558 0.764981 0.890562
0.985336 0.824475 0.92929
0.0415045 0.724041 0.251133
0.0431525 0.72462 0.24715
0.0442359 0.725505 0.24506
0.0459907 0.725734 0.243534
0.0484779 0.725628 0.240955
0.0512093 0.725444 0.237156
0.0554208 0.724987 0.230121
0.0613565 0.724224 0.218265
0.0683452 0.723384 0.200961
0.0758526 0.722698 0.175891
0.0815442 0.723568 0.155581
0.0873274 0.725322 0.132708
0.129183 0.724575 0.0856184
0.241001 0.727077 0.0946822
0.34374 0.729763 0.104662
0.427619 0.733211 0.115358
0.522194 0.732815 0.129503
0.623102 0.727855 0.14548
0.701335 0.720256 0.15964
0.771923 0.723766 0.154025
0.844892 0.719936 0.163455
0.902983 0.707805 0.197711
0.953933 0.688853 0.233234
0.983566 0.674647 0.240421
0.983551 0.660471 0.228412
0.984024 0.62707 0.222812
0.986725 0.573983 0.212314
0.988235 0.506203 0.283131
0.982132 0.566247 0.553582
0.978622 0.623713 0.71957
0.981735 0.702174 0.804761
0.984634 0.765194 0.875837
0.985656 0.824475 0.922484
0.0633402 0.790372 0.291417
0.0650797 0.790845 0.287739
0.0664073 0.791363 0.2851
0.0672618 0.792157 0.283452
0.0692149 0.791959 0.281971
0.071397 0.791699 0.279973
0.0744793 0.791394 0.275761
0.0798505 0.790661 0.26746
0.0872816 0.789517 0.2533
0.0959029 0.788312 0.232303
0.104753 0.787366 0.201694
0.111238 0.787991 0.174823
0.117388 0.789639 0.145556
0.204089 0.792996 0.125795
0.323125 0.795987 0.137301
0.419165 0.799176 0.149233
0.498619 0.802441 0.162219
0.587823 0.802121 0.178103
0.684688 0.796323 0.19585
0.762356 0.787045 0.210849
0.834531 0.7888 0.210727
0.905211 0.781399 0.22298
0.952529 0.770489 0.252674
0.98645 0.751797 0.28661
0.987274 0.739498 0.289219
0.984802 0.727825 0.276844
0.983612 0.696544 0.271366
0.983246 0.647395 0.261006
0.982422 0.585626 0.345037
0.979171 0.632349 0.617365
0.980529 0.687678 0.778347
0.984588 0.750607 0.874907
0.98587 0.824216 0.911315
0.0917678 0.850187 0.33106
0.0929885 0.850263 0.327428
0.0939956 0.850446 0.324453
0.0946517 0.850782 0.322393
0.095079 0.851209 0.320882
0.0970321 0.851118 0.319905
0.0998398 0.850904 0.317998
0.104265 0.850446 0.313634
0.110597 0.849668 0.304479
0.119463 0.848371 0.287617
0.129747 0.847074 0.261982
0.140017 0.846342 0.223438
0.148104 0.847196 0.189502
0.172961 0.853162 0.169497
0.295964 0.857496 0.180255
0.405646 0.860304 0.192752
0.493111 0.862898 0.205463
0.566369 0.865187 0.218585
0.650385 0.864103 0.233661
0.744503 0.858091 0.250584
0.820966 0.846662 0.277836
0.885939 0.84622 0.293751
0.951385 0.836286 0.306035
0.992569 0.823377 0.332265
1 0.807248 0.362264
1 0.795972 0.356069
1 0.785687 0.330327
0.991836 0.758022 0.322927
0.983658 0.714244 0.313161
0.981186 0.655146 0.412665
0.978454 0.695659 0.679652
0.984344 0.74847 0.831937
0.985397 0.810895 0.911238
0.128771 0.899641 0.368841
0.129931 0.899702 0.365713
0.130938 0.899825 0.362799
0.131701 0.900008 0.360433
0.132189 0.900252 0.358846
0.13254 0.900496 0.357549
0.134279 0.900465 0.356451
0.137789 0.90013 0.354391
0.14284 0.89955 0.349798
0.150393 0.898634 0.339925
0.160723 0.897276 0.320775
0.172061 0.896071 0.29041
0.190021 0.898146 0.248859
0.216831 0.904463 0.222431
0.269841 0.909087 0.229953
0.38468 0.912306 0.241794
0.481956 0.914504 0.253925
0.562051 0.916457 0.266224
0.630503 0.917433 0.279011
0.709682 0.915694 0.29427
0.802457 0.908797 0.32842
0.870466 0.899184 0.367468
0.923644 0.896284 0.384253
0.977707 0.88957 0.392294
1 0.871336 0.415763
1 0.856519 0.437629
1 0.847059 0.431281
1 0.837293 0.408499
1 0.813092 0.397009
0.994812 0.773571 0.381918
0.983825 0.716442 0.48249
0.982391 0.755123 0.738186
0.985306 0.808042 0.875685
0.171847 0.937835 0.403098
0.172854 0.93785 0.400397
0.173785 0.937896 0.397726
0.174548 0.937987 0.395361
0.175036 0.938064 0.393851
0.175479 0.938216 0.392187
0.17583 0.938415 0.390478
0.177569 0.938323 0.38883
0.181369 0.937789 0.386557
0.186892 0.937041 0.381216
0.194842 0.93611 0.370336
0.205554 0.934966 0.348211
0.234394 0.938964 0.326406
0.266011 0.945068 0.290227
0.332982 0.948714 0.303746
0.386633 0.951049 0.324346
0.47744 0.952941 0.332692
0.560784 0.954314 0.342824
0.633433 0.95491 0.35581
0.696681 0.954925 0.370077
0.772076 0.952392 0.387747
0.852888 0.946548 0.416175
0.910658 0.94049 0.450217
0.949905 0.93518 0.466651
0.99115 0.928985 0.474739
1 0.915602 0.491569
1 0.897597 0.510262
1 0.890196 0.503487
1 0.882185 0.482963
1 0.861173 0.471275
1 0.827283 0.455375
0.985626 0.77641 0.551614
0.984955 0.812421 0.796063
0.217044 0.964691 0.433951
0.217899 0.964721 0.431434
0.218677 0.964736 0.429191
0.219272 0.964752 0.427512
0.219898 0.964813 0.425483
0.220432 0.964889 0.423667
0.220966 0.964996 0.421759
0.221454 0.965179 0.419898
0.222889 0.965225 0.41796
0.227497 0.964797 0.415702
0.241489 0.965499 0.414572
0.260868 0.967056 0.409369
0.285969 0.969741 0.394919
0.337148 0.973251 0.388647
0.399344 0.976577 0.39028
0.450599 0.978195 0.402899
0.492226 0.979385 0.420523
0.566125 0.980285 0.427192
0.63827 0.980301 0.434882
0.703853 0.980026 0.445945
0.762921 0.979202 0.458259
0.830167 0.977279 0.472908
0.892851 0.972656 0.496361
0.940429 0.970245 0.526146
0.966186 0.961517 0.542275
0.996216 0.957763 0.551614
1 0.948547 0.563531
1 0.935012 0.579019
1 0.928313 0.571649
1 0.921477 0.55259
1 0.900725 0.542672
1 0.872969 0.526741
0.989425 0.82916 0.61976
0.288731 0.976562 0.475349
0.289815 0.976486 0.473594
0.290791 0.976394 0.472084
0.291752 0.976318 0.470359
0.292576 0.976257 0.468757
0.293294 0.976196 0.467262
0.294072 0.97612 0.465476
0.294774 0.976028 0.463539
0.295232 0.975952 0.461097
0.298085 0.975921 0.459815
0.306523 0.97583 0.459983
0.329366 0.976471 0.464408
0.364553 0.977539 0.46981
0.406409 0.979538 0.471427
0.451957 0.982361 0.471565
0.501976 0.984939 0.474968
0.544747 0.986557 0.486793
0.57966 0.987671 0.502327
0.644068 0.989349 0.508141
0.709163 0.990372 0.515236
0.770779 0.990845 0.525154
0.824125 0.991135 0.536767
0.874952 0.990707 0.54963
0.920546 0.988067 0.571145
0.961913 0.988464 0.597574
0.978347 0.979324 0.613443
0.998322 0.976226 0.623087
1 0.969848 0.634409
1 0.960281 0.647547
1 0.956436 0.638743
1 0.951537 0.621698
1 0.936507 0.610269
1 0.909422 0.597665
0.410788 0.978576 0.544503
0.411856 0.978653 0.543496
0.412924 0.978698 0.542489
0.413947 0.978744 0.541573
0.414878 0.978759 0.54078
0.415702 0.978805 0.539834
0.416663 0.978866 0.538674
0.4177 0.978897 0.537102
0.418524 0.978958 0.535225
0.419135 0.979034 0.533379
0.4224 0.979049 0.532616
0.436454 0.979751 0.538155
0.454734 0.980636 0.542931
0.478782 0.982071 0.546471
0.509957 0.984268 0.547066
0.546304 0.986587 0.547662
0.58909 0.98851 0.55169
0.626337 0.98938 0.562142
0.656001 0.989868 0.576104
0.71284 0.990662 0.580194
0.772519 0.991119 0.58526
0.826703 0.991424 0.593545
0.867933 0.992157 0.603571
0.906966 0.993515 0.616266
0.942809 0.994293 0.639811
0.976684 0.994278 0.665949
0.987427 0.988754 0.68162
0.999664 0.986816 0.690608
1 0.982696 0.700465
1 0.97615 0.712795
1 0.974075 0.703273
1 0.971038 0.688136
1 0.961257 0.676173
0.52079 0.982803 0.617227
0.52134 0.982834 0.616419
0.521859 0.982879 0.615625
0.522332 0.982925 0.614847
0.522805 0.982971 0.614069
0.523247 0.983001 0.613352
0.523751 0.983032 0.612634
0.524361 0.983093 0.611399
0.524895 0.983215 0.610086
0.525612 0.983322 0.608484
0.525917 0.983429 0.606256
0.527993 0.983612 0.605249
0.538766 0.984253 0.61004
0.552758 0.985077 0.614054
0.571878 0.986496 0.617182
0.597848 0.988113 0.617731
0.629572 0.989502 0.618967
0.666957 0.990295 0.622507
0.699672 0.990707 0.631495
0.725765 0.990982 0.64445
0.777493 0.991287 0.647456
0.829023 0.991577 0.651789
0.871839 0.991852 0.65919
0.902342 0.993072 0.667689
0.931807 0.993896 0.679255
0.968368 1 0.698772
0.985489 0.99527 0.72845
0.992096 0.993362 0.745174
0.99913 0.992569 0.754574
0.999359 0.989456 0.765148
0.999588 0.985443 0.775738
0.999893 0.984649 0.765408
1 0.982712 0.752346
0.61004 0.986175 0.68394
0.610376 0.986221 0.683375
0.610727 0.986267 0.682795
0.611017 0.986297 0.682261
0.611322 0.986343 0.681712
0.611597 0.986389 0.681178
0.611948 0.986435 0.680568
0.612314 0.986511 0.679957
