kpg/editing/james luts/step one lut.cube
TITLE "Alexa709 to WDR Passthrough"
LUT_3D_SIZE 33
# LA - Generated by Resolve/Passthrough -> LA - Generated by Resolve/Passthrough, CineEI Shift 0.00, Black Level 2.44% IRE, Input 100% -> Output 100% - Created with LUTCalc v4.0 by Ben Turley October 2020
0.02415435 0.02415435 0.02415435
0.05096869 0.02415435 0.02415435
0.08776850 0.02415435 0.02415435
0.12038202 0.02415435 0.02415435
0.15082338 0.02415435 0.02415435
0.17981680 0.02415435 0.02415435
0.20773543 0.02415435 0.02415435
0.23480550 0.02415435 0.02415435
0.26117811 0.02415435 0.02415435
0.28710970 0.02415435 0.02415435
0.31786987 0.02415435 0.02415435
0.34863004 0.02415435 0.02415435
0.37939061 0.02415435 0.02415435
0.40803777 0.02415435 0.02415435
0.43571480 0.02415435 0.02415435
0.46246353 0.02415435 0.02415435
0.48898827 0.02415435 0.02415435
0.51388381 0.02415435 0.02415435
0.53953942 0.02415435 0.02415435
0.56301520 0.02415435 0.02415435
0.58785459 0.02415435 0.02415435
0.61009359 0.02415435 0.02415435
0.63349468 0.02415435 0.02415435
0.65547173 0.02415435 0.02415435
0.67696580 0.02415435 0.02415435
0.69827469 0.02415435 0.02415435
0.71950838 0.02415435 0.02415435
0.74244238 0.02415435 0.02415435
0.76728547 0.02415435 0.02415435
0.79462852 0.02415435 0.02415435
0.82803195 0.02415435 0.02415435
0.87240530 0.02415435 0.02415435
1.05087881 0.02415435 0.02415435
0.02415435 0.05096869 0.02415435
0.05096869 0.05096869 0.02415435
0.08776850 0.05096869 0.02415435
0.12038202 0.05096869 0.02415435
0.15082338 0.05096869 0.02415435
0.17981680 0.05096869 0.02415435
0.20773543 0.05096869 0.02415435
0.23480550 0.05096869 0.02415435
0.26117811 0.05096869 0.02415435
0.28710970 0.05096869 0.02415435
0.31786987 0.05096869 0.02415435
0.34863004 0.05096869 0.02415435
0.37939061 0.05096869 0.02415435
0.40803777 0.05096869 0.02415435
0.43571480 0.05096869 0.02415435
0.46246353 0.05096869 0.02415435
0.48898827 0.05096869 0.02415435
0.51388381 0.05096869 0.02415435
0.53953942 0.05096869 0.02415435
0.56301520 0.05096869 0.02415435
0.58785459 0.05096869 0.02415435
0.61009359 0.05096869 0.02415435
0.63349468 0.05096869 0.02415435
0.65547173 0.05096869 0.02415435
0.67696580 0.05096869 0.02415435
0.69827469 0.05096869 0.02415435
0.71950838 0.05096869 0.02415435
0.74244238 0.05096869 0.02415435
0.76728547 0.05096869 0.02415435
0.79462852 0.05096869 0.02415435
0.82803195 0.05096869 0.02415435
0.87240530 0.05096869 0.02415435
1.05087881 0.05096869 0.02415435
0.02415435 0.08776850 0.02415435
0.05096869 0.08776850 0.02415435
0.08776850 0.08776850 0.02415435
0.12038202 0.08776850 0.02415435
0.15082338 0.08776850 0.02415435
0.17981680 0.08776850 0.02415435
0.20773543 0.08776850 0.02415435
0.23480550 0.08776850 0.02415435
0.26117811 0.08776850 0.02415435
0.28710970 0.08776850 0.02415435
0.31786987 0.08776850 0.02415435
0.34863004 0.08776850 0.02415435
0.37939061 0.08776850 0.02415435
0.40803777 0.08776850 0.02415435
0.43571480 0.08776850 0.02415435
0.46246353 0.08776850 0.02415435
0.48898827 0.08776850 0.02415435
0.51388381 0.08776850 0.02415435
0.53953942 0.08776850 0.02415435
0.56301520 0.08776850 0.02415435
0.58785459 0.08776850 0.02415435
0.61009359 0.08776850 0.02415435
0.63349468 0.08776850 0.02415435
0.65547173 0.08776850 0.02415435
0.67696580 0.08776850 0.02415435
0.69827469 0.08776850 0.02415435
0.71950838 0.08776850 0.02415435
0.74244238 0.08776850 0.02415435
0.76728547 0.08776850 0.02415435
0.79462852 0.08776850 0.02415435
0.82803195 0.08776850 0.02415435
0.87240530 0.08776850 0.02415435
1.05087881 0.08776850 0.02415435
0.02415435 0.12038202 0.02415435
0.05096869 0.12038202 0.02415435
0.08776850 0.12038202 0.02415435
0.12038202 0.12038202 0.02415435
0.15082338 0.12038202 0.02415435
0.17981680 0.12038202 0.02415435
0.20773543 0.12038202 0.02415435
0.23480550 0.12038202 0.02415435
0.26117811 0.12038202 0.02415435
0.28710970 0.12038202 0.02415435
0.31786987 0.12038202 0.02415435
0.34863004 0.12038202 0.02415435
0.37939061 0.12038202 0.02415435
0.40803777 0.12038202 0.02415435
0.43571480 0.12038202 0.02415435
0.46246353 0.12038202 0.02415435
0.48898827 0.12038202 0.02415435
0.51388381 0.12038202 0.02415435
0.53953942 0.12038202 0.02415435
0.56301520 0.12038202 0.02415435
0.58785459 0.12038202 0.02415435
0.61009359 0.12038202 0.02415435
0.63349468 0.12038202 0.02415435
0.65547173 0.12038202 0.02415435
0.67696580 0.12038202 0.02415435
0.69827469 0.12038202 0.02415435
0.71950838 0.12038202 0.02415435
0.74244238 0.12038202 0.02415435
0.76728547 0.12038202 0.02415435
0.79462852 0.12038202 0.02415435
0.82803195 0.12038202 0.02415435
0.87240530 0.12038202 0.02415435
1.05087881 0.12038202 0.02415435
0.02415435 0.15082338 0.02415435
0.05096869 0.15082338 0.02415435
0.08776850 0.15082338 0.02415435
0.12038202 0.15082338 0.02415435
0.15082338 0.15082338 0.02415435
0.17981680 0.15082338 0.02415435
0.20773543 0.15082338 0.02415435
0.23480550 0.15082338 0.02415435
0.26117811 0.15082338 0.02415435
0.28710970 0.15082338 0.02415435
0.31786987 0.15082338 0.02415435
0.34863004 0.15082338 0.02415435
0.37939061 0.15082338 0.02415435
0.40803777 0.15082338 0.02415435
0.43571480 0.15082338 0.02415435
0.46246353 0.15082338 0.02415435
0.48898827 0.15082338 0.02415435
0.51388381 0.15082338 0.02415435
0.53953942 0.15082338 0.02415435
0.56301520 0.15082338 0.02415435
0.58785459 0.15082338 0.02415435
0.61009359 0.15082338 0.02415435
0.63349468 0.15082338 0.02415435
0.65547173 0.15082338 0.02415435
0.67696580 0.15082338 0.02415435
0.69827469 0.15082338 0.02415435
0.71950838 0.15082338 0.02415435
0.74244238 0.15082338 0.02415435
0.76728547 0.15082338 0.02415435
0.79462852 0.15082338 0.02415435
0.82803195 0.15082338 0.02415435
0.87240530 0.15082338 0.02415435
1.05087881 0.15082338 0.02415435
0.02415435 0.17981680 0.02415435
0.05096869 0.17981680 0.02415435
0.08776850 0.17981680 0.02415435
0.12038202 0.17981680 0.02415435
0.15082338 0.17981680 0.02415435
0.17981680 0.17981680 0.02415435
0.20773543 0.17981680 0.02415435
0.23480550 0.17981680 0.02415435
0.26117811 0.17981680 0.02415435
0.28710970 0.17981680 0.02415435
0.31786987 0.17981680 0.02415435
0.34863004 0.17981680 0.02415435
0.37939061 0.17981680 0.02415435
0.40803777 0.17981680 0.02415435
0.43571480 0.17981680 0.02415435
0.46246353 0.17981680 0.02415435
0.48898827 0.17981680 0.02415435
0.51388381 0.17981680 0.02415435
0.53953942 0.17981680 0.02415435
0.56301520 0.17981680 0.02415435
0.58785459 0.17981680 0.02415435
0.61009359 0.17981680 0.02415435
0.63349468 0.17981680 0.02415435
0.65547173 0.17981680 0.02415435
0.67696580 0.17981680 0.02415435
0.69827469 0.17981680 0.02415435
0.71950838 0.17981680 0.02415435
0.74244238 0.17981680 0.02415435
0.76728547 0.17981680 0.02415435
0.79462852 0.17981680 0.02415435
0.82803195 0.17981680 0.02415435
0.87240530 0.17981680 0.02415435
1.05087881 0.17981680 0.02415435
0.02415435 0.20773543 0.02415435
0.05096869 0.20773543 0.02415435
0.08776850 0.20773543 0.02415435
0.12038202 0.20773543 0.02415435
0.15082338 0.20773543 0.02415435
0.17981680 0.20773543 0.02415435
0.20773543 0.20773543 0.02415435
0.23480550 0.20773543 0.02415435
0.26117811 0.20773543 0.02415435
0.28710970 0.20773543 0.02415435
0.31786987 0.20773543 0.02415435
0.34863004 0.20773543 0.02415435
0.37939061 0.20773543 0.02415435
0.40803777 0.20773543 0.02415435
0.43571480 0.20773543 0.02415435
0.46246353 0.20773543 0.02415435
0.48898827 0.20773543 0.02415435
0.51388381 0.20773543 0.02415435
0.53953942 0.20773543 0.02415435
0.56301520 0.20773543 0.02415435
0.58785459 0.20773543 0.02415435
0.61009359 0.20773543 0.02415435
0.63349468 0.20773543 0.02415435
0.65547173 0.20773543 0.02415435
0.67696580 0.20773543 0.02415435
0.69827469 0.20773543 0.02415435
0.71950838 0.20773543 0.02415435
0.74244238 0.20773543 0.02415435
0.76728547 0.20773543 0.02415435
0.79462852 0.20773543 0.02415435
0.82803195 0.20773543 0.02415435
0.87240530 0.20773543 0.02415435
1.05087881 0.20773543 0.02415435
0.02415435 0.23480550 0.02415435
0.05096869 0.23480550 0.02415435
0.08776850 0.23480550 0.02415435
0.12038202 0.23480550 0.02415435
0.15082338 0.23480550 0.02415435
0.17981680 0.23480550 0.02415435
0.20773543 0.23480550 0.02415435
0.23480550 0.23480550 0.02415435
0.26117811 0.23480550 0.02415435
0.28710970 0.23480550 0.02415435
0.31786987 0.23480550 0.02415435
0.34863004 0.23480550 0.02415435
0.37939061 0.23480550 0.02415435
0.40803777 0.23480550 0.02415435
0.43571480 0.23480550 0.02415435
0.46246353 0.23480550 0.02415435
0.48898827 0.23480550 0.02415435
0.51388381 0.23480550 0.02415435
0.53953942 0.23480550 0.02415435
0.56301520 0.23480550 0.02415435
0.58785459 0.23480550 0.02415435
0.61009359 0.23480550 0.02415435
0.63349468 0.23480550 0.02415435
0.65547173 0.23480550 0.02415435
0.67696580 0.23480550 0.02415435
0.69827469 0.23480550 0.02415435
0.71950838 0.23480550 0.02415435
0.74244238 0.23480550 0.02415435
0.76728547 0.23480550 0.02415435
0.79462852 0.23480550 0.02415435
0.82803195 0.23480550 0.02415435
0.87240530 0.23480550 0.02415435
1.05087881 0.23480550 0.02415435
0.02415435 0.26117811 0.02415435
0.05096869 0.26117811 0.02415435
0.08776850 0.26117811 0.02415435
0.12038202 0.26117811 0.02415435
0.15082338 0.26117811 0.02415435
0.17981680 0.26117811 0.02415435
0.20773543 0.26117811 0.02415435
0.23480550 0.26117811 0.02415435
0.26117811 0.26117811 0.02415435
0.28710970 0.26117811 0.02415435
0.31786987 0.26117811 0.02415435
0.34863004 0.26117811 0.02415435
0.37939061 0.26117811 0.02415435
0.40803777 0.26117811 0.02415435
0.43571480 0.26117811 0.02415435
0.46246353 0.26117811 0.02415435
0.48898827 0.26117811 0.02415435
0.51388381 0.26117811 0.02415435
0.53953942 0.26117811 0.02415435
0.56301520 0.26117811 0.02415435
0.58785459 0.26117811 0.02415435
0.61009359 0.26117811 0.02415435
0.63349468 0.26117811 0.02415435
0.65547173 0.26117811 0.02415435
0.67696580 0.26117811 0.02415435
0.69827469 0.26117811 0.02415435
0.71950838 0.26117811 0.02415435
0.74244238 0.26117811 0.02415435
0.76728547 0.26117811 0.02415435
0.79462852 0.26117811 0.02415435
0.82803195 0.26117811 0.02415435
0.87240530 0.26117811 0.02415435
1.05087881 0.26117811 0.02415435
0.02415435 0.28710970 0.02415435
0.05096869 0.28710970 0.02415435
0.08776850 0.28710970 0.02415435
0.12038202 0.28710970 0.02415435
0.15082338 0.28710970 0.02415435
0.17981680 0.28710970 0.02415435
0.20773543 0.28710970 0.02415435
0.23480550 0.28710970 0.02415435
0.26117811 0.28710970 0.02415435
0.28710970 0.28710970 0.02415435
0.31786987 0.28710970 0.02415435
0.34863004 0.28710970 0.02415435
0.37939061 0.28710970 0.02415435
0.40803777 0.28710970 0.02415435
0.43571480 0.28710970 0.02415435
0.46246353 0.28710970 0.02415435
0.48898827 0.28710970 0.02415435
0.51388381 0.28710970 0.02415435
0.53953942 0.28710970 0.02415435
0.56301520 0.28710970 0.02415435
0.58785459 0.28710970 0.02415435
0.61009359 0.28710970 0.02415435
0.63349468 0.28710970 0.02415435
0.65547173 0.28710970 0.02415435
0.67696580 0.28710970 0.02415435
0.69827469 0.28710970 0.02415435
0.71950838 0.28710970 0.02415435
0.74244238 0.28710970 0.02415435
0.76728547 0.28710970 0.02415435
0.79462852 0.28710970 0.02415435
0.82803195 0.28710970 0.02415435
0.87240530 0.28710970 0.02415435
1.05087881 0.28710970 0.02415435
0.02415435 0.31786987 0.02415435
0.05096869 0.31786987 0.02415435
0.08776850 0.31786987 0.02415435
0.12038202 0.31786987 0.02415435
0.15082338 0.31786987 0.02415435
0.17981680 0.31786987 0.02415435
0.20773543 0.31786987 0.02415435
0.23480550 0.31786987 0.02415435
0.26117811 0.31786987 0.02415435
0.28710970 0.31786987 0.02415435
0.31786987 0.31786987 0.02415435
0.34863004 0.31786987 0.02415435
0.37939061 0.31786987 0.02415435
0.40803777 0.31786987 0.02415435
0.43571480 0.31786987 0.02415435
0.46246353 0.31786987 0.02415435
0.48898827 0.31786987 0.02415435
0.51388381 0.31786987 0.02415435
0.53953942 0.31786987 0.02415435
0.56301520 0.31786987 0.02415435
0.58785459 0.31786987 0.02415435
0.61009359 0.31786987 0.02415435
0.63349468 0.31786987 0.02415435
0.65547173 0.31786987 0.02415435
0.67696580 0.31786987 0.02415435
0.69827469 0.31786987 0.02415435
0.71950838 0.31786987 0.02415435
0.74244238 0.31786987 0.02415435
0.76728547 0.31786987 0.02415435
0.79462852 0.31786987 0.02415435
0.82803195 0.31786987 0.02415435
0.87240530 0.31786987 0.02415435
1.05087881 0.31786987 0.02415435
0.02415435 0.34863004 0.02415435
0.05096869 0.34863004 0.02415435
0.08776850 0.34863004 0.02415435
0.12038202 0.34863004 0.02415435
0.15082338 0.34863004 0.02415435
0.17981680 0.34863004 0.02415435
0.20773543 0.34863004 0.02415435
0.23480550 0.34863004 0.02415435
0.26117811 0.34863004 0.02415435
0.28710970 0.34863004 0.02415435
0.31786987 0.34863004 0.02415435
0.34863004 0.34863004 0.02415435
0.37939061 0.34863004 0.02415435
0.40803777 0.34863004 0.02415435
0.43571480 0.34863004 0.02415435
0.46246353 0.34863004 0.02415435
0.48898827 0.34863004 0.02415435
0.51388381 0.34863004 0.02415435
0.53953942 0.34863004 0.02415435
0.56301520 0.34863004 0.02415435
0.58785459 0.34863004 0.02415435
0.61009359 0.34863004 0.02415435
0.63349468 0.34863004 0.02415435
0.65547173 0.34863004 0.02415435
0.67696580 0.34863004 0.02415435
0.69827469 0.34863004 0.02415435
0.71950838 0.34863004 0.02415435
0.74244238 0.34863004 0.02415435
0.76728547 0.34863004 0.02415435
0.79462852 0.34863004 0.02415435
0.82803195 0.34863004 0.02415435
0.87240530 0.34863004 0.02415435
1.05087881 0.34863004 0.02415435
0.02415435 0.37939061 0.02415435
0.05096869 0.37939061 0.02415435
0.08776850 0.37939061 0.02415435
0.12038202 0.37939061 0.02415435
0.15082338 0.37939061 0.02415435
0.17981680 0.37939061 0.02415435
0.20773543 0.37939061 0.02415435
0.23480550 0.37939061 0.02415435
0.26117811 0.37939061 0.02415435
0.28710970 0.37939061 0.02415435
0.31786987 0.37939061 0.02415435
0.34863004 0.37939061 0.02415435
0.37939061 0.37939061 0.02415435
0.40803777 0.37939061 0.02415435
0.43571480 0.37939061 0.02415435
0.46246353 0.37939061 0.02415435
0.48898827 0.37939061 0.02415435
0.51388381 0.37939061 0.02415435
0.53953942 0.37939061 0.02415435
0.56301520 0.37939061 0.02415435
0.58785459 0.37939061 0.02415435
0.61009359 0.37939061 0.02415435
0.63349468 0.37939061 0.02415435
0.65547173 0.37939061 0.02415435
0.67696580 0.37939061 0.02415435
0.69827469 0.37939061 0.02415435
0.71950838 0.37939061 0.02415435
0.74244238 0.37939061 0.02415435
0.76728547 0.37939061 0.02415435
0.79462852 0.37939061 0.02415435
0.82803195 0.37939061 0.02415435
0.87240530 0.37939061 0.02415435
1.05087881 0.37939061 0.02415435
0.02415435 0.40803777 0.02415435
0.05096869 0.40803777 0.02415435
0.08776850 0.40803777 0.02415435
0.12038202 0.40803777 0.02415435
0.15082338 0.40803777 0.02415435
0.17981680 0.40803777 0.02415435
0.20773543 0.40803777 0.02415435
0.23480550 0.40803777 0.02415435
0.26117811 0.40803777 0.02415435
0.28710970 0.40803777 0.02415435
0.31786987 0.40803777 0.02415435
0.34863004 0.40803777 0.02415435
0.37939061 0.40803777 0.02415435
0.40803777 0.40803777 0.02415435
0.43571480 0.40803777 0.02415435
0.46246353 0.40803777 0.02415435
0.48898827 0.40803777 0.02415435
0.51388381 0.40803777 0.02415435
0.53953942 0.40803777 0.02415435
0.56301520 0.40803777 0.02415435
0.58785459 0.40803777 0.02415435
0.61009359 0.40803777 0.02415435
0.63349468 0.40803777 0.02415435
0.65547173 0.40803777 0.02415435
0.67696580 0.40803777 0.02415435
0.69827469 0.40803777 0.02415435
0.71950838 0.40803777 0.02415435
0.74244238 0.40803777 0.02415435
0.76728547 0.40803777 0.02415435
0.79462852 0.40803777 0.02415435
0.82803195 0.40803777 0.02415435
0.87240530 0.40803777 0.02415435
1.05087881 0.40803777 0.02415435
0.02415435 0.43571480 0.02415435
0.05096869 0.43571480 0.02415435
0.08776850 0.43571480 0.02415435
0.12038202 0.43571480 0.02415435
0.15082338 0.43571480 0.02415435
0.17981680 0.43571480 0.02415435
0.20773543 0.43571480 0.02415435
0.23480550 0.43571480 0.02415435
0.26117811 0.43571480 0.02415435
0.28710970 0.43571480 0.02415435
0.31786987 0.43571480 0.02415435
0.34863004 0.43571480 0.02415435
0.37939061 0.43571480 0.02415435
0.40803777 0.43571480 0.02415435
0.43571480 0.43571480 0.02415435
0.46246353 0.43571480 0.02415435
0.48898827 0.43571480 0.02415435
0.51388381 0.43571480 0.02415435
0.53953942 0.43571480 0.02415435
0.56301520 0.43571480 0.02415435
0.58785459 0.43571480 0.02415435
0.61009359 0.43571480 0.02415435
0.63349468 0.43571480 0.02415435
0.65547173 0.43571480 0.02415435
0.67696580 0.43571480 0.02415435
0.69827469 0.43571480 0.02415435
0.71950838 0.43571480 0.02415435
0.74244238 0.43571480 0.02415435
0.76728547 0.43571480 0.02415435
0.79462852 0.43571480 0.02415435
0.82803195 0.43571480 0.02415435
0.87240530 0.43571480 0.02415435
1.05087881 0.43571480 0.02415435
0.02415435 0.46246353 0.02415435
0.05096869 0.46246353 0.02415435
0.08776850 0.46246353 0.02415435
0.12038202 0.46246353 0.02415435
0.15082338 0.46246353 0.02415435
0.17981680 0.46246353 0.02415435
0.20773543 0.46246353 0.02415435
0.23480550 0.46246353 0.02415435
0.26117811 0.46246353 0.02415435
0.28710970 0.46246353 0.02415435
0.31786987 0.46246353 0.02415435
0.34863004 0.46246353 0.02415435
0.37939061 0.46246353 0.02415435
0.40803777 0.46246353 0.02415435
0.43571480 0.46246353 0.02415435
0.46246353 0.46246353 0.02415435
0.48898827 0.46246353 0.02415435
0.51388381 0.46246353 0.02415435
0.53953942 0.46246353 0.02415435
0.56301520 0.46246353 0.02415435
0.58785459 0.46246353 0.02415435
0.61009359 0.46246353 0.02415435
0.63349468 0.46246353 0.02415435
0.65547173 0.46246353 0.02415435
0.67696580 0.46246353 0.02415435
0.69827469 0.46246353 0.02415435
0.71950838 0.46246353 0.02415435
0.74244238 0.46246353 0.02415435
0.76728547 0.46246353 0.02415435
0.79462852 0.46246353 0.02415435
0.82803195 0.46246353 0.02415435
0.87240530 0.46246353 0.02415435
1.05087881 0.46246353 0.02415435
0.02415435 0.48898827 0.02415435
0.05096869 0.48898827 0.02415435
0.08776850 0.48898827 0.02415435
0.12038202 0.48898827 0.02415435
0.15082338 0.48898827 0.02415435
0.17981680 0.48898827 0.02415435
0.20773543 0.48898827 0.02415435
0.23480550 0.48898827 0.02415435
0.26117811 0.48898827 0.02415435
0.28710970 0.48898827 0.02415435
0.31786987 0.48898827 0.02415435
0.34863004 0.48898827 0.02415435
0.37939061 0.48898827 0.02415435
0.40803777 0.48898827 0.02415435
0.43571480 0.48898827 0.02415435
0.46246353 0.48898827 0.02415435
0.48898827 0.48898827 0.02415435
0.51388381 0.48898827 0.02415435
0.53953942 0.48898827 0.02415435
0.56301520 0.48898827 0.02415435
0.58785459 0.48898827 0.02415435
0.61009359 0.48898827 0.02415435
0.63349468 0.48898827 0.02415435
0.65547173 0.48898827 0.02415435
0.67696580 0.48898827 0.02415435
0.69827469 0.48898827 0.02415435
0.71950838 0.48898827 0.02415435
0.74244238 0.48898827 0.02415435
0.76728547 0.48898827 0.02415435
0.79462852 0.48898827 0.02415435
0.82803195 0.48898827 0.02415435
0.87240530 0.48898827 0.02415435
1.05087881 0.48898827 0.02415435
0.02415435 0.51388381 0.02415435
0.05096869 0.51388381 0.02415435
0.08776850 0.51388381 0.02415435
0.12038202 0.51388381 0.02415435
0.15082338 0.51388381 0.02415435
0.17981680 0.51388381 0.02415435
0.20773543 0.51388381 0.02415435
0.23480550 0.51388381 0.02415435
0.26117811 0.51388381 0.02415435
0.28710970 0.51388381 0.02415435
0.31786987 0.51388381 0.02415435
0.34863004 0.51388381 0.02415435
0.37939061 0.51388381 0.02415435
0.40803777 0.51388381 0.02415435
0.43571480 0.51388381 0.02415435
0.46246353 0.51388381 0.02415435
0.48898827 0.51388381 0.02415435
0.51388381 0.51388381 0.02415435
0.53953942 0.51388381 0.02415435
0.56301520 0.51388381 0.02415435
0.58785459 0.51388381 0.02415435
0.61009359 0.51388381 0.02415435
0.63349468 0.51388381 0.02415435
0.65547173 0.51388381 0.02415435
0.67696580 0.51388381 0.02415435
0.69827469 0.51388381 0.02415435
0.71950838 0.51388381 0.02415435
0.74244238 0.51388381 0.02415435
0.76728547 0.51388381 0.02415435
0.79462852 0.51388381 0.02415435
0.82803195 0.51388381 0.02415435
0.87240530 0.51388381 0.02415435
1.05087881 0.51388381 0.02415435
0.02415435 0.53953942 0.02415435
0.05096869 0.53953942 0.02415435
0.08776850 0.53953942 0.02415435
0.12038202 0.53953942 0.02415435
0.15082338 0.53953942 0.02415435
0.17981680 0.53953942 0.02415435
0.20773543 0.53953942 0.02415435
0.23480550 0.53953942 0.02415435
0.26117811 0.53953942 0.02415435
0.28710970 0.53953942 0.02415435
0.31786987 0.53953942 0.02415435
0.34863004 0.53953942 0.02415435
0.37939061 0.53953942 0.02415435
0.40803777 0.53953942 0.02415435
0.43571480 0.53953942 0.02415435
0.46246353 0.53953942 0.02415435
0.48898827 0.53953942 0.02415435
0.51388381 0.53953942 0.02415435
0.53953942 0.53953942 0.02415435
0.56301520 0.53953942 0.02415435
0.58785459 0.53953942 0.02415435
0.61009359 0.53953942 0.02415435
0.63349468 0.53953942 0.02415435
0.65547173 0.53953942 0.02415435
0.67696580 0.53953942 0.02415435
0.69827469 0.53953942 0.02415435
0.71950838 0.53953942 0.02415435
0.74244238 0.53953942 0.02415435
0.76728547 0.53953942 0.02415435
0.79462852 0.53953942 0.02415435
0.82803195 0.53953942 0.02415435
0.87240530 0.53953942 0.02415435
1.05087881 0.53953942 0.02415435
0.02415435 0.56301520 0.02415435
0.05096869 0.56301520 0.02415435
0.08776850 0.56301520 0.02415435
0.12038202 0.56301520 0.02415435
0.15082338 0.56301520 0.02415435
0.17981680 0.56301520 0.02415435
0.20773543 0.56301520 0.02415435
0.23480550 0.56301520 0.02415435
0.26117811 0.56301520 0.02415435
0.28710970 0.56301520 0.02415435
0.31786987 0.56301520 0.02415435
0.34863004 0.56301520 0.02415435
0.37939061 0.56301520 0.02415435
0.40803777 0.56301520 0.02415435
0.43571480 0.56301520 0.02415435
0.46246353 0.56301520 0.02415435
0.48898827 0.56301520 0.02415435
0.51388381 0.56301520 0.02415435
0.53953942 0.56301520 0.02415435
0.56301520 0.56301520 0.02415435
0.58785459 0.56301520 0.02415435
0.61009359 0.56301520 0.02415435
0.63349468 0.56301520 0.02415435
0.65547173 0.56301520 0.02415435
0.67696580 0.56301520 0.02415435
0.69827469 0.56301520 0.02415435
0.71950838 0.56301520 0.02415435
0.74244238 0.56301520 0.02415435
0.76728547 0.56301520 0.02415435
0.79462852 0.56301520 0.02415435
0.82803195 0.56301520 0.02415435
0.87240530 0.56301520 0.02415435
1.05087881 0.56301520 0.02415435
0.02415435 0.58785459 0.02415435
0.05096869 0.58785459 0.02415435
0.08776850 0.58785459 0.02415435
0.12038202 0.58785459 0.02415435
0.15082338 0.58785459 0.02415435
0.17981680 0.58785459 0.02415435
0.20773543 0.58785459 0.02415435
0.23480550 0.58785459 0.02415435
0.26117811 0.58785459 0.02415435
0.28710970 0.58785459 0.02415435
0.31786987 0.58785459 0.02415435
0.34863004 0.58785459 0.02415435
0.37939061 0.58785459 0.02415435
0.40803777 0.58785459 0.02415435
0.43571480 0.58785459 0.02415435
0.46246353 0.58785459 0.02415435
0.48898827 0.58785459 0.02415435
0.51388381 0.58785459 0.02415435
0.53953942 0.58785459 0.02415435
0.56301520 0.58785459 0.02415435
0.58785459 0.58785459 0.02415435
0.61009359 0.58785459 0.02415435
0.63349468 0.58785459 0.02415435
0.65547173 0.58785459 0.02415435
0.67696580 0.58785459 0.02415435
0.69827469 0.58785459 0.02415435
0.71950838 0.58785459 0.02415435
0.74244238 0.58785459 0.02415435
0.76728547 0.58785459 0.02415435
0.79462852 0.58785459 0.02415435
0.82803195 0.58785459 0.02415435
0.87240530 0.58785459 0.02415435
1.05087881 0.58785459 0.02415435
0.02415435 0.61009359 0.02415435
0.05096869 0.61009359 0.02415435
0.08776850 0.61009359 0.02415435
0.12038202 0.61009359 0.02415435
0.15082338 0.61009359 0.02415435
0.17981680 0.61009359 0.02415435
0.20773543 0.61009359 0.02415435
0.23480550 0.61009359 0.02415435
0.26117811 0.61009359 0.02415435
0.28710970 0.61009359 0.02415435
0.31786987 0.61009359 0.02415435
0.34863004 0.61009359 0.02415435
0.37939061 0.61009359 0.02415435
0.40803777 0.61009359 0.02415435
0.43571480 0.61009359 0.02415435
0.46246353 0.61009359 0.02415435
0.48898827 0.61009359 0.02415435
0.51388381 0.61009359 0.02415435
0.53953942 0.61009359 0.02415435
0.56301520 0.61009359 0.02415435
0.58785459 0.61009359 0.02415435
0.61009359 0.61009359 0.02415435
0.63349468 0.61009359 0.02415435
0.65547173 0.61009359 0.02415435
0.67696580 0.61009359 0.02415435
0.69827469 0.61009359 0.02415435
