kpg/editing/james luts/step one lut.cube
TITLE "Alexa709 to WDR Passthrough"
LUT_3D_SIZE 9
# LA - Generated by Resolve/Passthrough -> LA - Generated by Resolve/Passthrough, CineEI Shift 0.00, Black Level 2.44% IRE, Input 100% -> Output 100% - Created with LUTCalc v4.0 by Ben Turley October 2020
0.02415435 0.02415435 0.02415435
0.15082338 0.02415435 0.02415435
0.26117811 0.02415435 0.02415435
0.37939061 0.02415435 0.02415435
0.48898827 0.02415435 0.02415435
0.58785459 0.02415435 0.02415435
0.67696580 0.02415435 0.02415435
0.76728547 0.02415435 0.02415435
1.05087881 0.02415435 0.02415435
0.02415435 0.15082338 0.02415435
0.15082338 0.15082338 0.02415435
0.26117811 0.15082338 0.02415435
0.37939061 0.15082338 0.02415435
0.48898827 0.15082338 0.02415435
0.58785459 0.15082338 0.02415435
0.67696580 0.15082338 0.02415435
0.76728547 0.15082338 0.02415435
1.05087881 0.15082338 0.02415435
0.02415435 0.26117811 0.02415435
0.15082338 0.26117811 0.02415435
0.26117811 0.26117811 0.02415435
0.37939061 0.26117811 0.02415435
0.48898827 0.26117811 0.02415435
0.58785459 0.26117811 0.02415435
0.67696580 0.26117811 0.02415435
0.76728547 0.26117811 0.02415435
1.05087881 0.26117811 0.02415435
0.02415435 0.37939061 0.02415435
0.15082338 0.37939061 0.02415435
0.26117811 0.37939061 0.02415435
0.37939061 0.37939061 0.02415435
0.48898827 0.37939061 0.02415435
0.58785459 0.37939061 0.02415435
0.67696580 0.37939061 0.02415435
0.76728547 0.37939061 0.02415435
1.05087881 0.37939061 0.02415435
0.02415435 0.48898827 0.02415435
0.15082338 0.48898827 0.02415435
0.26117811 0.48898827 0.02415435
0.37939061 0.48898827 0.02415435
0.48898827 0.48898827 0.02415435
0.58785459 0.48898827 0.02415435
0.67696580 0.48898827 0.02415435
0.76728547 0.48898827 0.02415435
1.05087881 0.48898827 0.02415435
0.02415435 0.58785459 0.02415435
0.15082338 0.58785459 0.02415435
0.26117811 0.58785459 0.02415435
0.37939061 0.58785459 0.02415435
0.48898827 0.58785459 0.02415435
0.58785459 0.58785459 0.02415435
0.67696580 0.58785459 0.02415435
0.76728547 0.58785459 0.02415435
1.05087881 0.58785459 0.02415435
0.02415435 0.67696580 0.02415435
0.15082338 0.67696580 0.02415435
0.26117811 0.67696580 0.02415435
0.37939061 0.67696580 0.02415435
0.48898827 0.67696580 0.02415435
0.58785459 0.67696580 0.02415435
0.67696580 0.67696580 0.02415435
0.76728547 0.67696580 0.02415435
1.05087881 0.67696580 0.02415435
0.02415435 0.76728547 0.02415435
0.15082338 0.76728547 0.02415435
0.26117811 0.76728547 0.02415435
0.37939061 0.76728547 0.02415435
0.48898827 0.76728547 0.02415435
0.58785459 0.76728547 0.02415435
0.67696580 0.76728547 0.02415435
0.76728547 0.76728547 0.02415435
1.05087881 0.76728547 0.02415435
0.02415435 1.05087881 0.02415435
0.15082338 1.05087881 0.02415435
0.26117811 1.05087881 0.02415435
0.37939061 1.05087881 0.02415435
0.48898827 1.05087881 0.02415435
0.58785459 1.05087881 0.02415435
0.67696580 1.05087881 0.02415435
0.76728547 1.05087881 0.02415435
1.05087881 1.05087881 0.02415435
0.02415435 0.02415435 0.15082338
0.15082338 0.02415435 0.15082338
0.26117811 0.02415435 0.15082338
0.37939061 0.02415435 0.15082338
0.48898827 0.02415435 0.15082338
0.58785459 0.02415435 0.15082338
0.67696580 0.02415435 0.15082338
0.76728547 0.02415435 0.15082338
1.05087881 0.02415435 0.15082338
0.02415435 0.15082338 0.15082338
0.15082338 0.15082338 0.15082338
0.26117811 0.15082338 0.15082338
0.37939061 0.15082338 0.15082338
0.48898827 0.15082338 0.15082338
0.58785459 0.15082338 0.15082338
0.67696580 0.15082338 0.15082338
0.76728547 0.15082338 0.15082338
1.05087881 0.15082338 0.15082338
0.02415435 0.26117811 0.15082338
0.15082338 0.26117811 0.15082338
0.26117811 0.26117811 0.15082338
0.37939061 0.26117811 0.15082338
0.48898827 0.26117811 0.15082338
0.58785459 0.26117811 0.15082338
0.67696580 0.26117811 0.15082338
0.76728547 0.26117811 0.15082338
1.05087881 0.26117811 0.15082338
0.02415435 0.37939061 0.15082338
0.15082338 0.37939061 0.15082338
0.26117811 0.37939061 0.15082338
0.37939061 0.37939061 0.15082338
0.48898827 0.37939061 0.15082338
0.58785459 0.37939061 0.15082338
0.67696580 0.37939061 0.15082338
0.76728547 0.37939061 0.15082338
1.05087881 0.37939061 0.15082338
0.02415435 0.48898827 0.15082338
0.15082338 0.48898827 0.15082338
0.26117811 0.48898827 0.15082338
0.37939061 0.48898827 0.15082338
0.48898827 0.48898827 0.15082338
0.58785459 0.48898827 0.15082338
0.67696580 0.48898827 0.15082338
0.76728547 0.48898827 0.15082338
1.05087881 0.48898827 0.15082338
0.02415435 0.58785459 0.15082338
0.15082338 0.58785459 0.15082338
0.26117811 0.58785459 0.15082338
0.37939061 0.58785459 0.15082338
0.48898827 0.58785459 0.15082338
0.58785459 0.58785459 0.15082338
0.67696580 0.58785459 0.15082338
0.76728547 0.58785459 0.15082338
1.05087881 0.58785459 0.15082338
0.02415435 0.67696580 0.15082338
0.15082338 0.67696580 0.15082338
0.26117811 0.67696580 0.15082338
0.37939061 0.67696580 0.15082338
0.48898827 0.67696580 0.15082338
0.58785459 0.67696580 0.15082338
0.67696580 0.67696580 0.15082338
0.76728547 0.67696580 0.15082338
1.05087881 0.67696580 0.15082338
0.02415435 0.76728547 0.15082338
0.15082338 0.76728547 0.15082338
0.26117811 0.76728547 0.15082338
0.37939061 0.76728547 0.15082338
0.48898827 0.76728547 0.15082338
0.58785459 0.76728547 0.15082338
0.67696580 0.76728547 0.15082338
0.76728547 0.76728547 0.15082338
1.05087881 0.76728547 0.15082338
0.02415435 1.05087881 0.15082338
0.15082338 1.05087881 0.15082338
0.26117811 1.05087881 0.15082338
0.37939061 1.05087881 0.15082338
0.48898827 1.05087881 0.15082338
0.58785459 1.05087881 0.15082338
0.67696580 1.05087881 0.15082338
0.76728547 1.05087881 0.15082338
1.05087881 1.05087881 0.15082338
0.02415435 0.02415435 0.26117811
0.15082338 0.02415435 0.26117811
0.26117811 0.02415435 0.26117811
0.37939061 0.02415435 0.26117811
0.48898827 0.02415435 0.26117811
0.58785459 0.02415435 0.26117811
0.67696580 0.02415435 0.26117811
0.76728547 0.02415435 0.26117811
1.05087881 0.02415435 0.26117811
0.02415435 0.15082338 0.26117811
0.15082338 0.15082338 0.26117811
0.26117811 0.15082338 0.26117811
0.37939061 0.15082338 0.26117811
0.48898827 0.15082338 0.26117811
0.58785459 0.15082338 0.26117811
0.67696580 0.15082338 0.26117811
0.76728547 0.15082338 0.26117811
1.05087881 0.15082338 0.26117811
0.02415435 0.26117811 0.26117811
0.15082338 0.26117811 0.26117811
0.26117811 0.26117811 0.26117811
0.37939061 0.26117811 0.26117811
0.48898827 0.26117811 0.26117811
0.58785459 0.26117811 0.26117811
0.67696580 0.26117811 0.26117811
0.76728547 0.26117811 0.26117811
1.05087881 0.26117811 0.26117811
0.02415435 0.37939061 0.26117811
0.15082338 0.37939061 0.26117811
0.26117811 0.37939061 0.26117811
0.37939061 0.37939061 0.26117811
0.48898827 0.37939061 0.26117811
0.58785459 0.37939061 0.26117811
0.67696580 0.37939061 0.26117811
0.76728547 0.37939061 0.26117811
1.05087881 0.37939061 0.26117811
0.02415435 0.48898827 0.26117811
0.15082338 0.48898827 0.26117811
0.26117811 0.48898827 0.26117811
0.37939061 0.48898827 0.26117811
0.48898827 0.48898827 0.26117811
0.58785459 0.48898827 0.26117811
0.67696580 0.48898827 0.26117811
0.76728547 0.48898827 0.26117811
1.05087881 0.48898827 0.26117811
0.02415435 0.58785459 0.26117811
0.15082338 0.58785459 0.26117811
0.26117811 0.58785459 0.26117811
0.37939061 0.58785459 0.26117811
0.48898827 0.58785459 0.26117811
0.58785459 0.58785459 0.26117811
0.67696580 0.58785459 0.26117811
0.76728547 0.58785459 0.26117811
1.05087881 0.58785459 0.26117811
0.02415435 0.67696580 0.26117811
0.15082338 0.67696580 0.26117811
0.26117811 0.67696580 0.26117811
0.37939061 0.67696580 0.26117811
0.48898827 0.67696580 0.26117811
0.58785459 0.67696580 0.26117811
0.67696580 0.67696580 0.26117811
0.76728547 0.67696580 0.26117811
1.05087881 0.67696580 0.26117811
0.02415435 0.76728547 0.26117811
0.15082338 0.76728547 0.26117811
0.26117811 0.76728547 0.26117811
0.37939061 0.76728547 0.26117811
0.48898827 0.76728547 0.26117811
0.58785459 0.76728547 0.26117811
0.67696580 0.76728547 0.26117811
0.76728547 0.76728547 0.26117811
1.05087881 0.76728547 0.26117811
0.02415435 1.05087881 0.26117811
0.15082338 1.05087881 0.26117811
0.26117811 1.05087881 0.26117811
0.37939061 1.05087881 0.26117811
0.48898827 1.05087881 0.26117811
0.58785459 1.05087881 0.26117811
0.67696580 1.05087881 0.26117811
0.76728547 1.05087881 0.26117811
1.05087881 1.05087881 0.26117811
0.02415435 0.02415435 0.37939061
0.15082338 0.02415435 0.37939061
0.26117811 0.02415435 0.37939061
0.37939061 0.02415435 0.37939061
0.48898827 0.02415435 0.37939061
0.58785459 0.02415435 0.37939061
0.67696580 0.02415435 0.37939061
0.76728547 0.02415435 0.37939061
1.05087881 0.02415435 0.37939061
0.02415435 0.15082338 0.37939061
0.15082338 0.15082338 0.37939061
0.26117811 0.15082338 0.37939061
0.37939061 0.15082338 0.37939061
0.48898827 0.15082338 0.37939061
0.58785459 0.15082338 0.37939061
0.67696580 0.15082338 0.37939061
0.76728547 0.15082338 0.37939061
1.05087881 0.15082338 0.37939061
0.02415435 0.26117811 0.37939061
0.15082338 0.26117811 0.37939061
0.26117811 0.26117811 0.37939061
0.37939061 0.26117811 0.37939061
0.48898827 0.26117811 0.37939061
0.58785459 0.26117811 0.37939061
0.67696580 0.26117811 0.37939061
0.76728547 0.26117811 0.37939061
1.05087881 0.26117811 0.37939061
0.02415435 0.37939061 0.37939061
0.15082338 0.37939061 0.37939061
0.26117811 0.37939061 0.37939061
0.37939061 0.37939061 0.37939061
0.48898827 0.37939061 0.37939061
0.58785459 0.37939061 0.37939061
0.67696580 0.37939061 0.37939061
0.76728547 0.37939061 0.37939061
1.05087881 0.37939061 0.37939061
0.02415435 0.48898827 0.37939061
0.15082338 0.48898827 0.37939061
0.26117811 0.48898827 0.37939061
0.37939061 0.48898827 0.37939061
0.48898827 0.48898827 0.37939061
0.58785459 0.48898827 0.37939061
0.67696580 0.48898827 0.37939061
0.76728547 0.48898827 0.37939061
1.05087881 0.48898827 0.37939061
0.02415435 0.58785459 0.37939061
0.15082338 0.58785459 0.37939061
0.26117811 0.58785459 0.37939061
0.37939061 0.58785459 0.37939061
0.48898827 0.58785459 0.37939061
0.58785459 0.58785459 0.37939061
0.67696580 0.58785459 0.37939061
0.76728547 0.58785459 0.37939061
1.05087881 0.58785459 0.37939061
0.02415435 0.67696580 0.37939061
0.15082338 0.67696580 0.37939061
0.26117811 0.67696580 0.37939061
0.37939061 0.67696580 0.37939061
0.48898827 0.67696580 0.37939061
0.58785459 0.67696580 0.37939061
0.67696580 0.67696580 0.37939061
0.76728547 0.67696580 0.37939061
1.05087881 0.67696580 0.37939061
0.02415435 0.76728547 0.37939061
0.15082338 0.76728547 0.37939061
0.26117811 0.76728547 0.37939061
0.37939061 0.76728547 0.37939061
0.48898827 0.76728547 0.37939061
0.58785459 0.76728547 0.37939061
0.67696580 0.76728547 0.37939061
0.76728547 0.76728547 0.37939061
1.05087881 0.76728547 0.37939061
0.02415435 1.05087881 0.37939061
0.15082338 1.05087881 0.37939061
0.26117811 1.05087881 0.37939061
0.37939061 1.05087881 0.37939061
0.48898827 1.05087881 0.37939061
0.58785459 1.05087881 0.37939061
0.67696580 1.05087881 0.37939061
0.76728547 1.05087881 0.37939061
1.05087881 1.05087881 0.37939061
0.02415435 0.02415435 0.48898827
0.15082338 0.02415435 0.48898827
0.26117811 0.02415435 0.48898827
0.37939061 0.02415435 0.48898827
0.48898827 0.02415435 0.48898827
0.58785459 0.02415435 0.48898827
0.67696580 0.02415435 0.48898827
0.76728547 0.02415435 0.48898827
1.05087881 0.02415435 0.48898827
0.02415435 0.15082338 0.48898827
0.15082338 0.15082338 0.48898827
0.26117811 0.15082338 0.48898827
0.37939061 0.15082338 0.48898827
0.48898827 0.15082338 0.48898827
0.58785459 0.15082338 0.48898827
0.67696580 0.15082338 0.48898827
0.76728547 0.15082338 0.48898827
1.05087881 0.15082338 0.48898827
0.02415435 0.26117811 0.48898827
0.15082338 0.26117811 0.48898827
0.26117811 0.26117811 0.48898827
0.37939061 0.26117811 0.48898827
0.48898827 0.26117811 0.48898827
0.58785459 0.26117811 0.48898827
0.67696580 0.26117811 0.48898827
0.76728547 0.26117811 0.48898827
1.05087881 0.26117811 0.48898827
0.02415435 0.37939061 0.48898827
0.15082338 0.37939061 0.48898827
0.26117811 0.37939061 0.48898827
0.37939061 0.37939061 0.48898827
0.48898827 0.37939061 0.48898827
0.58785459 0.37939061 0.48898827
0.67696580 0.37939061 0.48898827
0.76728547 0.37939061 0.48898827
1.05087881 0.37939061 0.48898827
0.02415435 0.48898827 0.48898827
0.15082338 0.48898827 0.48898827
0.26117811 0.48898827 0.48898827
0.37939061 0.48898827 0.48898827
0.48898827 0.48898827 0.48898827
0.58785459 0.48898827 0.48898827
0.67696580 0.48898827 0.48898827
0.76728547 0.48898827 0.48898827
1.05087881 0.48898827 0.48898827
0.02415435 0.58785459 0.48898827
0.15082338 0.58785459 0.48898827
0.26117811 0.58785459 0.48898827
0.37939061 0.58785459 0.48898827
0.48898827 0.58785459 0.48898827
0.58785459 0.58785459 0.48898827
0.67696580 0.58785459 0.48898827
0.76728547 0.58785459 0.48898827
1.05087881 0.58785459 0.48898827
0.02415435 0.67696580 0.48898827
0.15082338 0.67696580 0.48898827
0.26117811 0.67696580 0.48898827
0.37939061 0.67696580 0.48898827
0.48898827 0.67696580 0.48898827
0.58785459 0.67696580 0.48898827
0.67696580 0.67696580 0.48898827
0.76728547 0.67696580 0.48898827
1.05087881 0.67696580 0.48898827
0.02415435 0.76728547 0.48898827
0.15082338 0.76728547 0.48898827
0.26117811 0.76728547 0.48898827
0.37939061 0.76728547 0.48898827
0.48898827 0.76728547 0.48898827
0.58785459 0.76728547 0.48898827
0.67696580 0.76728547 0.48898827
0.76728547 0.76728547 0.48898827
1.05087881 0.76728547 0.48898827
0.02415435 1.05087881 0.48898827
0.15082338 1.05087881 0.48898827
0.26117811 1.05087881 0.48898827
0.37939061 1.05087881 0.48898827
0.48898827 1.05087881 0.48898827
0.58785459 1.05087881 0.48898827
0.67696580 1.05087881 0.48898827
0.76728547 1.05087881 0.48898827
1.05087881 1.05087881 0.48898827
0.02415435 0.02415435 0.58785459
0.15082338 0.02415435 0.58785459
0.26117811 0.02415435 0.58785459
0.37939061 0.02415435 0.58785459
0.48898827 0.02415435 0.58785459
0.58785459 0.02415435 0.58785459
0.67696580 0.02415435 0.58785459
0.76728547 0.02415435 0.58785459
1.05087881 0.02415435 0.58785459
0.02415435 0.15082338 0.58785459
0.15082338 0.15082338 0.58785459
0.26117811 0.15082338 0.58785459
0.37939061 0.15082338 0.58785459
0.48898827 0.15082338 0.58785459
0.58785459 0.15082338 0.58785459
0.67696580 0.15082338 0.58785459
0.76728547 0.15082338 0.58785459
1.05087881 0.15082338 0.58785459
0.02415435 0.26117811 0.58785459
0.15082338 0.26117811 0.58785459
0.26117811 0.26117811 0.58785459
0.37939061 0.26117811 0.58785459
0.48898827 0.26117811 0.58785459
0.58785459 0.26117811 0.58785459
0.67696580 0.26117811 0.58785459
0.76728547 0.26117811 0.58785459
1.05087881 0.26117811 0.58785459
0.02415435 0.37939061 0.58785459
0.15082338 0.37939061 0.58785459
0.26117811 0.37939061 0.58785459
0.37939061 0.37939061 0.58785459
0.48898827 0.37939061 0.58785459
0.58785459 0.37939061 0.58785459
0.67696580 0.37939061 0.58785459
0.76728547 0.37939061 0.58785459
1.05087881 0.37939061 0.58785459
0.02415435 0.48898827 0.58785459
0.15082338 0.48898827 0.58785459
0.26117811 0.48898827 0.58785459
0.37939061 0.48898827 0.58785459
0.48898827 0.48898827 0.58785459
0.58785459 0.48898827 0.58785459
0.67696580 0.48898827 0.58785459
0.76728547 0.48898827 0.58785459
1.05087881 0.48898827 0.58785459
0.02415435 0.58785459 0.58785459
0.15082338 0.58785459 0.58785459
0.26117811 0.58785459 0.58785459
0.37939061 0.58785459 0.58785459
0.48898827 0.58785459 0.58785459
0.58785459 0.58785459 0.58785459
0.67696580 0.58785459 0.58785459
0.76728547 0.58785459 0.58785459
1.05087881 0.58785459 0.58785459
0.02415435 0.67696580 0.58785459
0.15082338 0.67696580 0.58785459
0.26117811 0.67696580 0.58785459
0.37939061 0.67696580 0.58785459
0.48898827 0.67696580 0.58785459
0.58785459 0.67696580 0.58785459
0.67696580 0.67696580 0.58785459
0.76728547 0.67696580 0.58785459
1.05087881 0.67696580 0.58785459
0.02415435 0.76728547 0.58785459
0.15082338 0.76728547 0.58785459
0.26117811 0.76728547 0.58785459
0.37939061 0.76728547 0.58785459
0.48898827 0.76728547 0.58785459
0.58785459 0.76728547 0.58785459
0.67696580 0.76728547 0.58785459
0.76728547 0.76728547 0.58785459
1.05087881 0.76728547 0.58785459
0.02415435 1.05087881 0.58785459
0.15082338 1.05087881 0.58785459
0.26117811 1.05087881 0.58785459
0.37939061 1.05087881 0.58785459
0.48898827 1.05087881 0.58785459
0.58785459 1.05087881 0.58785459
0.67696580 1.05087881 0.58785459
0.76728547 1.05087881 0.58785459
1.05087881 1.05087881 0.58785459
0.02415435 0.02415435 0.67696580
0.15082338 0.02415435 0.67696580
0.26117811 0.02415435 0.67696580
0.37939061 0.02415435 0.67696580
0.48898827 0.02415435 0.67696580
0.58785459 0.02415435 0.67696580
0.67696580 0.02415435 0.67696580
0.76728547 0.02415435 0.67696580
1.05087881 0.02415435 0.67696580
0.02415435 0.15082338 0.67696580
0.15082338 0.15082338 0.67696580
0.26117811 0.15082338 0.67696580
0.37939061 0.15082338 0.67696580
0.48898827 0.15082338 0.67696580
0.58785459 0.15082338 0.67696580
0.67696580 0.15082338 0.67696580
0.76728547 0.15082338 0.67696580
1.05087881 0.15082338 0.67696580
0.02415435 0.26117811 0.67696580
0.15082338 0.26117811 0.67696580
0.26117811 0.26117811 0.67696580
0.37939061 0.26117811 0.67696580
0.48898827 0.26117811 0.67696580
0.58785459 0.26117811 0.67696580
0.67696580 0.26117811 0.67696580
0.76728547 0.26117811 0.67696580
1.05087881 0.26117811 0.67696580
0.02415435 0.37939061 0.67696580
0.15082338 0.37939061 0.67696580
0.26117811 0.37939061 0.67696580
0.37939061 0.37939061 0.67696580
0.48898827 0.37939061 0.67696580
0.58785459 0.37939061 0.67696580
0.67696580 0.37939061 0.67696580
0.76728547 0.37939061 0.67696580
1.05087881 0.37939061 0.67696580
0.02415435 0.48898827 0.67696580
0.15082338 0.48898827 0.67696580
0.26117811 0.48898827 0.67696580
0.37939061 0.48898827 0.67696580
0.48898827 0.48898827 0.67696580
0.58785459 0.48898827 0.67696580
0.67696580 0.48898827 0.67696580
0.76728547 0.48898827 0.67696580
1.05087881 0.48898827 0.67696580
0.02415435 0.58785459 0.67696580
0.15082338 0.58785459 0.67696580
0.26117811 0.58785459 0.67696580
0.37939061 0.58785459 0.67696580
0.48898827 0.58785459 0.67696580
0.58785459 0.58785459 0.67696580
0.67696580 0.58785459 0.67696580
0.76728547 0.58785459 0.67696580
1.05087881 0.58785459 0.67696580
0.02415435 0.67696580 0.67696580
0.15082338 0.67696580 0.67696580
0.26117811 0.67696580 0.67696580
0.37939061 0.67696580 0.67696580
0.48898827 0.67696580 0.67696580
0.58785459 0.67696580 0.67696580
0.67696580 0.67696580 0.67696580
0.76728547 0.67696580 0.67696580
1.05087881 0.67696580 0.67696580
0.02415435 0.76728547 0.67696580
0.15082338 0.76728547 0.67696580
0.26117811 0.76728547 0.67696580
0.37939061 0.76728547 0.67696580
0.48898827 0.76728547 0.67696580
0.58785459 0.76728547 0.67696580
0.67696580 0.76728547 0.67696580
0.76728547 0.76728547 0.67696580
1.05087881 0.76728547 0.67696580
0.02415435 1.05087881 0.67696580
0.15082338 1.05087881 0.67696580
0.26117811 1.05087881 0.67696580
0.37939061 1.05087881 0.67696580
0.48898827 1.05087881 0.67696580
0.58785459 1.05087881 0.67696580
0.67696580 1.05087881 0.67696580
0.76728547 1.05087881 0.67696580
1.05087881 1.05087881 0.67696580
0.02415435 0.02415435 0.76728547
0.15082338 0.02415435 0.76728547
0.26117811 0.02415435 0.76728547
0.37939061 0.02415435 0.76728547
0.48898827 0.02415435 0.76728547
0.58785459 0.02415435 0.76728547
0.67696580 0.02415435 0.76728547
0.76728547 0.02415435 0.76728547
1.05087881 0.02415435 0.76728547
0.02415435 0.15082338 0.76728547
0.15082338 0.15082338 0.76728547
0.26117811 0.15082338 0.76728547
0.37939061 0.15082338 0.76728547
0.48898827 0.15082338 0.76728547
0.58785459 0.15082338 0.76728547
0.67696580 0.15082338 0.76728547
0.76728547 0.15082338 0.76728547
1.05087881 0.15082338 0.76728547
0.02415435 0.26117811 0.76728547
0.15082338 0.26117811 0.76728547
0.26117811 0.26117811 0.76728547
0.37939061 0.26117811 0.76728547
0.48898827 0.26117811 0.76728547
0.58785459 0.26117811 0.76728547
0.67696580 0.26117811 0.76728547
0.76728547 0.26117811 0.76728547
1.05087881 0.26117811 0.76728547
0.02415435 0.37939061 0.76728547
0.15082338 0.37939061 0.76728547
0.26117811 0.37939061 0.76728547
0.37939061 0.37939061 0.76728547
0.48898827 0.37939061 0.76728547
0.58785459 0.37939061 0.76728547
0.67696580 0.37939061 0.76728547
0.76728547 0.37939061 0.76728547
1.05087881 0.37939061 0.76728547
0.02415435 0.48898827 0.76728547
0.15082338 0.48898827 0.76728547
0.26117811 0.48898827 0.76728547
0.37939061 0.48898827 0.76728547
0.48898827 0.48898827 0.76728547
0.58785459 0.48898827 0.76728547
0.67696580 0.48898827 0.76728547
0.76728547 0.48898827 0.76728547
1.05087881 0.48898827 0.76728547
0.02415435 0.58785459 0.76728547
0.15082338 0.58785459 0.76728547
0.26117811 0.58785459 0.76728547
0.37939061 0.58785459 0.76728547
0.48898827 0.58785459 0.76728547
0.58785459 0.58785459 0.76728547
0.67696580 0.58785459 0.76728547
0.76728547 0.58785459 0.76728547
1.05087881 0.58785459 0.76728547
0.02415435 0.67696580 0.76728547
0.15082338 0.67696580 0.76728547
0.26117811 0.67696580 0.76728547
0.37939061 0.67696580 0.76728547
0.48898827 0.67696580 0.76728547
0.58785459 0.67696580 0.76728547
0.67696580 0.67696580 0.76728547
0.76728547 0.67696580 0.76728547
1.05087881 0.67696580 0.76728547
0.02415435 0.76728547 0.76728547
0.15082338 0.76728547 0.76728547
0.26117811 0.76728547 0.76728547
0.37939061 0.76728547 0.76728547
0.48898827 0.76728547 0.76728547
0.58785459 0.76728547 0.76728547
0.67696580 0.76728547 0.76728547
0.76728547 0.76728547 0.76728547
1.05087881 0.76728547 0.76728547
0.02415435 1.05087881 0.76728547
0.15082338 1.05087881 0.76728547
0.26117811 1.05087881 0.76728547
0.37939061 1.05087881 0.76728547
0.48898827 1.05087881 0.76728547
0.58785459 1.05087881 0.76728547
0.67696580 1.05087881 0.76728547
0.76728547 1.05087881 0.76728547
1.05087881 1.05087881 0.76728547
0.02415435 0.02415435 1.05087881
0.15082338 0.02415435 1.05087881
0.26117811 0.02415435 1.05087881
0.37939061 0.02415435 1.05087881
0.48898827 0.02415435 1.05087881
0.58785459 0.02415435 1.05087881
0.67696580 0.02415435 1.05087881
0.76728547 0.02415435 1.05087881
1.05087881 0.02415435 1.05087881
0.02415435 0.15082338 1.05087881
0.15082338 0.15082338 1.05087881
0.26117811 0.15082338 1.05087881
0.37939061 0.15082338 1.05087881
0.48898827 0.15082338 1.05087881
0.58785459 0.15082338 1.05087881
0.67696580 0.15082338 1.05087881
0.76728547 0.15082338 1.05087881
1.05087881 0.15082338 1.05087881
0.02415435 0.26117811 1.05087881
0.15082338 0.26117811 1.05087881
0.26117811 0.26117811 1.05087881
0.37939061 0.26117811 1.05087881
0.48898827 0.26117811 1.05087881
0.58785459 0.26117811 1.05087881
0.67696580 0.26117811 1.05087881
0.76728547 0.26117811 1.05087881
1.05087881 0.26117811 1.05087881
0.02415435 0.37939061 1.05087881
0.15082338 0.37939061 1.05087881
0.26117811 0.37939061 1.05087881
0.37939061 0.37939061 1.05087881
0.48898827 0.37939061 1.05087881
0.58785459 0.37939061 1.05087881
0.67696580 0.37939061 1.05087881
0.76728547 0.37939061 1.05087881
1.05087881 0.37939061 1.05087881
0.02415435 0.48898827 1.05087881
0.15082338 0.48898827 1.05087881
0.26117811 0.48898827 1.05087881
0.37939061 0.48898827 1.05087881
0.48898827 0.48898827 1.05087881
0.58785459 0.48898827 1.05087881
0.67696580 0.48898827 1.05087881
0.76728547 0.48898827 1.05087881
1.05087881 0.48898827 1.05087881
0.02415435 0.58785459 1.05087881
0.15082338 0.58785459 1.05087881
0.26117811 0.58785459 1.05087881
0.37939061 0.58785459 1.05087881
0.48898827 0.58785459 1.05087881
0.58785459 0.58785459 1.05087881
0.67696580 0.58785459 1.05087881
0.76728547 0.58785459 1.05087881
1.05087881 0.58785459 1.05087881
0.02415435 0.67696580 1.05087881
0.15082338 0.67696580 1.05087881
0.26117811 0.67696580 1.05087881
0.37939061 0.67696580 1.05087881
0.48898827 0.67696580 1.05087881
0.58785459 0.67696580 1.05087881
0.67696580 0.67696580 1.05087881
0.76728547 0.67696580 1.05087881
1.05087881 0.67696580 1.05087881
0.02415435 0.76728547 1.05087881
0.15082338 0.76728547 1.05087881
0.26117811 0.76728547 1.05087881
0.37939061 0.76728547 1.05087881
0.48898827 0.76728547 1.05087881
0.58785459 0.76728547 1.05087881
0.67696580 0.76728547 1.05087881
0.76728547 0.76728547 1.05087881
1.05087881 0.76728547 1.05087881
0.02415435 1.05087881 1.05087881
0.15082338 1.05087881 1.05087881
0.26117811 1.05087881 1.05087881
0.37939061 1.05087881 1.05087881
0.48898827 1.05087881 1.05087881
0.58785459 1.05087881 1.05087881
0.67696580 1.05087881 1.05087881
0.76728547 1.05087881 1.05087881
1.05087881 1.05087881 1.05087881
