kpg/editing/james luts/utopia lut.cube
TITLE "Generated by Resolve"
LUT_3D_SIZE 33
0.00488289 0.0275425 0.0343633
0.00488289 0.0275425 0.0343633
0.00486763 0.0275273 0.0343481
0.00483711 0.0274968 0.0343175
0.016846 0.0272526 0.0357519
0.0276646 0.0266423 0.0394903
0.0462043 0.0256352 0.0402228
0.0700847 0.0243534 0.0406806
0.0996567 0.0225223 0.0411994
0.13724 0.0202792 0.0418402
0.182193 0.0169528 0.0426032
0.235431 0.015198 0.0461433
0.290913 0.0129549 0.0451972
0.358907 0.0113375 0.0565194
0.429877 0.0110323 0.0714122
0.496956 0.0127108 0.0907912
0.562676 0.016968 0.115434
0.627359 0.0251164 0.147097
0.692622 0.0370794 0.185397
0.75819 0.0563363 0.230854
0.820203 0.0892653 0.287587
0.869596 0.127596 0.346609
0.887541 0.168124 0.404898
0.903807 0.218311 0.466896
0.918639 0.276585 0.531304
0.936126 0.353109 0.598047
0.946441 0.430106 0.660136
0.952682 0.505943 0.719524
0.954314 0.579049 0.776883
0.956878 0.647623 0.827329
0.964111 0.712215 0.870375
0.970214 0.774014 0.904372
0.975662 0.830472 0.929976
0.00488289 0.0275425 0.0343633
0.00488289 0.0275425 0.0343633
0.00486763 0.0275273 0.0343481
0.00483711 0.0274968 0.0343175
0.0159762 0.0280461 0.033814
0.0248875 0.0272984 0.0347143
0.0428473 0.0254368 0.0335241
0.0663767 0.0235752 0.0335699
0.0946212 0.0223239 0.0351415
0.130465 0.0207218 0.0371252
0.175311 0.0170748 0.0370031
0.227543 0.0143282 0.0383154
0.288853 0.0125582 0.0415961
0.357397 0.010605 0.0518959
0.423011 0.0104524 0.0597391
0.491051 0.0118563 0.0791638
0.558495 0.0162966 0.104204
0.624338 0.0245823 0.136645
0.690425 0.0366674 0.175662
0.758267 0.0580301 0.223987
0.820523 0.0903334 0.281407
0.870405 0.128801 0.341283
0.888334 0.168902 0.400565
0.904677 0.21912 0.463264
0.919249 0.277134 0.528695
0.936614 0.353582 0.59588
0.946715 0.430274 0.658488
0.95288 0.506004 0.718318
0.954345 0.578973 0.77615
0.956863 0.647608 0.826719
0.964034 0.712169 0.870085
0.970138 0.773968 0.904204
0.97557 0.830488 0.9299
0.00488289 0.0275425 0.0343786
0.00488289 0.0275425 0.0343633
0.00486763 0.0275273 0.0343481
0.00483711 0.0274968 0.0343175
0.014847 0.0294499 0.0342107
0.0208133 0.0306706 0.0342412
0.0339971 0.0298619 0.0349279
0.0583658 0.0272679 0.0323949
0.0887312 0.0216526 0.0278019
0.125353 0.0179141 0.0278935
0.169924 0.0150149 0.0295872
0.220325 0.013962 0.0328527
0.278859 0.0118257 0.0346075
0.348882 0.00958267 0.0393835
0.421363 0.00975052 0.0553902
0.492042 0.0116884 0.0788128
0.55346 0.0158541 0.0936904
0.620539 0.0237583 0.125048
0.687587 0.035996 0.165103
0.758099 0.0598001 0.216114
0.820951 0.0915999 0.274907
0.871077 0.129885 0.336126
0.889204 0.169711 0.39649
0.90544 0.219928 0.459968
0.919829 0.277653 0.525856
0.937072 0.35407 0.593866
0.94699 0.430442 0.656962
0.953002 0.50605 0.717433
0.954376 0.578943 0.775464
0.956847 0.647593 0.826123
0.963973 0.712139 0.869841
0.970047 0.773907 0.904036
0.975464 0.830457 0.92987
0.00578317 0.0313726 0.0361028
0.00608835 0.029572 0.035111
0.00581369 0.0282597 0.0345617
0.00505074 0.0276188 0.0343633
0.0142367 0.0302129 0.0343938
0.0187686 0.0319524 0.0349584
0.0266575 0.0324559 0.0347906
0.0486 0.0309606 0.0343633
0.0782788 0.0267948 0.0306096
0.115557 0.0192721 0.0249638
0.160845 0.0128634 0.0222171
0.21297 0.00862135 0.0222934
0.274632 0.00839246 0.026627
0.340124 0.00662242 0.029633
0.410147 0.00642405 0.0388647
0.484581 0.0108797 0.065507
0.55555 0.0158541 0.0951553
0.61593 0.0227512 0.114351
0.685802 0.0374762 0.156344
0.757351 0.0613107 0.208057
0.821256 0.093019 0.267704
0.871809 0.131014 0.3308
0.889952 0.17052 0.391943
0.906203 0.220539 0.456626
0.920455 0.278279 0.523079
0.937652 0.354467 0.591745
0.947372 0.430625 0.655222
0.953185 0.506111 0.716213
0.954421 0.578927 0.774639
0.956832 0.647578 0.82562
0.963897 0.712093 0.86949
0.969924 0.773846 0.903975
0.975341 0.830457 0.929854
0.00567636 0.0411078 0.0398108
0.00727855 0.0391852 0.0359197
0.0125124 0.0368505 0.0349737
0.014725 0.0356603 0.0351568
0.0179294 0.036347 0.036347
0.0222477 0.0375677 0.0343633
0.0314641 0.0378882 0.035874
0.0496376 0.0364996 0.0357214
0.0750286 0.0327306 0.0328374
0.106828 0.025803 0.0278325
0.151553 0.0157778 0.0209049
0.204196 0.00813306 0.0174716
0.264591 0.00328069 0.0159915
0.334203 0.00248722 0.0215152
0.40589 0.00299077 0.0297856
0.473091 0.0068513 0.046952
0.548745 0.0146944 0.0817121
0.619028 0.0229953 0.119005
0.683711 0.0387884 0.147433
0.75668 0.0630198 0.200153
0.821164 0.0944076 0.260517
0.872328 0.132067 0.325353
0.890532 0.171313 0.386923
0.906859 0.221195 0.452934
0.921157 0.278889 0.519997
0.938201 0.35491 0.589654
0.947707 0.430854 0.653376
0.953323 0.506065 0.715114
0.954498 0.578927 0.773693
0.956802 0.647562 0.825116
0.963821 0.712047 0.869139
0.969802 0.773785 0.903914
0.975204 0.830457 0.929854
0.00384527 0.0575418 0.0397498
0.00537118 0.0540475 0.0338903
0.0113375 0.0498207 0.0330968
0.0147707 0.0472725 0.0334478
0.0197757 0.0485542 0.0352483
0.0258335 0.049012 0.0365454
0.0370184 0.0508736 0.0334783
0.0596323 0.0475471 0.0366827
0.0839399 0.0428931 0.0354314
0.115114 0.0367437 0.0308995
0.154818 0.0263981 0.0237278
0.202106 0.0113375 0.0135805
0.255833 0.00386053 0.0116121
0.32604 0.00047303 0.0113985
0.399512 0 0.0206302
0.468925 0.00270085 0.0365454
0.539666 0.014313 0.0675822
0.61387 0.0219272 0.106325
0.681193 0.0395056 0.139513
0.75552 0.0645457 0.191791
0.821118 0.0958877 0.25333
0.872831 0.133196 0.318807
0.891112 0.172107 0.381964
0.9075 0.221836 0.448814
0.921782 0.279515 0.517006
0.938659 0.355337 0.587289
0.94789 0.431006 0.652064
0.953521 0.506081 0.713787
0.954574 0.578943 0.7729
0.956786 0.647547 0.824506
0.963729 0.712001 0.868818
0.969665 0.773724 0.903868
0.975006 0.830457 0.929854
0 0.0814832 0.0348669
0.00123598 0.0782025 0.0301518
0.00715648 0.0738384 0.0268406
0.0125582 0.0694285 0.0270542
0.0186007 0.0708171 0.0285649
0.0281071 0.0716259 0.031281
0.0455482 0.070573 0.0341955
0.0656748 0.0715496 0.0357214
0.0922713 0.0665141 0.0373083
0.131395 0.0523842 0.0341497
0.167132 0.045304 0.0288243
0.213352 0.0321508 0.0195773
0.262165 0.0139162 0.00851453
0.318822 0.000457771 0.00321965
0.390661 0 0.0056611
0.461631 0 0.0243076
0.533028 0.0071107 0.0501259
0.607019 0.0217594 0.0916457
0.680507 0.0345769 0.138354
0.753964 0.0656443 0.181369
0.820844 0.0973373 0.242786
0.873411 0.134371 0.310521
0.89218 0.17322 0.375967
0.908202 0.222538 0.444144
0.922545 0.280171 0.513405
0.939071 0.355718 0.584741
0.948226 0.431159 0.65005
0.953796 0.506172 0.712032
0.954681 0.578958 0.77171
0.956893 0.647547 0.823651
0.963851 0.711971 0.86836
0.969757 0.773648 0.903609
0.975235 0.830442 0.929564
0 0.110216 0.0289921
0 0.107347 0.0248875
0.000656138 0.103639 0.0178683
0.00839246 0.098909 0.0165255
0.0162661 0.100145 0.0194247
0.0250401 0.101381 0.0217899
0.0475319 0.10045 0.0268406
0.0754253 0.0974899 0.0350347
0.0997177 0.0983291 0.0362707
0.131395 0.092958 0.0369879
0.188586 0.0666819 0.0343328
0.231098 0.055024 0.0257877
0.278828 0.0410925 0.0169375
0.33283 0.0211337 0.00408942
0.388846 0 0
0.451133 0 0
0.52166 0 0.0284733
0.596963 0.0169223 0.0698863
0.673976 0.0368963 0.119493
0.751965 0.0588846 0.17966
0.820005 0.0989395 0.229252
0.874311 0.135882 0.298314
0.894209 0.174899 0.366857
0.90956 0.223484 0.437018
0.923919 0.281453 0.5084
0.939864 0.35639 0.58053
0.948806 0.431525 0.646998
0.954147 0.506294 0.709895
0.954849 0.578988 0.769924
0.956909 0.647532 0.822568
0.96379 0.711925 0.867796
0.96965 0.773602 0.903365
0.975067 0.830427 0.929473
0 0.144472 0.0229801
0 0.141741 0.0185855
0 0.138338 0.0081178
0.00140383 0.135302 0.00602731
0.0102235 0.133883 0.00637827
0.0205692 0.135454 0.00970474
0.0380102 0.136919 0.0140383
0.0747692 0.133654 0.0244297
0.110002 0.128771 0.0362097
0.141085 0.129274 0.0356909
0.179721 0.12282 0.0361639
0.25034 0.0894484 0.0358587
0.305852 0.0687877 0.0271458
0.350622 0.0513924 0.0155795
0.406577 0.025391 0
0.454017 0 0
0.509957 0 0
0.57995 0.00370794 0.034699
0.663157 0.0329442 0.0936294
0.746227 0.0620279 0.15491
0.816617 0.0901961 0.22707
0.87422 0.137789 0.281178
0.896071 0.177356 0.353658
0.911467 0.225162 0.427146
0.925628 0.283085 0.501381
0.940764 0.357321 0.574914
0.949523 0.432074 0.643
0.95465 0.506477 0.707088
0.955016 0.579034 0.767788
0.95697 0.647547 0.821088
0.96376 0.711849 0.867002
0.969558 0.773526 0.902907
0.974914 0.830411 0.92932
0 0.185504 0.0184176
0 0.183368 0.0126802
0 0.179812 0.00373846
0 0.178683 0
0.000579843 0.176196 0
0.0110628 0.176379 0
0.0280613 0.178851 0
0.0561379 0.179721 0.00515755
0.106676 0.173526 0.0219272
0.152728 0.167452 0.0369421
0.190967 0.167407 0.0348058
0.234791 0.160128 0.0346532
0.311757 0.12546 0.0377356
0.381826 0.0922866 0.0302281
0.429633 0.0696269 0.0178073
0.477668 0.0415045 0.00483711
0.523033 0.0122377 0
0.567651 0 0
0.637873 0.0112306 0.0426795
0.733928 0.0564431 0.121324
0.81181 0.0940871 0.195773
0.870527 0.12813 0.280415
0.897581 0.180362 0.334585
0.913619 0.227787 0.412406
0.927337 0.285145 0.490059
0.941863 0.358404 0.567498
0.950408 0.432624 0.637873
0.95523 0.506737 0.702876
0.955276 0.579126 0.764797
0.957015 0.647517 0.819776
0.963745 0.711727 0.865934
0.969497 0.773449 0.902281
0.974746 0.830381 0.929061
0 0.232761 0.0177157
0 0.231113 0.0102083
0 0.227741 0
0 0.227512 0
0 0.226337 0
0 0.224537 0
0.0126192 0.225605 0
0.0404212 0.228656 0
0.0789349 0.22887 0
0.146502 0.219776 0.0209506
0.202716 0.21178 0.0369573
0.248157 0.211444 0.0339818
0.296056 0.204929 0.0353246
0.373892 0.17174 0.0396124
0.458854 0.127123 0.0361791
0.508949 0.104662 0.0287938
0.551583 0.0805524 0.0208896
0.592782 0.0432593 0.00869764
0.625315 0.00839246 0.0018616
0.699748 0.0233616 0.0552834
0.799695 0.0884413 0.152758
0.867048 0.132708 0.240421
0.892821 0.168429 0.3337
0.915541 0.230961 0.391165
0.930175 0.288533 0.474907
0.943648 0.360128 0.556832
0.951461 0.433585 0.630304
0.955795 0.507042 0.697719
0.955566 0.579141 0.761196
0.957137 0.647486 0.81738
0.963775 0.711696 0.864332
0.969436 0.773373 0.901442
0.974578 0.830365 0.928695
0 0.28719 0.0211643
0 0.286549 0.0144503
0 0.283711 0
0 0.282689 0
0 0.283558 0
0 0.281804 0
0 0.280339 0
0.0194247 0.282841 0
0.0560006 0.286534 0
0.107179 0.284977 0
0.194369 0.272923 0.0222629
0.260731 0.263478 0.0381323
0.313527 0.262654 0.033875
0.3626 0.256474 0.0371252
0.440848 0.226856 0.0419928
0.530663 0.17789 0.0484474
0.586175 0.155917 0.047715
0.626184 0.134997 0.0439002
0.667628 0.0959335 0.0363012
0.695277 0.0376593 0.0204318
0.75967 0.0438087 0.072755
0.857466 0.130388 0.187274
0.892989 0.174151 0.285588
0.910674 0.217014 0.390524
0.932601 0.292836 0.452232
0.946212 0.362921 0.541146
0.953002 0.434821 0.619669
0.956664 0.507515 0.690364
0.955932 0.579293 0.75581
0.957259 0.647532 0.813977
0.963821 0.71162 0.862364
0.969421 0.773266 0.900343
0.974441 0.83032 0.928237
0 0.348196 0.0267491
0 0.348272 0.0213626
0 0.346441 0.00856031
0 0.345174 0
0 0.347066 0
0 0.346914 0
0 0.34403 0
0 0.343236 0
0.0313878 0.347189 0
0.0770581 0.350332 0
0.145037 0.347463 0
0.250294 0.332235 0.0252995
0.327092 0.321935 0.0411536
0.384665 0.321294 0.0359197
0.435264 0.316686 0.0383764
0.508141 0.293919 0.048661
0.599145 0.248219 0.0630961
0.66009 0.220447 0.0692302
0.699626 0.200031 0.0695201
0.744579 0.159869 0.0662242
0.770169 0.0947127 0.0484474
0.814313 0.0787823 0.0931258
0.890303 0.176501 0.218326
0.912215 0.222782 0.335714
0.927474 0.274708 0.450874
0.948775 0.366613 0.517464
0.955383 0.436545 0.604044
0.95819 0.508141 0.679973
0.956603 0.579339 0.748821
0.957458 0.647532 0.809873
0.963867 0.711559 0.859831
0.969421 0.773159 0.899123
0.974334 0.830259 0.927596
0 0.41294 0.0344854
0 0.413352 0.0300298
0 0.411719 0.0220951
0 0.411093 0.00999466
0 0.410697 0
0 0.412573 0
0 0.413184 0
0 0.410269 0
0.00822461 0.409873 0
0.0512551 0.414069 0
0.107713 0.416297 0
0.193988 0.411917 0
0.316838 0.393622 0.0331426
0.397147 0.383154 0.0481727
0.458076 0.383276 0.040116
0.509194 0.380316 0.0441749
0.576791 0.36492 0.0598306
0.665675 0.328145 0.081651
0.729473 0.296086 0.0934157
0.773526 0.274998 0.0968338
0.819059 0.233753 0.0969558
0.842222 0.170382 0.0866407
0.862928 0.129992 0.113481
0.910567 0.22739 0.250736
0.929793 0.281788 0.390341
0.944915 0.349325 0.514382
0.957839 0.438895 0.580484
0.96051 0.509071 0.664866
0.958053 0.579446 0.73843
0.957961 0.647486 0.803677
0.96408 0.71136 0.856123
0.969497 0.772946 0.897093
0.974212 0.830137 0.926863
0 0.480873 0.050721
0 0.481666 0.0462806
0 0.480964 0.0410773
0 0.480705 0.03093
0 0.48043 0.0199435
0 0.480339 0.00886549
0 0.481682 0.00357061
0 0.48307 0
0 0.481117 0
0.0247501 0.4804 0
0.0819562 0.484245 0
0.153628 0.485847 0
0.257786 0.478096 0.00535592
0.389273 0.458122 0.0475013
0.470192 0.447837 0.0625925
0.532296 0.448737 0.0525521
0.583795 0.448081 0.0602884
0.645502 0.437675 0.0813764
0.730861 0.405341 0.109392
0.797131 0.376043 0.125124
0.840574 0.354055 0.129137
0.884352 0.315679 0.133837
0.904799 0.256504 0.128557
0.90042 0.209186 0.148531
0.929335 0.294209 0.296483
0.946868 0.354803 0.452781
0.959228 0.439857 0.547677
0.962951 0.510262 0.641901
0.960235 0.579644 0.723583
0.958907 0.647425 0.79498
0.964431 0.711192 0.850889
0.969665 0.772747 0.894133
0.974212 0.830014 0.925307
0 0.551995 0.076051
0 0.552956 0.0718395
0 0.553216 0.0680247
0 0.553216 0.0603952
0 0.552911 0.0504158
0 0.552941 0.0404364
0 0.553063 0.0282444
0 0.554818 0.0202335
0.00411994 0.55642 0.00784314
0.0143282 0.553765 0
0.0531624 0.553292 0
0.129183 0.556756 0
0.218387 0.555459 0
0.337789 0.543832 0.0294194
0.463142 0.523186 0.0690929
0.542733 0.512932 0.0841382
0.605432 0.515221 0.0743877
0.656504 0.515358 0.0830701
0.712764 0.508293 0.109453
0.795438 0.479622 0.139757
0.855299 0.454917 0.155215
0.895293 0.43154 0.160174
0.932937 0.394461 0.165621
0.937362 0.340414 0.160479
0.928923 0.287709 0.188663
0.944213 0.370092 0.355932
0.957321 0.425284 0.51693
0.964401 0.510109 0.609277
0.962921 0.57995 0.701305
0.960571 0.647257 0.781155
0.965072 0.710887 0.843366
0.969924 0.772381 0.890333
0.974273 0.829847 0.923201
0 0.625849 0.114397
0 0.62678 0.109712
0 0.627588 0.107347
0 0.627924 0.102327
0.000549325 0.62797 0.093904
0.00442512 0.627848 0.0844434
0.00866712 0.627665 0.0724041
0.0145571 0.627466 0.0556954
0.0191806 0.628794 0.0445106
0.0247349 0.63035 0.0307317
0.0390936 0.628351 0
0.100801 0.628199 0
0.197528 0.628199 0
0.300374 0.623468 0.0231785
0.42182 0.608225 0.0624247
0.537713 0.588388 0.0980697
0.613413 0.577859 0.112963
0.675898 0.580728 0.104265
0.727581 0.581186 0.113863
0.780179 0.574365 0.143359
0.852308 0.551354 0.174838
0.902174 0.530999 0.188678
0.934142 0.511345 0.190875
0.957382 0.470939 0.193698
0.952697 0.416693 0.186328
0.946944 0.36347 0.22678
0.955489 0.437995 0.418921
0.963455 0.495354 0.579461
0.965209 0.57847 0.67013
0.963134 0.647028 0.76022
0.966033 0.710506 0.832273
0.970443 0.772 0.883909
0.974502 0.829587 0.920287
0.0056611 0.698161 0.159792
0.00746166 0.699229 0.154803
0.00849927 0.700282 0.152682
0.0102541 0.700664 0.150225
0.0129091 0.700984 0.144945
0.0164645 0.700999 0.137606
0.0212711 0.700969 0.126787
0.027985 0.700816 0.111147
0.0365759 0.700572 0.089189
0.043595 0.70132 0.0734875
0.0518654 0.702861 0.0563058
0.0792096 0.700221 0.0104219
0.169177 0.700191 0.013489
0.283268 0.69662 0.0338293
0.392126 0.688365 0.0622568
0.504936 0.671397 0.101305
0.609262 0.653132 0.133501
0.680949 0.642023 0.150317
0.742931 0.644678 0.14789
0.796323 0.64509 0.157366
0.84477 0.638239 0.186389
0.901076 0.620356 0.217304
0.938567 0.604379 0.228794
0.95935 0.588266 0.226856
0.959396 0.553292 0.221683
0.959472 0.496178 0.214633
0.958358 0.438331 0.26598
0.961578 0.504692 0.480537
0.966155 0.563241 0.640711
0.965377 0.644587 0.730419
0.967727 0.709697 0.815183
0.971115 0.77142 0.87509
0.974823 0.829313 0.916411
0.0228885 0.768383 0.209079
0.0245212 0.769406 0.203998
0.0254673 0.770535 0.201556
0.0269017 0.771099 0.19968
0.0290379 0.771389 0.196582
0.031754 0.771618 0.192096
0.036286 0.771725 0.184085
0.043595 0.771557 0.170748
0.0535134 0.771084 0.151308
0.0657359 0.770214 0.123995
0.0756542 0.770581 0.102464
0.0861067 0.771496 0.0797894
0.135103 0.768902 0.0379187
0.256733 0.768277 0.0522469
0.380026 0.760784 0.0769665
0.481163 0.751019 0.10808
0.582559 0.734447 0.145632
0.677073 0.717617 0.176898
0.745617 0.705577 0.197421
0.807065 0.707271 0.200778
0.862211 0.706218 0.211704
0.902815 0.699687 0.237675
0.941756 0.685084 0.266621
0.966003 0.672236 0.274723
0.96437 0.658717 0.264454
0.962493 0.627192 0.258412
0.961532 0.576318 0.248875
0.964858 0.509636 0.307729
0.966613 0.570123 0.544427
0.965362 0.62948 0.701244
0.97052 0.707088 0.789151
0.972381 0.769955 0.861738
0.975525 0.828916 0.910018
0.0448463 0.836652 0.259098
0.0461585 0.837537 0.253895
0.046952 0.838315 0.250385
0.0478065 0.839368 0.248112
0.0493324 0.839506 0.246036
0.0514382 0.839567 0.243473
0.0548562 0.839673 0.238544
0.0613107 0.839597 0.22884
0.0711376 0.83917 0.21236
0.0840925 0.838376 0.188266
0.0998856 0.837278 0.154757
0.112535 0.837018 0.126085
0.125002 0.837125 0.0968643
0.219684 0.838239 0.0804456
0.356832 0.833906 0.100801
0.47248 0.824689 0.128985
0.563684 0.814542 0.161837
0.653834 0.800229 0.197772
0.740978 0.783459 0.229007
0.807614 0.769726 0.250553
0.869566 0.769558 0.258381
0.921965 0.765408 0.271153
0.954147 0.75874 0.293507
0.978393 0.744198 0.320027
0.9776 0.732967 0.321416
0.974014 0.721996 0.309957
0.969604 0.693355 0.30222
0.965698 0.646815 0.290929
0.968322 0.586358 0.363348
0.967865 0.634272 0.608865
0.969802 0.69221 0.760952
0.970993 0.757092 0.858915
0.976593 0.827604 0.899565
0.0729839 0.896834 0.306035
0.0735943 0.89749 0.300847
0.0740368 0.898116 0.296849
0.0746624 0.898726 0.294026
0.0748302 0.899397 0.291783
0.076463 0.899596 0.290379
0.0791028 0.899748 0.28809
0.0843977 0.899794 0.282628
0.0924392 0.899779 0.271534
0.105028 0.89929 0.251499
0.121569 0.898329 0.221866
0.141009 0.896849 0.1794
0.157473 0.896254 0.143542
0.188968 0.900679 0.123873
0.324575 0.900786 0.137713
0.45417 0.893248 0.161471
0.557153 0.883528 0.191485
0.636698 0.873701 0.222614
0.717906 0.859815 0.255619
0.8009 0.843091 0.28571
0.865019 0.827619 0.317159
0.919631 0.825681 0.336355
0.967727 0.818524 0.348348
0.994507 0.809796 0.368215
0.99646 0.796048 0.39089
0.995468 0.785565 0.384909
0.994598 0.775769 0.362295
0.98439 0.750835 0.352148
0.972808 0.710323 0.339055
0.972137 0.653208 0.426963
0.970428 0.695964 0.671733
0.975723 0.751766 0.816327
0.97499 0.815259 0.897581
0.110689 0.946242 0.349355
0.111192 0.946807 0.34519
0.111635 0.947433 0.340963
0.1122 0.947967 0.337652
0.112184 0.948486 0.335515
0.112444 0.948943 0.333654
0.114153 0.949157 0.332021
0.117998 0.949203 0.329366
0.124208 0.949111 0.323766
0.134203 0.948989 0.31162
0.149584 0.948455 0.288594
0.169039 0.947356 0.253666
0.199207 0.948257 0.208103
0.235721 0.952605 0.179934
0.294835 0.955749 0.187411
0.426352 0.952178 0.204425
0.54107 0.943633 0.22884
0.63183 0.933608 0.258595
0.702998 0.923751 0.28809
0.776761 0.909728 0.318975
0.855833 0.893004 0.362356
0.911772 0.879637 0.403281
0.956466 0.875257 0.421897
0.996277 0.869703 0.429969
0.999969 0.854902 0.446403
0.999313 0.842374 0.46305
0.99884 0.833463 0.456855
0.99855 0.824125 0.435996
0.996857 0.802167 0.422644
0.989136 0.766064 0.405127
0.977996 0.712612 0.494682
0.977142 0.754253 0.730922
0.978943 0.810208 0.862638
0.154177 0.985229 0.386587
0.154437 0.985779 0.382712
0.154498 0.986313 0.379019
0.154971 0.986786 0.375677
0.154955 0.987167 0.373358
0.155322 0.987503 0.371359
0.155856 0.987869 0.3691
0.158068 0.987945 0.366934
0.162615 0.987671 0.363806
0.169604 0.98735 0.357244
0.180987 0.987045 0.343923
0.198505 0.986526 0.318013
0.236942 0.990707 0.291691
0.283101 0.994095 0.251972
0.357961 0.99527 0.263874
0.417594 0.99585 0.285389
0.5234 0.991714 0.299901
0.620035 0.983154 0.322866
0.699489 0.972793 0.35172
0.763272 0.962448 0.380896
0.832059 0.947295 0.412207
0.900557 0.931319 0.44802
0.948241 0.921065 0.483024
0.981064 0.914427 0.499794
0.999969 0.908186 0.507012
0.999969 0.89691 0.5196
0.999969 0.881498 0.533257
0.999924 0.874525 0.526726
0.999847 0.866606 0.507683
0.999023 0.847532 0.494347
0.997009 0.816434 0.476341
0.981659 0.771176 0.562051
0.981903 0.810956 0.789654
0.200534 0.999969 0.418189
0.200824 0.999969 0.41503
0.200809 0.999969 0.411795
0.200992 0.999969 0.409369
0.201236 0.999969 0.40676
0.201816 0.999969 0.404456
0.202655 0.999969 0.401968
0.203769 0.999969 0.399695
0.205737 0.999969 0.397375
0.211398 0.999969 0.394507
0.2271 0.999969 0.391791
0.251225 0.999969 0.384466
0.284611 0.999969 0.366201
0.346654 0.999969 0.356039
0.420401 0.999969 0.355001
0.480079 0.999969 0.368093
0.526589 0.999969 0.388037
0.611963 0.999969 0.40235
0.693446 0.999939 0.421942
0.763622 0.995911 0.447669
0.821408 0.98497 0.472847
0.881544 0.970748 0.497704
0.934707 0.957916 0.525429
0.974151 0.951675 0.554925
0.994278 0.942046 0.57026
0.999969 0.937804 0.578714
0.999969 0.929488 0.587945
0.999969 0.917983 0.600244
0.999969 0.911589 0.593332
0.999969 0.904707 0.575662
0.999908 0.885924 0.563928
0.998734 0.860243 0.545785
0.986847 0.823377 0.628046
0.272419 0.999969 0.458473
0.273426 0.999969 0.45655
0.27393 0.999969 0.454536
0.274739 0.999969 0.452323
0.27541 0.999969 0.450248
0.276295 0.999969 0.448341
0.277409 0.999969 0.446418
0.278813 0.999969 0.444068
0.280079 0.999969 0.441169
0.283696 0.999969 0.439246
0.293523 0.999969 0.438682
0.319097 0.999969 0.441718
0.359838 0.999969 0.44477
0.410727 0.999969 0.443885
0.467445 0.999969 0.442802
0.52723 0.999969 0.446204
0.57641 0.999969 0.4598
0.61445 0.999969 0.47776
0.686534 0.999969 0.49099
0.758419 0.999969 0.509117
0.822477 0.998657 0.532433
0.87335 0.992126 0.554009
0.918105 0.982544 0.572519
0.956466 0.974289 0.595575
0.991684 0.971557 0.621683
0.999161 0.962005 0.63621
0.999969 0.95819 0.644785
0.999969 0.952682 0.654337
0.999969 0.944549 0.665675
0.999969 0.940337 0.657755
0.999969 0.93521 0.642084
0.999969 0.92108 0.629725
0.99971 0.896529 0.615198
0.400473 0.999969 0.525689
0.401907 0.999969 0.524453
0.403189 0.999969 0.523247
0.404303 0.999969 0.522408
0.40528 0.999969 0.521538
0.406348 0.999969 0.520424
0.407736 0.999969 0.519066
0.409506 0.999969 0.517189
0.411124 0.999969 0.514946
0.412329 0.999969 0.512779
0.416526 0.999969 0.511879
0.43267 0.999969 0.51725
0.454566 0.999969 0.521492
0.483635 0.999969 0.52433
0.521813 0.999969 0.523949
0.56553 0.999969 0.523888
0.614923 0.999969 0.528527
0.656062 0.999969 0.540856
0.687495 0.999969 0.556588
0.749691 0.999969 0.567742
0.815137 0.999878 0.584466
0.869688 0.995407 0.604227
0.907988 0.98909 0.62031
0.942229 0.984329 0.635996
0.972381 0.981338 0.659373
0.998062 0.979278 0.684443
0.999969 0.973678 0.699275
0.999969 0.971496 0.707301
0.999969 0.967926 0.715999
0.999969 0.962554 0.727199
0.999969 0.95996 0.718685
0.999969 0.956313 0.704433
0.999969 0.946777 0.69247
0.520363 0.999969 0.599573
0.520882 0.999969 0.598825
0.521172 0.999969 0.59823
0.521706 0.999969 0.597391
0.522194 0.999969 0.596567
0.522805 0.999969 0.595773
0.523491 0.999969 0.594949
0.52459 0.999969 0.59353
0.525612 0.999969 0.592004
0.52694 0.999969 0.590127
0.527871 0.999969 0.587884
0.530739 0.999969 0.586557
0.542458 0.999969 0.591073
0.558663 0.999969 0.594827
0.580774 0.999969 0.597284
0.611383 0.999969 0.597177
0.647822 0.999969 0.598184
0.689632 0.999969 0.602716
0.725048 0.999969 0.613443
0.752148 0.999969 0.627894
0.808881 0.999969 0.638911
0.864134 0.997604 0.654383
0.905928 0.991501 0.670024
0.933867 0.987442 0.681895
0.959762 0.984268 0.695048
0.992142 0.987335 0.7149
0.999405 0.982467 0.742077
0.999969 0.980926 0.758114
0.999969 0.980163 0.766995
0.999969 0.977646 0.776593
0.999969 0.974319 0.78613
0.999969 0.973098 0.776944
0.999969 0.970581 0.764752
0.612238 0.999969 0.666529
0.61268 0.999969 0.665934
0.613138 0.999969 0.66537
0.613642 0.999969 0.664881
0.61416 0.999969 0.664317
0.614633 0.999969 0.663706
0.615213 0.999969 0.66302
0.615854 0.999969 0.662303
0.616724 0.999969 0.661158
