kpg/editing/james luts/utopia lut.cube
TITLE "Generated by Resolve"
LUT_3D_SIZE 9
0.00488289 0.0275425 0.0343633
0.016846 0.0272526 0.0357519
0.0996567 0.0225223 0.0411994
0.290913 0.0129549 0.0451972
0.562676 0.016968 0.115434
0.820203 0.0892653 0.287587
0.918639 0.276585 0.531304
0.954314 0.579049 0.776883
0.975662 0.830472 0.929976
0.00567636 0.0411078 0.0398108
0.0179294 0.036347 0.036347
0.0750286 0.0327306 0.0328374
0.264591 0.00328069 0.0159915
0.548745 0.0146944 0.0817121
0.821164 0.0944076 0.260517
0.921157 0.278889 0.519997
0.954498 0.578927 0.773693
0.975204 0.830457 0.929854
0 0.144472 0.0229801
0.0102235 0.133883 0.00637827
0.110002 0.128771 0.0362097
0.305852 0.0687877 0.0271458
0.509957 0 0
0.816617 0.0901961 0.22707
0.925628 0.283085 0.501381
0.955016 0.579034 0.767788
0.974914 0.830411 0.92932
0 0.348196 0.0267491
0 0.347066 0
0.0313878 0.347189 0
0.327092 0.321935 0.0411536
0.599145 0.248219 0.0630961
0.770169 0.0947127 0.0484474
0.927474 0.274708 0.450874
0.956603 0.579339 0.748821
0.974334 0.830259 0.927596
0 0.625849 0.114397
0.000549325 0.62797 0.093904
0.0191806 0.628794 0.0445106
0.197528 0.628199 0
0.613413 0.577859 0.112963
0.852308 0.551354 0.174838
0.952697 0.416693 0.186328
0.965209 0.57847 0.67013
0.974502 0.829587 0.920287
0.0729839 0.896834 0.306035
0.0748302 0.899397 0.291783
0.0924392 0.899779 0.271534
0.157473 0.896254 0.143542
0.557153 0.883528 0.191485
0.865019 0.827619 0.317159
0.99646 0.796048 0.39089
0.972808 0.710323 0.339055
0.97499 0.815259 0.897581
0.272419 0.999969 0.458473
0.27541 0.999969 0.450248
0.280079 0.999969 0.441169
0.359838 0.999969 0.44477
0.57641 0.999969 0.4598
0.822477 0.998657 0.532433
0.991684 0.971557 0.621683
0.999969 0.944549 0.665675
0.99971 0.896529 0.615198
0.68835 0.999969 0.730068
0.689387 0.999969 0.728786
0.691722 0.999969 0.725948
0.695048 0.999969 0.719753
0.731746 0.999969 0.72845
0.845045 0.999405 0.745159
0.953292 0.988113 0.787778
0.999542 0.985199 0.84268
0.999237 0.986694 0.88072
0.900206 0.995331 0.912764
0.900465 0.995331 0.912505
0.902007 0.995163 0.911635
0.903838 0.995056 0.910262
0.905272 0.995148 0.907286
0.920958 0.994476 0.911238
0.962463 0.991653 0.922042
0.988418 0.990204 0.936309
0.995102 0.990051 0.955657
0.0012665 0.0286717 0.0434119
0.0146334 0.0277867 0.0450446
0.105119 0.0243381 0.0717632
0.311849 0.0156252 0.0937972
0.573129 0.0199283 0.159457
0.823865 0.0842451 0.312673
0.917266 0.274983 0.542748
0.951812 0.579477 0.781506
0.973114 0.83064 0.93228
0.00408942 0.0402533 0.0483406
0.014786 0.0364843 0.0441749
0.103212 0.0269627 0.0438392
0.288746 0.0136263 0.0456703
0.561822 0.0171664 0.115236
0.826719 0.0894484 0.288975
0.919844 0.277195 0.532311
0.952087 0.579477 0.777722
0.97258 0.830625 0.932235
0 0.141726 0.0712444
0 0.139788 0.024567
0.108827 0.128084 0.0366979
0.313771 0.0675822 0.040177
0.533135 0.00709545 0.0471504
0.824277 0.0983902 0.24184
0.923644 0.281483 0.514046
0.953979 0.579446 0.771939
0.973999 0.830564 0.930449
0 0.345693 0.0692607
0 0.346746 0.0269474
0 0.344625 0
0.326299 0.321599 0.0417945
0.600122 0.244266 0.0819562
0.784772 0.0916915 0.078645
0.933913 0.296056 0.43827
0.956161 0.579889 0.75288
0.974319 0.830365 0.928008
0 0.621653 0.14612
0 0.62533 0.114519
0.0110475 0.627268 0.0696727
0.164706 0.629099 0
0.612894 0.5776 0.113756
0.856443 0.547814 0.192355
0.953948 0.413123 0.208606
0.964858 0.579385 0.676234
0.974426 0.829694 0.920851
0.0654765 0.894987 0.328267
0.0714275 0.897398 0.30486
0.082063 0.899397 0.28864
0.153201 0.895613 0.155398
0.547631 0.884794 0.1906
0.86482 0.827497 0.319646
0.996094 0.794949 0.405631
0.972946 0.707103 0.35552
0.978286 0.82417 0.884367
0.268849 0.999969 0.468254
0.27332 0.999969 0.459098
0.281376 0.999969 0.447562
0.344686 0.999969 0.446815
0.574517 0.999969 0.460121
0.820813 0.998825 0.533455
0.991745 0.971511 0.621897
0.999969 0.944198 0.669093
0.999573 0.895613 0.621897
0.688029 0.999969 0.732265
0.689326 0.999969 0.730907
0.691539 0.999969 0.728481
0.695705 0.999969 0.721492
0.729809 0.999969 0.728939
0.844648 0.99942 0.74519
0.953185 0.988128 0.788205
0.999542 0.985199 0.842771
0.999237 0.986725 0.881559
0.900175 0.995315 0.913069
0.901167 0.995224 0.91249
0.902113 0.995148 0.911894
0.903868 0.995041 0.910536
0.905348 0.995148 0.907591
0.920714 0.994492 0.911299
0.962417 0.991653 0.922057
0.988449 0.990204 0.936355
0.995132 0.990036 0.955642
0 0.0314336 0.112703
0.0205081 0.0286717 0.113725
0.0973526 0.0245518 0.121828
0.3037 0.0184329 0.163241
0.576211 0.0250248 0.224277
0.817624 0.0782025 0.344305
0.91429 0.273594 0.558206
0.951522 0.579965 0.786572
0.973175 0.830869 0.932799
0 0.0462196 0.084062
0 0.0319524 0.120668
0.098024 0.024979 0.12166
0.305364 0.0172732 0.125414
0.574289 0.0215457 0.185473
0.823133 0.0843977 0.326192
0.916533 0.275502 0.548791
0.951705 0.579995 0.78323
0.97258 0.830808 0.932906
0 0.128878 0.127016
0 0.126207 0.123964
0.0926986 0.122896 0.130587
0.344961 0.0714275 0.109789
0.558785 0.0167239 0.111864
0.826307 0.0933089 0.28925
0.920165 0.279698 0.531975
0.953628 0.580056 0.77705
0.973983 0.830762 0.931182
0 0.33814 0.13257
0 0.340063 0.101961
0 0.340871 0.0319982
0.324437 0.324498 0.0727703
0.603418 0.234043 0.110994
0.824964 0.129213 0.158816
0.93257 0.294484 0.465354
0.955383 0.580392 0.759258
0.974304 0.830564 0.928634
0 0.61677 0.196033
0 0.618799 0.167056
0 0.625116 0.114809
0.0991989 0.62945 0
0.611261 0.576165 0.113466
0.859159 0.544305 0.215564
0.954391 0.40856 0.247761
0.964187 0.580575 0.685069
0.974319 0.829862 0.921736
0.0552224 0.891539 0.359899
0.06009 0.89427 0.33904
0.0748608 0.897215 0.305104
0.137942 0.896666 0.201846
0.531228 0.887068 0.188754
0.864393 0.8271 0.320867
0.99559 0.793439 0.426688
0.973938 0.703609 0.388907
0.978286 0.825284 0.884993
0.261479 0.999969 0.484184
0.266499 0.999969 0.475242
0.278859 0.999969 0.460914
0.321538 0.999969 0.448402
0.568551 0.999969 0.461158
0.818128 0.999054 0.535073
0.991836 0.97145 0.62208
0.999969 0.943648 0.674769
0.999344 0.895003 0.6318
0.687144 0.999969 0.736507
0.68658 0.999969 0.735348
0.691051 0.999969 0.731777
0.696269 0.999969 0.724636
0.726787 0.999969 0.729656
0.843946 0.999451 0.745327
0.953048 0.988159 0.788678
0.999542 0.985199 0.842878
0.999222 0.98677 0.882856
0.90013 0.9953 0.913542
0.899657 0.995392 0.913664
0.902235 0.995117 0.912261
0.903853 0.99501 0.911025
0.905455 0.995132 0.908095
0.920272 0.994537 0.911406
0.962325 0.991669 0.922072
0.988479 0.990204 0.936431
0.995071 0.990066 0.955703
0 0.0348516 0.260792
0 0.032105 0.267674
0.0890364 0.0228885 0.280537
0.293065 0.0172122 0.290608
0.558022 0.0328527 0.362295
0.809873 0.0841535 0.434104
0.906645 0.268818 0.598947
0.950744 0.581155 0.800793
0.973297 0.831434 0.934829
0 0.0480049 0.245167
0 0.0353246 0.277531
0.0514382 0.0266728 0.295354
0.29073 0.0173648 0.287037
0.556329 0.0318303 0.349355
0.811414 0.0832837 0.419699
0.908278 0.27071 0.591211
0.95079 0.581094 0.798245
0.97261 0.831418 0.934905
0 0.132753 0.222644
0 0.118654 0.251804
0 0.083299 0.331258
0.306889 0.0262455 0.298497
0.558938 0.0303502 0.317388
0.810864 0.081239 0.391546
0.910719 0.274372 0.577981
0.952529 0.58114 0.792416
0.974014 0.831357 0.933104
0 0.305104 0.277485
0 0.305226 0.276478
0 0.304997 0.276081
0.303639 0.328954 0.329137
0.628107 0.240894 0.29218
0.845426 0.131823 0.305653
0.922774 0.286732 0.531746
0.953796 0.581735 0.776333
0.974289 0.831144 0.930983
0 0.597665 0.322637
0 0.59971 0.308019
0 0.605249 0.2795
0.0415656 0.61976 0.143481
0.597803 0.577676 0.242481
0.861265 0.530449 0.293034
0.95201 0.418006 0.362951
0.961517 0.58294 0.710857
0.974151 0.830472 0.924102
0.0355688 0.878584 0.438819
0.0368963 0.881559 0.425071
0.0454414 0.885512 0.40174
0.0878462 0.895842 0.3075
0.456764 0.896345 0.183291
0.862623 0.825818 0.324681
0.993042 0.790158 0.475135
0.976135 0.692332 0.474632
0.97792 0.826642 0.890013
0.242267 0.999969 0.527077
0.246174 0.999969 0.520302
0.259159 0.999969 0.508247
0.302449 0.999969 0.469245
0.53019 0.999969 0.469551
0.808728 0.999634 0.539513
0.991943 0.971222 0.622766
0.999969 0.942123 0.690364
0.998642 0.893217 0.660121
0.683894 0.999969 0.748852
0.682551 0.999969 0.748409
0.686244 0.999969 0.745022
0.695949 0.999969 0.735592
0.7178 0.999969 0.730877
0.840162 0.999588 0.746044
0.952316 0.988281 0.79057
0.999542 0.985214 0.843122
0.999191 0.986877 0.885893
0.89984 0.995239 0.915404
0.89929 0.995331 0.915511
0.899901 0.995315 0.914961
0.903731 0.994995 0.912367
0.905837 0.995071 0.909575
0.919005 0.994629 0.911681
0.961959 0.991699 0.922118
0.988556 0.990188 0.936629
0.995285 0.98999 0.955596
0 0.0427558 0.450553
0 0.0396735 0.462242
0.0518502 0.0326848 0.485725
0.26978 0.0183261 0.494316
0.539406 0.0392462 0.516854
0.790249 0.0888075 0.572686
0.871122 0.206577 0.664439
0.94931 0.584207 0.836027
0.973724 0.833097 0.940078
0 0.0486 0.470787
0 0.0445106 0.47985
0.00196841 0.0378271 0.502586
0.252903 0.0196231 0.500893
0.538872 0.0390936 0.515587
0.790326 0.0884413 0.568933
0.872023 0.207202 0.659983
0.949248 0.584192 0.833951
0.972824 0.833082 0.940459
0 0.0763561 0.468177
0 0.0644083 0.492424
0 0.0466316 0.517266
0.228992 0.0232548 0.530556
0.543404 0.0403601 0.518303
0.78674 0.0888228 0.560204
0.871717 0.208927 0.651347
0.950774 0.584146 0.829786
0.974227 0.833036 0.93872
0 0.290929 0.425971
0 0.287755 0.433463
0 0.285008 0.452552
0.130037 0.245655 0.577035
0.582605 0.138354 0.551324
0.790845 0.0917983 0.531334
0.877989 0.214435 0.628061
0.951507 0.584848 0.818219
0.974487 0.832898 0.936675
0 0.557687 0.51519
0 0.558328 0.516045
0 0.560433 0.517769
0 0.557214 0.513207
0.559304 0.57583 0.566293
0.882078 0.510842 0.544518
0.949401 0.384329 0.555917
0.954009 0.587091 0.77467
0.974182 0.832288 0.931197
0.0171511 0.848478 0.57966
0.0162814 0.850248 0.574807
0.0203403 0.852277 0.566262
0.0352941 0.858289 0.53431
0.408576 0.885527 0.470268
0.831647 0.826917 0.541894
0.982651 0.77821 0.56614
0.972122 0.678676 0.619883
0.976455 0.829572 0.903273
0.200595 0.999802 0.618021
0.203128 0.999969 0.614038
0.213123 0.999969 0.60798
0.246571 0.999969 0.585473
0.404044 0.999969 0.514
0.769665 0.999969 0.553079
0.991501 0.970672 0.625254
0.999969 0.938323 0.725383
0.996551 0.889632 0.726772
0.672328 0.999969 0.781353
0.671412 0.999969 0.781048
0.673838 0.999969 0.779355
0.684382 0.999969 0.771984
0.710491 0.999969 0.746654
0.81915 0.999924 0.750851
0.949767 0.988632 0.79556
0.999542 0.985229 0.843732
0.999146 0.98706 0.894026
0.898619 0.995056 0.920836
0.8981 0.995148 0.920958
0.89807 0.995209 0.920806
0.900572 0.995102 0.918929
0.905913 0.994934 0.914061
0.915236 0.994797 0.912154
0.960296 0.991867 0.922286
0.9888 0.990143 0.937102
0.995331 0.98999 0.955642
0 0.053193 0.617151
0 0.0514992 0.622827
0.0189212 0.0465248 0.647837
0.227695 0.0345464 0.666819
0.492164 0.031281 0.677272
0.769131 0.0988022 0.718532
0.816251 0.140627 0.755734
0.943252 0.551247 0.897337
0.974197 0.837797 0.9523
0 0.0584115 0.653346
0 0.0569009 0.656779
0 0.0525063 0.678309
0.212161 0.0380102 0.694392
0.489815 0.0316625 0.682551
0.769482 0.0985122 0.718547
0.816251 0.140307 0.754986
0.942779 0.550958 0.896742
0.973236 0.837751 0.952804
0 0.0828717 0.659937
0 0.0622263 0.670115
0 0.0589761 0.684092
0.158007 0.0424964 0.71017
0.495674 0.0340276 0.704082
0.766339 0.0995956 0.714992
0.811231 0.142016 0.748226
0.944167 0.550423 0.894484
0.97467 0.837736 0.951293
0 0.247547 0.623697
0 0.221118 0.638743
0 0.189227 0.659464
0 0.132662 0.731685
0.457404 0.0610056 0.726253
0.77116 0.104494 0.716182
0.811505 0.141543 0.74345
0.944793 0.548974 0.889143
0.974945 0.837598 0.950118
0 0.538933 0.666117
0 0.538445 0.670069
0 0.537514 0.675074
0 0.533623 0.690425
0.427909 0.536797 0.810101
0.855222 0.446372 0.794202
0.874617 0.250172 0.768856
0.944671 0.545357 0.870542
0.974411 0.837308 0.946777
0.011841 0.80116 0.750439
0.00982681 0.802152 0.751827
0.0124971 0.802945 0.752392
0.0230259 0.804944 0.753201
0.294163 0.808286 0.760876
0.785626 0.792172 0.778195
0.976684 0.750698 0.772412
0.961791 0.667063 0.789807
0.974701 0.835843 0.930266
0.156039 0.976913 0.762997
0.152789 0.977905 0.761669
0.155123 0.978271 0.758709
0.174075 0.980545 0.749981
0.270741 0.990677 0.727443
0.733776 0.993606 0.742443
0.963668 0.957061 0.787915
0.998627 0.928695 0.796414
0.988144 0.886183 0.84419
0.642924 0.998489 0.843153
0.641886 0.99855 0.843778
0.644465 0.998627 0.843046
0.653071 0.99884 0.840299
0.680064 0.999435 0.829206
0.751812 0.999969 0.778408
0.936538 0.990997 0.811261
0.99968 0.985168 0.845487
0.998718 0.985977 0.910719
0.894575 0.994568 0.933684
0.89366 0.994675 0.934157
0.893736 0.994705 0.934035
0.895125 0.99472 0.933013
0.900618 0.994598 0.929442
0.912032 0.994675 0.918639
0.953307 0.992798 0.923232
0.988281 0.990188 0.9393
0.995315 0.990005 0.955917
0 0.0667124 0.778103
0 0.066392 0.77969
0 0.0649119 0.790112
0.157244 0.0533303 0.816144
0.440696 0.0450752 0.805829
0.713954 0.0859846 0.798383
0.796536 0.13901 0.826047
0.925093 0.474983 0.941863
0.97081 0.820676 0.969833
0 0.0708324 0.7823
0 0.0706798 0.784192
0 0.068925 0.794171
0.121477 0.0563973 0.823667
0.453086 0.0470436 0.820218
0.714153 0.0862898 0.798901
0.796567 0.13904 0.826032
0.924407 0.474205 0.942199
0.970275 0.820661 0.970138
0 0.0862898 0.760433
0 0.0839857 0.759152
0 0.0723735 0.775921
0.0496529 0.0606699 0.8206
0.436027 0.0474708 0.827329
0.718929 0.0891127 0.801419
0.792706 0.140795 0.821149
0.924941 0.473198 0.940902
0.970962 0.820523 0.969467
0 0.183215 0.756313
0 0.180697 0.75935
0 0.154971 0.769329
0 0.0787518 0.76907
0.350668 0.0565805 0.831907
0.735744 0.10544 0.819745
0.791531 0.141497 0.819333
0.924834 0.470359 0.939712
0.971176 0.820127 0.968826
0 0.554925 0.758083
0 0.549844 0.759884
0 0.54583 0.762112
0 0.535821 0.772198
0.299336 0.503609 0.935012
0.7888 0.410727 0.941726
0.819669 0.174853 0.833814
0.922774 0.460914 0.93756
0.970565 0.818952 0.967819
0 0.762142 0.843366
0 0.762737 0.847242
0 0.761334 0.848295
0 0.759533 0.855482
0.207675 0.785428 0.914519
0.705135 0.778744 0.942275
0.961532 0.723217 0.93048
0.949859 0.618891 0.943252
0.970932 0.815824 0.962829
0.133303 0.948669 0.906416
0.128801 0.949813 0.908141
0.130404 0.949859 0.908202
0.138033 0.949722 0.90779
0.183001 0.953155 0.911269
0.671397 0.950011 0.925231
0.935943 0.935424 0.927825
0.989258 0.92108 0.927062
0.980377 0.884306 0.939315
0.599359 0.995804 0.923415
0.598825 0.99588 0.9243
0.601267 0.99588 0.924269
0.609903 0.995895 0.923796
0.634913 0.995804 0.92195
0.699458 0.995636 0.91339
0.921477 0.994293 0.917815
0.99411 0.988281 0.937102
0.997055 0.982574 0.940429
0.886778 0.993378 0.956771
0.884276 0.993667 0.958206
0.884321 0.993683 0.958282
0.88542 0.993683 0.9579
0.889662 0.993652 0.956313
0.901762 0.993667 0.951232
0.92845 0.994064 0.931807
0.984833 0.990616 0.946303
0.99617 0.989761 0.955901
0 0.0743267 0.788464
0 0.0743572 0.787396
0 0.074403 0.785916
0 0.0718242 0.81236
0.364965 0.0500343 0.841276
0.679713 0.0641031 0.794781
0.783475 0.122698 0.814603
0.840192 0.212268 0.867918
0.967727 0.779904 0.968704
0 0.0810254 0.764294
0 0.0818341 0.761776
0 0.0831464 0.759823
0 0.0737926 0.795056
0.341756 0.0501564 0.843107
0.69073 0.0656443 0.791821
0.783459 0.122683 0.814618
0.841993 0.211902 0.870497
0.966232 0.779904 0.969985
0 0.114885 0.77525
0 0.115496 0.774594
0 0.11664 0.77525
0 0.087953 0.77174
0.30399 0.0510567 0.844953
0.710933 0.0814069 0.804654
0.779965 0.124544 0.8103
0.839734 0.213916 0.866926
0.966278 0.779782 0.96994
0 0.209079 0.79617
0 0.210071 0.798337
0 0.211978 0.798581
0 0.164172 0.795605
0.179858 0.0695506 0.854948
0.680995 0.0919509 0.832593
0.779461 0.12604 0.809812
0.83975 0.217014 0.866438
0.966171 0.779293 0.969955
0 0.580896 0.80412
0 0.581964 0.806897
0 0.581476 0.807507
0 0.556634 0.808484
0.0694591 0.516625 0.889342
0.705516 0.426871 0.960998
0.837461 0.209873 0.864698
0.843305 0.224369 0.869398
0.965682 0.777569 0.970199
0 0.763729 0.886885
0 0.762036 0.889876
0 0.758129 0.889921
0 0.750027 0.891417
0.0803388 0.767102 0.935836
0.646113 0.778744 0.980697
0.948226 0.720851 0.968109
0.947097 0.601419 0.95613
0.965194 0.771878 0.96968
0.0821393 0.927413 0.951232
0.0801862 0.929046 0.954665
0.0862287 0.929381 0.956374
0.108934 0.929931 0.96051
0.254658 0.938964 0.981277
0.652262 0.937942 0.99057
0.904677 0.928832 0.97969
0.983627 0.909926 0.975448
0.975738 0.865415 0.975967
0.535515 0.995651 0.977966
0.534936 0.995773 0.979583
0.538643 0.995743 0.979706
0.549523 0.995499 0.979644
0.581888 0.995193 0.97995
0.65922 0.99382 0.979614
0.89897 0.987213 0.979751
0.988937 0.979294 0.983154
0.994003 0.978851 0.983383
0.869642 0.993088 0.978988
0.865782 0.993652 0.98114
0.866026 0.993667 0.981262
0.867506 0.993652 0.981201
0.871946 0.993591 0.980835
0.885252 0.993271 0.979553
0.912871 0.993042 0.977234
0.976822 0.990616 0.985946
0.997909 0.983627 0.982788
0 0.175265 0.798047
0 0.175998 0.799329
0 0.176837 0.799558
0 0.179812 0.800275
0 0.126925 0.801556
0.585992 0.0681315 0.829038
0.784344 0.123644 0.815473
0.788251 0.128298 0.819318
0.950713 0.645823 0.960861
0 0.191455 0.801495
0 0.192096 0.80325
0 0.193011 0.803494
0 0.195911 0.80415
0 0.132509 0.799176
0.576028 0.0734417 0.834058
0.785229 0.124666 0.816327
0.788632 0.12813 0.819806
0.949264 0.646265 0.961837
0 0.238148 0.806302
0 0.239811 0.811063
0 0.242054 0.811368
0 0.248524 0.81178
0 0.172137 0.802625
0.561822 0.0799725 0.846372
0.78526 0.12958 0.815595
0.784894 0.129793 0.815152
0.950042 0.646632 0.961456
0 0.437507 0.803433
0 0.43917 0.807675
0 0.44065 0.807614
0 0.445274 0.807599
0 0.371786 0.81294
0.551507 0.162341 0.893736
0.794232 0.140749 0.824216
0.782635 0.130755 0.812634
0.950607 0.647349 0.961318
0 0.620325 0.833082
0 0.621561 0.836789
0 0.622019 0.837385
0 0.623087 0.837934
0 0.592584 0.830091
0.566064 0.520485 0.978256
0.898543 0.367147 0.920058
0.78529 0.131746 0.815305
0.950896 0.649104 0.961639
0 0.790799 0.907057
0 0.792218 0.910689
0 0.792493 0.911162
0 0.790768 0.910903
0 0.752361 0.905455
0.528496 0.78323 0.965499
0.913664 0.737057 0.974578
0.950378 0.635004 0.959335
0.951644 0.653666 0.961929
0.0331426 0.908629 0.938964
0.0318761 0.907729 0.939971
0.0320134 0.907027 0.940871
0.0352941 0.90811 0.946624
0.104356 0.920073 0.973709
0.598535 0.929763 0.995117
0.87718 0.927947 0.982712
0.981155 0.909636 0.979721
0.974701 0.858167 0.97586
0.430961 0.994263 0.994125
0.435935 0.994186 0.995209
0.447166 0.99382 0.995178
0.47985 0.993118 0.995056
0.556558 0.991608 0.994583
0.698772 0.988312 0.993484
0.883116 0.983322 0.992004
0.97792 0.980728 0.989532
0.989868 0.978225 0.98909
0.834165 0.993851 0.991257
0.832044 0.994171 0.992477
0.832456 0.994186 0.992584
0.83447 0.994156 0.992569
0.840116 0.994156 0.99263
0.856001 0.993927 0.992493
0.892775 0.993545 0.99234
0.977386 0.98938 0.99202
0.994079 0.989731 0.991073
