kpg/editing/james luts/utopia lut.cube
TITLE "Generated by Resolve"
LUT_3D_SIZE 5
0.00488289 0.0275425 0.0343633
0.0996567 0.0225223 0.0411994
0.562676 0.016968 0.115434
0.918639 0.276585 0.531304
0.975662 0.830472 0.929976
0 0.144472 0.0229801
0.110002 0.128771 0.0362097
0.509957 0 0
0.925628 0.283085 0.501381
0.974914 0.830411 0.92932
0 0.625849 0.114397
0.0191806 0.628794 0.0445106
0.613413 0.577859 0.112963
0.952697 0.416693 0.186328
0.974502 0.829587 0.920287
0.272419 0.999969 0.458473
0.280079 0.999969 0.441169
0.57641 0.999969 0.4598
0.991684 0.971557 0.621683
0.99971 0.896529 0.615198
0.900206 0.995331 0.912764
0.902007 0.995163 0.911635
0.905272 0.995148 0.907286
0.962463 0.991653 0.922042
0.995102 0.990051 0.955657
0 0.0314336 0.112703
0.0973526 0.0245518 0.121828
0.576211 0.0250248 0.224277
0.91429 0.273594 0.558206
0.973175 0.830869 0.932799
0 0.128878 0.127016
0.0926986 0.122896 0.130587
0.558785 0.0167239 0.111864
0.920165 0.279698 0.531975
0.973983 0.830762 0.931182
0 0.61677 0.196033
0 0.625116 0.114809
0.611261 0.576165 0.113466
0.954391 0.40856 0.247761
0.974319 0.829862 0.921736
0.261479 0.999969 0.484184
0.278859 0.999969 0.460914
0.568551 0.999969 0.461158
0.991836 0.97145 0.62208
0.999344 0.895003 0.6318
0.90013 0.9953 0.913542
0.902235 0.995117 0.912261
0.905455 0.995132 0.908095
0.962325 0.991669 0.922072
0.995071 0.990066 0.955703
0 0.0427558 0.450553
0.0518502 0.0326848 0.485725
0.539406 0.0392462 0.516854
0.871122 0.206577 0.664439
0.973724 0.833097 0.940078
0 0.0763561 0.468177
0 0.0466316 0.517266
0.543404 0.0403601 0.518303
0.871717 0.208927 0.651347
0.974227 0.833036 0.93872
0 0.557687 0.51519
0 0.560433 0.517769
0.559304 0.57583 0.566293
0.949401 0.384329 0.555917
0.974182 0.832288 0.931197
0.200595 0.999802 0.618021
0.213123 0.999969 0.60798
0.404044 0.999969 0.514
0.991501 0.970672 0.625254
0.996551 0.889632 0.726772
0.898619 0.995056 0.920836
0.89807 0.995209 0.920806
0.905913 0.994934 0.914061
0.960296 0.991867 0.922286
0.995331 0.98999 0.955642
0 0.0667124 0.778103
0 0.0649119 0.790112
0.440696 0.0450752 0.805829
0.796536 0.13901 0.826047
0.97081 0.820676 0.969833
0 0.0862898 0.760433
0 0.0723735 0.775921
0.436027 0.0474708 0.827329
0.792706 0.140795 0.821149
0.970962 0.820523 0.969467
0 0.554925 0.758083
0 0.54583 0.762112
0.299336 0.503609 0.935012
0.819669 0.174853 0.833814
0.970565 0.818952 0.967819
0.133303 0.948669 0.906416
0.130404 0.949859 0.908202
0.183001 0.953155 0.911269
0.935943 0.935424 0.927825
0.980377 0.884306 0.939315
0.886778 0.993378 0.956771
0.884321 0.993683 0.958282
0.889662 0.993652 0.956313
0.92845 0.994064 0.931807
0.99617 0.989761 0.955901
0 0.175265 0.798047
0 0.176837 0.799558
0 0.126925 0.801556
0.784344 0.123644 0.815473
0.950713 0.645823 0.960861
0 0.238148 0.806302
0 0.242054 0.811368
0 0.172137 0.802625
0.78526 0.12958 0.815595
0.950042 0.646632 0.961456
0 0.620325 0.833082
0 0.622019 0.837385
0 0.592584 0.830091
0.898543 0.367147 0.920058
0.950896 0.649104 0.961639
0.0331426 0.908629 0.938964
0.0320134 0.907027 0.940871
0.104356 0.920073 0.973709
0.87718 0.927947 0.982712
0.974701 0.858167 0.97586
0.834165 0.993851 0.991257
0.832456 0.994186 0.992584
0.840116 0.994156 0.99263
0.892775 0.993545 0.99234
0.994079 0.989731 0.991073
