kpg/editing/luts/Pixel Samy Sky Blue LUT.cube
TITLE "ColorFinale Export"
# Created by Saumyajit Maity on 2019-07-21 13:05:17 +0000
# Color Finale Plugin v.1.9.2 (258)
DOMAIN_MIN 0.0 0.0 0.0
DOMAIN_MAX 1.0 1.0 1.0
LUT_3D_SIZE 17
0.0017 0.0722 0.0528
0.0452 0.0594 0.0385
0.0939 0.0426 0.0154
0.1354 0.0395 0.0150
0.1853 0.0363 0.0111
0.2396 0.0332 0.0083
0.2988 0.0293 0.0060
0.3661 0.0238 0.0037
0.4397 0.0236 0.0000
0.5146 0.0236 0.0000
0.5905 0.0236 0.0000
0.6655 0.0236 0.0000
0.7406 0.0236 0.0000
0.8164 0.0236 0.0000
0.8903 0.0236 0.0000
0.9394 0.0236 0.0000
0.9674 0.0236 0.0000
0.0000 0.1426 0.0259
0.0292 0.1307 0.0100
0.0762 0.1114 0.0067
0.1214 0.0907 0.0091
0.1735 0.0715 0.0113
0.2303 0.0642 0.0094
0.2942 0.0603 0.0060
0.3653 0.0545 0.0037
0.4432 0.0544 0.0000
0.5266 0.0544 0.0000
0.6131 0.0544 0.0000
0.7021 0.0544 0.0000
0.7877 0.0544 0.0000
0.8690 0.0544 0.0000
0.9115 0.0544 0.0000
0.9394 0.0544 0.0000
0.9674 0.0544 0.0000
0.0000 0.2130 0.0000
0.0083 0.1973 0.0000
0.0505 0.1757 0.0000
0.1026 0.1555 0.0004
0.1617 0.1404 0.0004
0.2273 0.1242 0.0004
0.3006 0.1072 0.0004
0.3834 0.0891 0.0000
0.4735 0.0832 0.0000
0.5699 0.0832 0.0000
0.6712 0.0832 0.0000
0.7729 0.0832 0.0000
0.8553 0.0832 0.0000
0.8838 0.0832 0.0000
0.9115 0.0832 0.0000
0.9394 0.0832 0.0000
0.9674 0.0832 0.0000
0.0000 0.2699 0.0000
0.0072 0.2540 0.0000
0.0277 0.2355 0.0000
0.0904 0.2174 0.0000
0.1630 0.2054 0.0000
0.2391 0.1959 0.0000
0.3223 0.1840 0.0000
0.4127 0.1722 0.0000
0.5117 0.1624 0.0000
0.6131 0.1565 0.0000
0.7137 0.1568 0.0000
0.8111 0.1615 0.0000
0.8562 0.1685 0.0000
0.8838 0.1751 0.0000
0.9115 0.1800 0.0000
0.9394 0.1845 0.0000
0.9674 0.1974 0.0000
0.0000 0.3216 0.0000
0.0072 0.3084 0.0000
0.0209 0.2958 0.0000
0.0751 0.2862 0.0000
0.1550 0.2787 0.0000
0.2435 0.2724 0.0000
0.3377 0.2686 0.0000
0.4357 0.2654 0.0000
0.5380 0.2628 0.0000
0.6384 0.2624 0.0000
0.7361 0.2649 0.0000
0.8259 0.2697 0.0000
0.8562 0.2753 0.0000
0.8838 0.2802 0.0000
0.9115 0.2827 0.0000
0.9394 0.2871 0.0000
0.9674 0.2969 0.0000
0.0000 0.3785 0.0000
0.0072 0.3679 0.0000
0.0209 0.3612 0.0000
0.0603 0.3556 0.0000
0.1464 0.3522 0.0000
0.2388 0.3498 0.0000
0.3386 0.3511 0.0000
0.4438 0.3534 0.0000
0.5480 0.3559 0.0000
0.6482 0.3576 0.0000
0.7451 0.3585 0.0000
0.8274 0.3626 0.0000
0.8562 0.3649 0.0000
0.8838 0.3679 0.0000
0.9115 0.3702 0.0000
0.9394 0.3741 0.0000
0.9674 0.3817 0.0188
0.0000 0.4400 0.0000
0.0072 0.4318 0.0000
0.0209 0.4298 0.0000
0.0480 0.4264 0.0000
0.1387 0.4264 0.0000
0.2383 0.4264 0.0000
0.3439 0.4293 0.0000
0.4494 0.4335 0.0000
0.5544 0.4358 0.0000
0.6546 0.4382 0.0000
0.7485 0.4405 0.0000
0.8282 0.4429 0.0000
0.8562 0.4452 0.0000
0.8838 0.4476 0.0000
0.9115 0.4476 0.0000
0.9394 0.4523 0.0146
0.9674 0.4576 0.0551
0.0000 0.5039 0.0000
0.0072 0.4993 0.0000
0.0209 0.5002 0.0000
0.0417 0.4992 0.0000
0.1367 0.4992 0.0000
0.2433 0.5015 0.0000
0.3527 0.5044 0.0000
0.4586 0.5083 0.0000
0.5620 0.5100 0.0000
0.6597 0.5117 0.0000
0.7532 0.5132 0.0000
0.8287 0.5155 0.0000
0.8562 0.5177 0.0090
0.8838 0.5200 0.0200
0.9115 0.5220 0.0329
0.9394 0.5247 0.0517
0.9674 0.5292 0.0915
0.0000 0.5647 0.0000
0.0072 0.5647 0.0000
0.0209 0.5688 0.0000
0.0419 0.5685 0.0000
0.1421 0.5705 0.0000
0.2516 0.5724 0.0000
0.3622 0.5753 0.0000
0.4704 0.5761 0.0000
0.5716 0.5784 0.0000
0.6661 0.5802 0.0000
0.7532 0.5822 0.0007
0.8281 0.5841 0.0128
0.8562 0.5852 0.0276
0.8838 0.5875 0.0452
0.9115 0.5898 0.0638
0.9394 0.5921 0.0865
0.9674 0.5943 0.1218
0.0000 0.6239 0.0000
0.0072 0.6286 0.0000
0.0209 0.6337 0.0000
0.0475 0.6338 0.0000
0.1516 0.6360 0.0000
0.2611 0.6383 0.0000
0.3711 0.6405 0.0000
0.4773 0.6420 0.0000
0.5760 0.6428 0.0000
0.6667 0.6445 0.0000
0.7504 0.6451 0.0095
0.8265 0.6472 0.0268
0.8562 0.6495 0.0465
0.8838 0.6509 0.0681
0.9115 0.6517 0.0898
0.9394 0.6532 0.1134
0.9674 0.6532 0.1467
0.0000 0.6819 0.0000
0.0072 0.6894 0.0000
0.0209 0.6953 0.0000
0.0559 0.6975 0.0000
0.1617 0.6997 0.0000
0.2718 0.7019 0.0000
0.3795 0.7020 0.0000
0.4816 0.7040 0.0000
0.5768 0.7042 0.0000
0.6640 0.7063 0.0000
0.7447 0.7065 0.0184
0.8198 0.7086 0.0420
0.8562 0.7086 0.0647
0.8838 0.7107 0.0872
0.9115 0.7107 0.1114
0.9394 0.7107 0.1372
0.9674 0.7085 0.1686
0.0000 0.7390 0.0000
0.0072 0.7488 0.0000
0.0209 0.7562 0.0000
0.0656 0.7584 0.0000
0.1736 0.7606 0.0000
0.2803 0.7611 0.0000
0.3856 0.7628 0.0000
0.4840 0.7628 0.0000
0.5743 0.7633 0.0000
0.6580 0.7650 0.0080
0.7347 0.7655 0.0334
0.8075 0.7672 0.0572
0.8562 0.7672 0.0829
0.8838 0.7655 0.1070
0.9115 0.7655 0.1331
0.9394 0.7638 0.1587
0.9674 0.7628 0.1883
0.0000 0.7957 0.0000
0.0072 0.8054 0.0000
0.0209 0.8142 0.0000
0.0753 0.8166 0.0000
0.1817 0.8176 0.0000
0.2871 0.8193 0.0000
0.3861 0.8198 0.0000
0.4816 0.8198 0.0000
0.5687 0.8209 0.0000
0.6486 0.8220 0.0213
0.7233 0.8220 0.0484
0.7918 0.8220 0.0745
0.8548 0.8215 0.1006
0.8838 0.8196 0.1276
0.9115 0.8167 0.1529
0.9394 0.8148 0.1790
0.9674 0.8122 0.2082
0.0000 0.8477 0.0000
0.0072 0.8610 0.0000
0.0209 0.8694 0.0000
0.0833 0.8716 0.0000
0.1895 0.8738 0.0000
0.2911 0.8738 0.0000
0.3861 0.8738 0.0000
0.4766 0.8758 0.0000
0.5609 0.8759 0.0009
0.6387 0.8759 0.0334
0.7091 0.8759 0.0636
0.7758 0.8756 0.0922
0.8385 0.8725 0.1204
0.8838 0.8693 0.1465
0.9115 0.8668 0.1727
0.9394 0.8636 0.1989
0.9674 0.8603 0.2304
0.0000 0.8992 0.0000
0.0072 0.9125 0.0000
0.0209 0.9219 0.0000
0.0917 0.9254 0.0000
0.1938 0.9273 0.0000
0.2921 0.9273 0.0000
0.3834 0.9273 0.0000
0.4695 0.9273 0.0000
0.5514 0.9275 0.0159
0.6255 0.9276 0.0506
0.6941 0.9272 0.0829
0.7582 0.9252 0.1117
0.8192 0.9211 0.1401
0.8774 0.9183 0.1663
0.9115 0.9144 0.1922
0.9394 0.9103 0.2221
0.9674 0.9075 0.2577
0.0000 0.9505 0.0000
0.0072 0.9658 0.0000
0.0209 0.9766 0.0000
0.1069 0.9780 0.0000
0.2022 0.9780 0.0000
0.2922 0.9780 0.0000
0.3768 0.9780 0.0029
0.4588 0.9780 0.0306
0.5341 0.9771 0.0614
0.6052 0.9771 0.0911
0.6716 0.9750 0.1179
0.7357 0.9722 0.1429
0.7979 0.9685 0.1660
0.8569 0.9642 0.1901
0.9111 0.9602 0.2196
0.9394 0.9556 0.2586
0.9674 0.9520 0.3060
0.0000 0.9980 0.0000
0.0072 1.0000 0.0000
0.0273 1.0000 0.0000
0.1254 1.0000 0.0000
0.2120 1.0000 0.0175
0.2918 1.0000 0.0436
0.3679 1.0000 0.0713
0.4428 1.0000 0.0974
0.5145 1.0000 0.1212
0.5831 1.0000 0.1418
0.6501 1.0000 0.1586
0.7139 1.0000 0.1753
0.7775 1.0000 0.1921
0.8372 1.0000 0.2147
0.8932 1.0000 0.2504
0.9391 0.9971 0.3030
0.9674 0.9930 0.3575
0.0000 0.0565 0.1449
0.0407 0.0456 0.1364
0.0856 0.0400 0.1212
0.1265 0.0395 0.1023
0.1738 0.0363 0.0794
0.2275 0.0332 0.0514
0.2884 0.0300 0.0304
0.3571 0.0268 0.0268
0.4308 0.0236 0.0229
0.5083 0.0236 0.0195
0.5853 0.0236 0.0151
0.6628 0.0236 0.0151
0.7379 0.0236 0.0151
0.8136 0.0236 0.0151
0.8878 0.0236 0.0151
0.9394 0.0236 0.0151
0.9674 0.0236 0.0151
0.0000 0.1321 0.1202
0.0251 0.1188 0.1116
0.0711 0.1019 0.1013
0.1145 0.0846 0.0893
0.1653 0.0684 0.0706
0.2193 0.0646 0.0445
0.2822 0.0603 0.0309
0.3530 0.0573 0.0269
0.4310 0.0544 0.0229
0.5139 0.0544 0.0190
0.5996 0.0544 0.0151
0.6864 0.0544 0.0151
0.7711 0.0544 0.0151
0.8541 0.0544 0.0151
0.9113 0.0544 0.0151
0.9394 0.0544 0.0151
0.9674 0.0544 0.0151
0.0000 0.2017 0.0831
0.0074 0.1891 0.0791
0.0487 0.1699 0.0755
0.0988 0.1533 0.0702
0.1540 0.1405 0.0568
0.2153 0.1263 0.0359
0.2858 0.1088 0.0249
0.3652 0.0881 0.0249
0.4511 0.0832 0.0215
0.5421 0.0832 0.0170
0.6365 0.0832 0.0151
0.7352 0.0832 0.0151
0.8330 0.0832 0.0151
0.8838 0.0832 0.0151
0.9115 0.0832 0.0151
0.9394 0.0832 0.0151
0.9674 0.0832 0.0151
0.0000 0.2608 0.0478
0.0072 0.2477 0.0501
0.0278 0.2295 0.0550
0.0874 0.2153 0.0606
0.1574 0.2035 0.0569
0.2316 0.1931 0.0412
0.3117 0.1807 0.0179
0.3985 0.1648 0.0151
0.4942 0.1499 0.0151
0.5913 0.1382 0.0151
0.6906 0.1302 0.0151
0.7874 0.1283 0.0151
0.8562 0.1294 0.0151
0.8838 0.1329 0.0151
0.9115 0.1380 0.0151
0.9394 0.1443 0.0151
0.9674 0.1619 0.0151
0.0000 0.3171 0.0242
0.0072 0.3038 0.0287
0.0209 0.2906 0.0334
0.0722 0.2801 0.0423
0.1525 0.2728 0.0509
0.2414 0.2668 0.0469
0.3378 0.2589 0.0283
0.4374 0.2499 0.0151
0.5373 0.2409 0.0151
0.6369 0.2334 0.0151
0.7333 0.2314 0.0151
0.8238 0.2344 0.0151
0.8562 0.2383 0.0151
0.8838 0.2445 0.0151
0.9115 0.2493 0.0151
0.9394 0.2560 0.0151
0.9674 0.2726 0.0151
0.0000 0.3744 0.0151
0.0072 0.3635 0.0151
0.0209 0.3577 0.0159
0.0544 0.3525 0.0175
0.1371 0.3498 0.0287
0.2350 0.3470 0.0379
0.3435 0.3446 0.0307
0.4544 0.3414 0.0153
0.5611 0.3376 0.0151
0.6630 0.3355 0.0151
0.7576 0.3351 0.0151
0.8287 0.3372 0.0151
0.8562 0.3407 0.0151
0.8838 0.3456 0.0151
0.9115 0.3498 0.0151
0.9394 0.3563 0.0151
0.9674 0.3664 0.0175
0.0000 0.4358 0.0151
0.0072 0.4296 0.0151
0.0209 0.4295 0.0151
0.0383 0.4288 0.0151
0.1218 0.4281 0.0151
0.2226 0.4269 0.0177
0.3374 0.4288 0.0216
0.4554 0.4293 0.0152
0.5700 0.4287 0.0151
0.6734 0.4302 0.0151
0.7679 0.4307 0.0151
0.8287 0.4316 0.0151
0.8562 0.4335 0.0151
0.8838 0.4356 0.0151
0.9115 0.4397 0.0151
0.9394 0.4438 0.0154
0.9674 0.4513 0.0413
0.0000 0.5000 0.0151
0.0072 0.4972 0.0151
0.0209 0.5022 0.0151
0.0367 0.5032 0.0151
0.1102 0.5037 0.0151
0.2149 0.5055 0.0151
0.3322 0.5077 0.0151
0.4518 0.5085 0.0151
0.5657 0.5089 0.0151
0.6724 0.5107 0.0151
0.7679 0.5114 0.0151
0.8287 0.5130 0.0151
0.8562 0.5153 0.0151
0.8838 0.5161 0.0159
0.9115 0.5184 0.0196
0.9394 0.5220 0.0346
0.9674 0.5258 0.0836
0.0000 0.5625 0.0151
0.0072 0.5647 0.0151
0.0209 0.5713 0.0151
0.0365 0.5734 0.0151
0.1072 0.5755 0.0151
0.2142 0.5774 0.0151
0.3317 0.5796 0.0151
0.4484 0.5815 0.0151
0.5612 0.5817 0.0151
0.6657 0.5821 0.0151
0.7595 0.5830 0.0156
0.8287 0.5843 0.0177
0.8562 0.5852 0.0232
0.8838 0.5868 0.0374
0.9115 0.5895 0.0563
0.9394 0.5918 0.0801
0.9674 0.5940 0.1276
0.0000 0.6229 0.0151
0.0072 0.6286 0.0151
0.0209 0.6385 0.0151
0.0366 0.6398 0.0151
0.1121 0.6421 0.0151
0.2193 0.6446 0.0151
0.3369 0.6467 0.0151
0.4516 0.6488 0.0151
0.5574 0.6488 0.0151
0.6570 0.6488 0.0187
0.7475 0.6488 0.0296
0.8268 0.6495 0.0425
0.8562 0.6495 0.0582
0.8838 0.6505 0.0772
0.9115 0.6517 0.0996
0.9394 0.6538 0.1254
0.9674 0.6538 0.1693
0.0000 0.6818 0.0151
0.0072 0.6912 0.0151
0.0209 0.7013 0.0151
0.0371 0.7035 0.0151
0.1215 0.7056 0.0151
0.2287 0.7080 0.0151
0.3422 0.7097 0.0151
0.4525 0.7116 0.0151
0.5543 0.7118 0.0151
0.6476 0.7124 0.0309
0.7346 0.7124 0.0499
0.8151 0.7123 0.0703
0.8562 0.7108 0.0927
0.8838 0.7107 0.1162
0.9115 0.7107 0.1411
0.9394 0.7107 0.1682
0.9674 0.7096 0.2080
0.0000 0.7390 0.0151
0.0072 0.7508 0.0151
0.0209 0.7621 0.0151
0.0394 0.7639 0.0151
0.1326 0.7658 0.0151
0.2393 0.7683 0.0151
0.3486 0.7694 0.0151
0.4548 0.7708 0.0151
0.5502 0.7725 0.0193
0.6384 0.7727 0.0440
0.7228 0.7713 0.0702
0.7998 0.7710 0.0970
0.8562 0.7693 0.1233
0.8838 0.7671 0.1500
0.9115 0.7655 0.1782
0.9394 0.7642 0.2066
0.9674 0.7624 0.2452
0.0000 0.7957 0.0151
0.0072 0.8081 0.0151
0.0209 0.8192 0.0151
0.0434 0.8215 0.0151
0.1438 0.8236 0.0151
0.2486 0.8256 0.0151
0.3531 0.8267 0.0151
0.4527 0.8279 0.0151
0.5446 0.8295 0.0294
0.6307 0.8295 0.0590
0.7101 0.8294 0.0904
0.7836 0.8261 0.1200
0.8520 0.8236 0.1495
0.8838 0.8204 0.1801
0.9115 0.8174 0.2092
0.9394 0.8151 0.2405
0.9674 0.8121 0.2798
0.0000 0.8489 0.0151
0.0072 0.8627 0.0151
0.0209 0.8740 0.0151
0.0517 0.8775 0.0151
0.1526 0.8790 0.0151
0.2553 0.8796 0.0151
0.3555 0.8813 0.0151
0.4516 0.8830 0.0154
0.5396 0.8833 0.0419
0.6212 0.8833 0.0745
0.6974 0.8817 0.1072
0.7681 0.8789 0.1404
0.8337 0.8751 0.1733
0.8838 0.8704 0.2057
0.9115 0.8664 0.2371
0.9394 0.8632 0.2727
0.9674 0.8597 0.3189
0.0000 0.9008 0.0151
0.0072 0.9146 0.0151
0.0209 0.9276 0.0151
0.0611 0.9310 0.0151
0.1615 0.9323 0.0151
0.2606 0.9332 0.0151
0.3564 0.9336 0.0151
0.4474 0.9347 0.0282
0.5330 0.9349 0.0606
0.6103 0.9347 0.0935
0.6824 0.9325 0.1274
0.7509 0.9285 0.1634
0.8153 0.9236 0.1969
0.8755 0.9180 0.2322
0.9115 0.9127 0.2700
0.9394 0.9085 0.3146
0.9674 0.9043 0.3685
0.0000 0.9523 0.0151
0.0072 0.9685 0.0151
0.0209 0.9781 0.0151
0.0809 0.9795 0.0151
0.1763 0.9798 0.0167
0.2676 0.9798 0.0296
0.3570 0.9798 0.0550
0.4407 0.9798 0.0835
0.5200 0.9795 0.1126
0.5944 0.9790 0.1437
0.6634 0.9777 0.1751
0.7293 0.9745 0.2074
0.7929 0.9693 0.2404
0.8521 0.9639 0.2783
0.9062 0.9580 0.3231
0.9394 0.9535 0.3733
0.9674 0.9496 0.4244
0.0000 0.9990 0.0151
0.0072 1.0000 0.0151
0.0227 1.0000 0.0173
0.1065 1.0000 0.0487
0.1934 1.0000 0.0748
0.2754 1.0000 0.0999
0.3555 1.0000 0.1262
0.4326 1.0000 0.1545
0.5059 1.0000 0.1812
0.5758 1.0000 0.2090
0.6429 1.0000 0.2346
0.7087 1.0000 0.2626
0.7715 1.0000 0.2933
0.8297 1.0000 0.3329
0.8829 0.9985 0.3800
0.9340 0.9937 0.4267
0.9674 0.9897 0.4652
0.0000 0.0486 0.2208
0.0331 0.0434 0.2130
0.0800 0.0395 0.2043
0.1194 0.0363 0.1965
0.1643 0.0338 0.1845
0.2159 0.0315 0.1680
0.2784 0.0283 0.1473
0.3493 0.0237 0.1221
0.4273 0.0236 0.0969
0.5079 0.0236 0.0732
0.5892 0.0236 0.0517
0.6693 0.0236 0.0455
0.7468 0.0236 0.0407
0.8233 0.0236 0.0383
0.8985 0.0236 0.0383
0.9394 0.0236 0.0383
0.9674 0.0236 0.0383
0.0000 0.1117 0.1946
0.0215 0.0990 0.1889
0.0698 0.0826 0.1851
0.1124 0.0710 0.1819
0.1577 0.0662 0.1719
0.2103 0.0632 0.1569
0.2743 0.0599 0.1345
0.3491 0.0545 0.1073
0.4289 0.0544 0.0760
0.5141 0.0544 0.0513
0.6015 0.0544 0.0391
0.6887 0.0544 0.0383
0.7727 0.0544 0.0383
0.8550 0.0544 0.0383
0.9115 0.0544 0.0383
0.9394 0.0544 0.0383
0.9674 0.0544 0.0383
0.0000 0.1852 0.1567
0.0072 0.1741 0.1542
0.0493 0.1573 0.1529
0.0974 0.1439 0.1544
0.1502 0.1321 0.1488
0.2079 0.1201 0.1377
0.2757 0.1026 0.1192
0.3535 0.0859 0.0920
0.4390 0.0832 0.0578
0.5297 0.0832 0.0406
0.6235 0.0832 0.0383
0.7177 0.0832 0.0383
0.8121 0.0832 0.0383
0.8838 0.0832 0.0383
0.9115 0.0832 0.0383
0.9394 0.0832 0.0383
0.9674 0.0832 0.0383
0.0000 0.2482 0.1244
0.0072 0.2378 0.1279
0.0289 0.2220 0.1318
0.0867 0.2086 0.1365
0.1547 0.1991 0.1331
0.2248 0.1895 0.1247
0.2983 0.1770 0.1080
0.3783 0.1602 0.0826
0.4698 0.1430 0.0494
0.5666 0.1235 0.0383
0.6651 0.1125 0.0383
0.7639 0.1113 0.0383
0.8525 0.1109 0.0383
0.8838 0.1109 0.0383
0.9115 0.1109 0.0383
0.9394 0.1109 0.0383
0.9674 0.1117 0.0383
0.0000 0.3060 0.1015
0.0072 0.2966 0.1086
0.0209 0.2856 0.1168
0.0699 0.2763 0.1212
0.1476 0.2696 0.1212
0.2386 0.2624 0.1174
0.3342 0.2532 0.1064
0.4274 0.2390 0.0853
0.5224 0.2241 0.0545
0.6210 0.2125 0.0383
0.7160 0.2043 0.0383
0.8068 0.1996 0.0383
0.8562 0.1975 0.0383
0.8838 0.1965 0.0383
0.9115 0.1983 0.0383
0.9394 0.2010 0.0383
0.9674 0.2134 0.0383
0.0000 0.3655 0.0838
0.0072 0.3584 0.0924
0.0209 0.3545 0.1023
0.0474 0.3498 0.1019
0.1273 0.3476 0.1019
0.2278 0.3459 0.1029
0.3430 0.3409 0.0986
0.4571 0.3309 0.0833
0.5626 0.3200 0.0581
0.6628 0.3112 0.0389
0.7573 0.3070 0.0383
0.8287 0.3070 0.0383
0.8562 0.3086 0.0383
0.8838 0.3114 0.0383
0.9115 0.3137 0.0383
0.9394 0.3175 0.0383
0.9674 0.3279 0.0383
0.0000 0.4280 0.0690
0.0072 0.4259 0.0761
0.0209 0.4274 0.0839
0.0369 0.4288 0.0796
0.1047 0.4293 0.0772
0.2047 0.4303 0.0825
0.3273 0.4301 0.0854
0.4568 0.4260 0.0768
0.5768 0.4198 0.0569
0.6816 0.4147 0.0395
0.7756 0.4120 0.0383
0.8287 0.4120 0.0383
0.8562 0.4139 0.0383
0.8838 0.4162 0.0383
0.9115 0.4184 0.0383
0.9394 0.4237 0.0383
0.9674 0.4300 0.0383
0.0000 0.4937 0.0547
0.0072 0.4947 0.0597
0.0209 0.5025 0.0641
0.0363 0.5061 0.0584
0.0896 0.5084 0.0530
0.1839 0.5116 0.0606
0.3054 0.5132 0.0716
0.4415 0.5117 0.0733
0.5689 0.5091 0.0583
0.6820 0.5060 0.0414
0.7778 0.5051 0.0383
0.8287 0.5051 0.0383
0.8562 0.5063 0.0383
0.8838 0.5073 0.0383
0.9115 0.5095 0.0383
0.9394 0.5128 0.0383
0.9674 0.5171 0.0394
0.0000 0.5579 0.0444
0.0072 0.5641 0.0466
0.0209 0.5735 0.0477
0.0363 0.5781 0.0457
0.0831 0.5819 0.0438
0.1754 0.5854 0.0462
0.2922 0.5877 0.0610
0.4244 0.5877 0.0722
0.5520 0.5874 0.0685
0.6678 0.5848 0.0533
0.7668 0.5844 0.0410
0.8287 0.5844 0.0383
0.8562 0.5844 0.0383
0.8838 0.5851 0.0383
0.9115 0.5879 0.0383
0.9394 0.5900 0.0442
0.9674 0.5927 0.0767
0.0000 0.6202 0.0408
0.0072 0.6302 0.0418
0.0209 0.6414 0.0428
0.0363 0.6461 0.0407
0.0811 0.6501 0.0399
0.1747 0.6539 0.0420
0.2875 0.6555 0.0520
0.4134 0.6572 0.0712
0.5366 0.6572 0.0799
0.6470 0.6556 0.0767
0.7459 0.6543 0.0660
0.8275 0.6531 0.0556
0.8562 0.6521 0.0514
0.8838 0.6523 0.0546
0.9115 0.6548 0.0666
0.9394 0.6566 0.0845
0.9674 0.6580 0.1203
0.0000 0.6797 0.0383
0.0072 0.6923 0.0383
0.0209 0.7055 0.0392
0.0363 0.7098 0.0383
0.0839 0.7140 0.0383
0.1760 0.7174 0.0398
0.2864 0.7189 0.0476
0.4079 0.7207 0.0692
0.5251 0.7207 0.0876
0.6286 0.7207 0.0970
0.7220 0.7206 0.0971
0.8106 0.7177 0.0935
0.8562 0.7158 0.0896
0.8838 0.7139 0.0900
0.9115 0.7152 0.1012
0.9394 0.7161 0.1198
0.9674 0.7158 0.1595
0.0000 0.7390 0.0383
0.0072 0.7525 0.0383
0.0209 0.7672 0.0383
0.0363 0.7710 0.0383
0.0882 0.7751 0.0383
0.1805 0.7778 0.0398
0.2885 0.7794 0.0474
0.4055 0.7796 0.0712
0.5170 0.7815 0.0940
0.6158 0.7828 0.1125
0.7044 0.7816 0.1225
0.7873 0.7792 0.1267
0.8562 0.7757 0.1281
0.8838 0.7726 0.1316
0.9115 0.7708 0.1420
0.9394 0.7708 0.1611
0.9674 0.7686 0.2037
0.0000 0.7957 0.0383
0.0072 0.8106 0.0383
0.0209 0.8266 0.0383
0.0363 0.8306 0.0383
0.0945 0.8336 0.0383
0.1873 0.8357 0.0405
0.2915 0.8366 0.0503
0.4039 0.8382 0.0744
0.5115 0.8395 0.1012
0.6061 0.8404 0.1259
0.6895 0.8398 0.1424
0.7690 0.8363 0.1539
0.8443 0.8317 0.1621
0.8838 0.8270 0.1715
0.9115 0.8230 0.1864
0.9394 0.8212 0.2116
0.9674 0.8175 0.2651
0.0000 0.8496 0.0383
0.0072 0.8653 0.0383
0.0209 0.8821 0.0383
0.0363 0.8856 0.0383
0.1014 0.8877 0.0383
0.1948 0.8898 0.0418
0.2961 0.8920 0.0550
0.4032 0.8920 0.0802
0.5065 0.8941 0.1105
0.5981 0.8942 0.1378
0.6776 0.8920 0.1584
0.7525 0.8890 0.1743
0.8248 0.8837 0.1885
0.8838 0.8782 0.2040
0.9115 0.8724 0.2274
0.9394 0.8686 0.2713
0.9674 0.8627 0.3469
0.0000 0.9014 0.0383
0.0072 0.9186 0.0383
0.0209 0.9356 0.0383
0.0367 0.9391 0.0383
0.1099 0.9411 0.0398
0.2034 0.9433 0.0467
0.3011 0.9433 0.0663
0.4033 0.9453 0.0924
0.5017 0.9454 0.1227
0.5884 0.9443 0.1503
0.6661 0.9414 0.1731
0.7376 0.9376 0.1923
0.8056 0.9318 0.2105
0.8722 0.9259 0.2367
0.9115 0.9179 0.2801
0.9394 0.9121 0.3479
0.9674 0.9045 0.4326
0.0000 0.9535 0.0383
0.0072 0.9735 0.0383
0.0209 0.9798 0.0440
0.0448 0.9798 0.0552
0.1311 0.9798 0.0703
0.2211 0.9798 0.0873
0.3136 0.9798 0.1073
0.4063 0.9798 0.1321
0.4955 0.9798 0.1586
0.5773 0.9798 0.1839
0.6509 0.9798 0.2067
0.7206 0.9794 0.2302
0.7867 0.9767 0.2587
0.8492 0.9693 0.3027
0.9031 0.9611 0.3650
0.9394 0.9536 0.4357
0.9674 0.9487 0.4970
0.0000 1.0000 0.0383
0.0072 1.0000 0.0448
0.0209 1.0000 0.0844
0.0727 1.0000 0.1062
0.1577 1.0000 0.1252
0.2432 1.0000 0.1444
0.3278 1.0000 0.1647
0.4122 1.0000 0.1870
0.4929 1.0000 0.2103
0.5689 1.0000 0.2339
0.6388 1.0000 0.2572
0.7054 1.0000 0.2837
0.7684 1.0000 0.3235
0.8260 1.0000 0.3821
0.8792 0.9979 0.4466
0.9304 0.9914 0.4969
0.9674 0.9873 0.5257
0.0000 0.0483 0.2791
0.0252 0.0434 0.2700
0.0749 0.0395 0.2623
0.1156 0.0363 0.2578
0.1641 0.0332 0.2555
0.2166 0.0298 0.2523
0.2791 0.0258 0.2439
0.3522 0.0236 0.2286
0.4329 0.0236 0.2098
0.5186 0.0236 0.1893
0.6047 0.0236 0.1695
0.6898 0.0236 0.1544
0.7729 0.0236 0.1427
0.8514 0.0236 0.1340
0.9115 0.0236 0.1295
0.9394 0.0236 0.1249
0.9674 0.0236 0.1218
0.0000 0.0851 0.2565
0.0184 0.0753 0.2493
0.0678 0.0691 0.2455
0.1103 0.0662 0.2436
0.1601 0.0636 0.2430
0.2156 0.0603 0.2399
0.2808 0.0564 0.2317
0.3563 0.0544 0.2159
0.4397 0.0544 0.1954
0.5283 0.0544 0.1719
0.6190 0.0544 0.1506
0.7107 0.0544 0.1314
0.7982 0.0544 0.1150
0.8807 0.0544 0.1034
0.9115 0.0544 0.0969
0.9394 0.0544 0.0919
