kpg/editing/luts/Pixel Samy Sky Blue LUT.cube
TITLE "ColorFinale Export"
# Created by Saumyajit Maity on 2019-07-21 13:05:17 +0000
# Color Finale Plugin v.1.9.2 (258)
DOMAIN_MIN 0.0 0.0 0.0
DOMAIN_MAX 1.0 1.0 1.0
LUT_3D_SIZE 5
0.0017 0.0722 0.0528
0.1853 0.0363 0.0111
0.4397 0.0236 0.0000
0.7406 0.0236 0.0000
0.9674 0.0236 0.0000
0.0000 0.3216 0.0000
0.1550 0.2787 0.0000
0.5380 0.2628 0.0000
0.8562 0.2753 0.0000
0.9674 0.2969 0.0000
0.0000 0.5647 0.0000
0.1421 0.5705 0.0000
0.5716 0.5784 0.0000
0.8562 0.5852 0.0276
0.9674 0.5943 0.1218
0.0000 0.7957 0.0000
0.1817 0.8176 0.0000
0.5687 0.8209 0.0000
0.8548 0.8215 0.1006
0.9674 0.8122 0.2082
0.0000 0.9980 0.0000
0.2120 1.0000 0.0175
0.5145 1.0000 0.1212
0.7775 1.0000 0.1921
0.9674 0.9930 0.3575
0.0000 0.0456 0.3307
0.1641 0.0311 0.3181
0.4549 0.0236 0.3024
0.8072 0.0236 0.2390
0.9674 0.0236 0.2126
0.0000 0.2824 0.2678
0.1409 0.2635 0.3043
0.5249 0.2069 0.2666
0.8562 0.1384 0.1811
0.9674 0.1378 0.1612
0.0000 0.5600 0.2509
0.0557 0.5959 0.2744
0.4993 0.6052 0.2733
0.8562 0.5708 0.1753
0.9674 0.5711 0.1380
0.0000 0.8061 0.2275
0.0667 0.8458 0.2502
0.4215 0.8473 0.2739
0.8288 0.8361 0.3271
0.9674 0.8232 0.2906
0.0000 1.0000 0.2285
0.0984 1.0000 0.2611
0.4326 1.0000 0.2982
0.7575 1.0000 0.4028
0.9674 0.9924 0.5080
0.0000 0.0395 0.6394
0.1751 0.0236 0.6733
0.5483 0.0236 0.7135
0.8562 0.0236 0.6851
0.9674 0.0236 0.6315
0.0000 0.2345 0.6716
0.1218 0.2282 0.7098
0.5858 0.1947 0.7310
0.8562 0.1751 0.6868
0.9674 0.1438 0.5942
0.0000 0.5510 0.6636
0.0530 0.5909 0.6826
0.4571 0.6139 0.7029
0.8562 0.5629 0.6622
0.9674 0.4672 0.5330
0.0000 0.8310 0.6395
0.0530 0.8553 0.6548
0.3655 0.8591 0.6511
0.7690 0.8458 0.6503
0.9674 0.8154 0.5797
0.0000 1.0000 0.6306
0.0530 1.0000 0.6332
0.3970 1.0000 0.6266
0.7189 1.0000 0.6521
0.9662 0.9924 0.6553
0.0000 0.0332 0.8739
0.1630 0.0236 0.8739
0.5846 0.0236 0.8739
0.8562 0.0236 0.8739
0.9674 0.0236 0.8739
0.0000 0.2286 0.8739
0.0831 0.2384 0.8739
0.5757 0.2213 0.8739
0.8562 0.2245 0.8739
0.9674 0.2453 0.8739
0.0000 0.5387 0.8739
0.0530 0.5513 0.8739
0.4042 0.5805 0.8739
0.8562 0.5521 0.8739
0.9674 0.5401 0.8739
0.0000 0.8126 0.8739
0.0530 0.8347 0.8739
0.3688 0.8406 0.8739
0.7556 0.8450 0.8739
0.9674 0.8103 0.8648
0.0000 1.0000 0.8739
0.0674 1.0000 0.8661
0.3507 1.0000 0.8596
0.6697 1.0000 0.8501
0.9436 1.0000 0.8566
0.0000 0.0300 0.9678
0.1529 0.0236 0.9678
0.5690 0.0236 0.9678
0.8562 0.0236 0.9678
0.9674 0.0236 0.9678
0.0000 0.2312 0.9678
0.0648 0.2594 0.9678
0.4497 0.2744 0.9678
0.8562 0.2746 0.9678
0.9674 0.2889 0.9678
0.0000 0.5525 0.9678
0.0530 0.5625 0.9678
0.3609 0.5647 0.9678
0.8484 0.5613 0.9678
0.9674 0.5604 0.9678
0.0000 0.8175 0.9678
0.0530 0.8118 0.9678
0.3643 0.8052 0.9678
0.7310 0.8126 0.9678
0.9674 0.7938 0.9678
0.0000 1.0000 0.9678
0.0777 1.0000 0.9678
0.3657 1.0000 0.9678
0.6729 1.0000 0.9678
0.9346 0.9966 0.9678
