kpg/editing/luts/Pixel Samy Sky Blue LUT.cube
TITLE "ColorFinale Export"
# Created by Saumyajit Maity on 2019-07-21 13:05:17 +0000
# Color Finale Plugin v.1.9.2 (258)
DOMAIN_MIN 0.0 0.0 0.0
DOMAIN_MAX 1.0 1.0 1.0
LUT_3D_SIZE 9
0.0017 0.0722 0.0528
0.0939 0.0426 0.0154
0.1853 0.0363 0.0111
0.2988 0.0293 0.0060
0.4397 0.0236 0.0000
0.5905 0.0236 0.0000
0.7406 0.0236 0.0000
0.8903 0.0236 0.0000
0.9674 0.0236 0.0000
0.0000 0.2130 0.0000
0.0505 0.1757 0.0000
0.1617 0.1404 0.0004
0.3006 0.1072 0.0004
0.4735 0.0832 0.0000
0.6712 0.0832 0.0000
0.8553 0.0832 0.0000
0.9115 0.0832 0.0000
0.9674 0.0832 0.0000
0.0000 0.3216 0.0000
0.0209 0.2958 0.0000
0.1550 0.2787 0.0000
0.3377 0.2686 0.0000
0.5380 0.2628 0.0000
0.7361 0.2649 0.0000
0.8562 0.2753 0.0000
0.9115 0.2827 0.0000
0.9674 0.2969 0.0000
0.0000 0.4400 0.0000
0.0209 0.4298 0.0000
0.1387 0.4264 0.0000
0.3439 0.4293 0.0000
0.5544 0.4358 0.0000
0.7485 0.4405 0.0000
0.8562 0.4452 0.0000
0.9115 0.4476 0.0000
0.9674 0.4576 0.0551
0.0000 0.5647 0.0000
0.0209 0.5688 0.0000
0.1421 0.5705 0.0000
0.3622 0.5753 0.0000
0.5716 0.5784 0.0000
0.7532 0.5822 0.0007
0.8562 0.5852 0.0276
0.9115 0.5898 0.0638
0.9674 0.5943 0.1218
0.0000 0.6819 0.0000
0.0209 0.6953 0.0000
0.1617 0.6997 0.0000
0.3795 0.7020 0.0000
0.5768 0.7042 0.0000
0.7447 0.7065 0.0184
0.8562 0.7086 0.0647
0.9115 0.7107 0.1114
0.9674 0.7085 0.1686
0.0000 0.7957 0.0000
0.0209 0.8142 0.0000
0.1817 0.8176 0.0000
0.3861 0.8198 0.0000
0.5687 0.8209 0.0000
0.7233 0.8220 0.0484
0.8548 0.8215 0.1006
0.9115 0.8167 0.1529
0.9674 0.8122 0.2082
0.0000 0.8992 0.0000
0.0209 0.9219 0.0000
0.1938 0.9273 0.0000
0.3834 0.9273 0.0000
0.5514 0.9275 0.0159
0.6941 0.9272 0.0829
0.8192 0.9211 0.1401
0.9115 0.9144 0.1922
0.9674 0.9075 0.2577
0.0000 0.9980 0.0000
0.0273 1.0000 0.0000
0.2120 1.0000 0.0175
0.3679 1.0000 0.0713
0.5145 1.0000 0.1212
0.6501 1.0000 0.1586
0.7775 1.0000 0.1921
0.8932 1.0000 0.2504
0.9674 0.9930 0.3575
0.0000 0.0486 0.2208
0.0800 0.0395 0.2043
0.1643 0.0338 0.1845
0.2784 0.0283 0.1473
0.4273 0.0236 0.0969
0.5892 0.0236 0.0517
0.7468 0.0236 0.0407
0.8985 0.0236 0.0383
0.9674 0.0236 0.0383
0.0000 0.1852 0.1567
0.0493 0.1573 0.1529
0.1502 0.1321 0.1488
0.2757 0.1026 0.1192
0.4390 0.0832 0.0578
0.6235 0.0832 0.0383
0.8121 0.0832 0.0383
0.9115 0.0832 0.0383
0.9674 0.0832 0.0383
0.0000 0.3060 0.1015
0.0209 0.2856 0.1168
0.1476 0.2696 0.1212
0.3342 0.2532 0.1064
0.5224 0.2241 0.0545
0.7160 0.2043 0.0383
0.8562 0.1975 0.0383
0.9115 0.1983 0.0383
0.9674 0.2134 0.0383
0.0000 0.4280 0.0690
0.0209 0.4274 0.0839
0.1047 0.4293 0.0772
0.3273 0.4301 0.0854
0.5768 0.4198 0.0569
0.7756 0.4120 0.0383
0.8562 0.4139 0.0383
0.9115 0.4184 0.0383
0.9674 0.4300 0.0383
0.0000 0.5579 0.0444
0.0209 0.5735 0.0477
0.0831 0.5819 0.0438
0.2922 0.5877 0.0610
0.5520 0.5874 0.0685
0.7668 0.5844 0.0410
0.8562 0.5844 0.0383
0.9115 0.5879 0.0383
0.9674 0.5927 0.0767
0.0000 0.6797 0.0383
0.0209 0.7055 0.0392
0.0839 0.7140 0.0383
0.2864 0.7189 0.0476
0.5251 0.7207 0.0876
0.7220 0.7206 0.0971
0.8562 0.7158 0.0896
0.9115 0.7152 0.1012
0.9674 0.7158 0.1595
0.0000 0.7957 0.0383
0.0209 0.8266 0.0383
0.0945 0.8336 0.0383
0.2915 0.8366 0.0503
0.5115 0.8395 0.1012
0.6895 0.8398 0.1424
0.8443 0.8317 0.1621
0.9115 0.8230 0.1864
0.9674 0.8175 0.2651
0.0000 0.9014 0.0383
0.0209 0.9356 0.0383
0.1099 0.9411 0.0398
0.3011 0.9433 0.0663
0.5017 0.9454 0.1227
0.6661 0.9414 0.1731
0.8056 0.9318 0.2105
0.9115 0.9179 0.2801
0.9674 0.9045 0.4326
0.0000 1.0000 0.0383
0.0209 1.0000 0.0844
0.1577 1.0000 0.1252
0.3278 1.0000 0.1647
0.4929 1.0000 0.2103
0.6388 1.0000 0.2572
0.7684 1.0000 0.3235
0.8792 0.9979 0.4466
0.9674 0.9873 0.5257
0.0000 0.0456 0.3307
0.0706 0.0395 0.3142
0.1641 0.0311 0.3181
0.2939 0.0236 0.3201
0.4549 0.0236 0.3024
0.6314 0.0236 0.2694
0.8072 0.0236 0.2390
0.9115 0.0236 0.2209
0.9674 0.0236 0.2126
0.0000 0.1456 0.2808
0.0529 0.1200 0.2878
0.1646 0.0970 0.3092
0.3174 0.0832 0.3103
0.4857 0.0832 0.2853
0.6679 0.0832 0.2407
0.8489 0.0832 0.2078
0.9115 0.0832 0.1898
0.9674 0.0832 0.1780
0.0000 0.2824 0.2678
0.0209 0.2729 0.2847
0.1409 0.2635 0.3043
0.3382 0.2456 0.2986
0.5249 0.2069 0.2666
0.7006 0.1596 0.2123
0.8562 0.1384 0.1811
0.9115 0.1378 0.1686
0.9674 0.1378 0.1612
0.0000 0.4173 0.2636
0.0209 0.4300 0.2773
0.0816 0.4407 0.2889
0.3006 0.4392 0.2875
0.5563 0.4289 0.2743
0.7472 0.3823 0.2161
0.8562 0.3514 0.1536
0.9115 0.3464 0.1334
0.9674 0.3484 0.1294
0.0000 0.5600 0.2509
0.0209 0.5820 0.2699
0.0557 0.5959 0.2744
0.2439 0.6033 0.2678
0.4993 0.6052 0.2733
0.7453 0.5940 0.2424
0.8562 0.5708 0.1753
0.9115 0.5661 0.1404
0.9674 0.5711 0.1380
0.0000 0.6881 0.2401
0.0209 0.7160 0.2628
0.0628 0.7279 0.2613
0.2415 0.7326 0.2596
0.4393 0.7348 0.2736
0.6919 0.7325 0.2792
0.8562 0.7196 0.2379
0.9115 0.7153 0.2244
0.9674 0.7155 0.2277
0.0000 0.8061 0.2275
0.0209 0.8404 0.2554
0.0667 0.8458 0.2502
0.2426 0.8479 0.2557
0.4215 0.8473 0.2739
0.6376 0.8447 0.3196
0.8288 0.8361 0.3271
0.9115 0.8265 0.2956
0.9674 0.8232 0.2906
0.0000 0.9161 0.2173
0.0209 0.9517 0.2454
0.0700 0.9532 0.2430
0.2427 0.9531 0.2529
0.4227 0.9497 0.2783
0.6187 0.9430 0.3356
0.7841 0.9329 0.3816
0.9113 0.9214 0.3778
0.9674 0.9126 0.3812
0.0000 1.0000 0.2285
0.0209 1.0000 0.2576
0.0984 1.0000 0.2611
0.2588 1.0000 0.2694
0.4326 1.0000 0.2982
0.6103 1.0000 0.3567
0.7575 1.0000 0.4028
0.8767 1.0000 0.4325
0.9674 0.9924 0.5080
0.0000 0.0425 0.4700
0.0637 0.0360 0.4595
0.1637 0.0273 0.4842
0.3240 0.0236 0.5000
0.5148 0.0236 0.5048
0.6984 0.0236 0.4814
0.8562 0.0236 0.4449
0.9115 0.0236 0.4224
0.9674 0.0236 0.4092
0.0000 0.1052 0.4586
0.0493 0.0961 0.4681
0.1687 0.0858 0.5006
0.3480 0.0832 0.5222
0.5500 0.0832 0.5213
0.7341 0.0832 0.4868
0.8562 0.0832 0.4399
0.9115 0.0832 0.4146
0.9674 0.0832 0.4018
0.0000 0.2561 0.4642
0.0209 0.2496 0.4926
0.1346 0.2444 0.5176
0.3549 0.2291 0.5349
0.5714 0.1987 0.5236
0.7517 0.1667 0.4828
0.8562 0.1395 0.4279
0.9115 0.1378 0.4000
0.9674 0.1378 0.3873
0.0000 0.4070 0.4782
0.0209 0.4203 0.4955
0.0626 0.4360 0.5124
0.2787 0.4420 0.5258
0.5405 0.4270 0.5124
0.7420 0.3790 0.4794
0.8562 0.3163 0.4060
0.9115 0.2886 0.3600
0.9674 0.2869 0.3481
0.0000 0.5594 0.4696
0.0209 0.5805 0.4824
0.0530 0.6042 0.5011
0.1988 0.6162 0.5103
0.4752 0.6143 0.5056
0.7140 0.6076 0.4927
0.8562 0.5569 0.4322
0.9115 0.5036 0.3496
0.9674 0.4951 0.3246
0.0000 0.6997 0.4592
0.0209 0.7207 0.4775
0.0530 0.7414 0.4938
0.1880 0.7446 0.4874
0.4213 0.7440 0.4738
0.6502 0.7418 0.4810
0.8460 0.7347 0.4620
0.9115 0.7071 0.3865
0.9674 0.6920 0.3328
0.0000 0.8247 0.4522
0.0209 0.8465 0.4742
0.0530 0.8589 0.4780
0.2133 0.8571 0.4650
0.4185 0.8499 0.4582
0.5998 0.8450 0.4725
0.7927 0.8428 0.4795
0.9115 0.8310 0.4396
0.9674 0.8197 0.4028
0.0000 0.9386 0.4459
0.0209 0.9576 0.4662
0.0530 0.9583 0.4624
0.2310 0.9577 0.4499
0.4191 0.9487 0.4574
0.5829 0.9405 0.4750
0.7471 0.9340 0.4989
0.8992 0.9257 0.4960
0.9674 0.9140 0.4735
0.0000 1.0000 0.4517
0.0209 1.0000 0.4606
0.0594 1.0000 0.4526
0.2440 1.0000 0.4498
0.4218 1.0000 0.4655
0.5801 1.0000 0.4843
0.7264 1.0000 0.5125
0.8539 1.0000 0.5567
0.9674 0.9908 0.5761
0.0000 0.0395 0.6394
0.0502 0.0332 0.6428
0.1751 0.0236 0.6733
0.3485 0.0236 0.6988
0.5483 0.0236 0.7135
0.7415 0.0236 0.7086
0.8562 0.0236 0.6851
0.9115 0.0236 0.6579
0.9674 0.0236 0.6315
0.0000 0.0973 0.6571
0.0251 0.0933 0.6811
0.1709 0.0832 0.7024
0.3735 0.0832 0.7244
0.5777 0.0832 0.7338
0.7697 0.0832 0.7237
0.8562 0.0832 0.6960
0.9115 0.0832 0.6533
0.9674 0.0832 0.6183
0.0000 0.2345 0.6716
0.0209 0.2311 0.6941
0.1218 0.2282 0.7098
0.3552 0.2144 0.7270
0.5858 0.1947 0.7310
0.7690 0.1837 0.7169
0.8562 0.1751 0.6868
0.9115 0.1561 0.6330
0.9674 0.1438 0.5942
0.0000 0.3917 0.6737
0.0209 0.4005 0.6889
0.0603 0.4149 0.7001
0.2646 0.4261 0.7176
0.5513 0.4051 0.7165
0.7546 0.3830 0.7023
0.8562 0.3536 0.6678
0.9115 0.3227 0.6003
0.9674 0.3072 0.5568
0.0000 0.5510 0.6636
0.0209 0.5717 0.6743
0.0530 0.5909 0.6826
0.1866 0.6081 0.6966
0.4571 0.6139 0.7029
0.6984 0.6030 0.6931
0.8562 0.5629 0.6622
0.9115 0.5011 0.5911
0.9674 0.4672 0.5330
0.0000 0.6976 0.6504
0.0209 0.7186 0.6616
0.0530 0.7315 0.6661
0.1647 0.7454 0.6732
0.3883 0.7508 0.6771
0.6351 0.7506 0.6771
0.8240 0.7431 0.6651
0.9115 0.7055 0.6224
0.9674 0.6505 0.5425
0.0000 0.8310 0.6395
0.0209 0.8479 0.6522
0.0530 0.8553 0.6548
0.1607 0.8620 0.6573
0.3655 0.8591 0.6511
0.5846 0.8507 0.6427
0.7690 0.8458 0.6503
0.9109 0.8393 0.6382
0.9674 0.8154 0.5797
0.0000 0.9501 0.6324
0.0209 0.9580 0.6430
0.0530 0.9584 0.6429
0.1742 0.9585 0.6392
0.3726 0.9542 0.6303
0.5718 0.9397 0.6296
0.7341 0.9297 0.6445
0.8727 0.9243 0.6449
0.9674 0.9142 0.6146
0.0000 1.0000 0.6306
0.0209 1.0000 0.6360
0.0530 1.0000 0.6332
0.2000 1.0000 0.6283
0.3970 1.0000 0.6266
0.5736 1.0000 0.6395
0.7189 1.0000 0.6521
0.8435 1.0000 0.6606
0.9662 0.9924 0.6553
0.0000 0.0363 0.7851
0.0421 0.0300 0.7989
0.1714 0.0236 0.8270
0.3602 0.0236 0.8270
0.5701 0.0236 0.8270
0.7673 0.0236 0.8270
0.8562 0.0236 0.8270
0.9115 0.0236 0.8270
0.9674 0.0236 0.8270
0.0000 0.0945 0.8163
0.0209 0.0917 0.8270
0.1504 0.0832 0.8270
0.3706 0.0832 0.8270
0.6034 0.0832 0.8270
0.7933 0.0832 0.8270
0.8562 0.0832 0.8270
0.9115 0.0832 0.8270
0.9674 0.0832 0.8263
0.0000 0.2286 0.8270
0.0209 0.2309 0.8270
0.0997 0.2287 0.8270
0.3153 0.2251 0.8270
0.6008 0.2004 0.8270
0.7835 0.2007 0.8270
0.8562 0.2008 0.8270
0.9115 0.1985 0.8270
0.9674 0.1948 0.7934
0.0000 0.3861 0.8270
0.0209 0.3911 0.8270
0.0563 0.3962 0.8270
0.2283 0.4139 0.8270
0.5464 0.3942 0.8270
0.7606 0.3777 0.8270
0.8562 0.3713 0.8270
0.9115 0.3656 0.8136
0.9674 0.3570 0.7640
0.0000 0.5410 0.8166
0.0209 0.5548 0.8233
0.0530 0.5671 0.8233
0.1802 0.5862 0.8270
0.4432 0.5972 0.8270
0.7031 0.5816 0.8270
0.8562 0.5593 0.8223
0.9115 0.5331 0.7954
0.9674 0.5085 0.7415
0.0000 0.6864 0.7992
0.0209 0.7073 0.8073
0.0530 0.7192 0.8066
0.1798 0.7306 0.8061
0.3811 0.7417 0.8108
0.6269 0.7440 0.8154
0.8152 0.7364 0.8074
0.9115 0.7075 0.7877
0.9674 0.6624 0.7347
0.0000 0.8229 0.7862
0.0209 0.8414 0.7944
0.0530 0.8460 0.7891
0.1907 0.8503 0.7839
0.3581 0.8543 0.7861
0.5586 0.8537 0.7898
0.7609 0.8515 0.7904
0.9022 0.8441 0.7827
0.9674 0.8134 0.7479
0.0000 0.9508 0.7759
0.0209 0.9577 0.7817
0.0530 0.9575 0.7733
0.1897 0.9573 0.7685
0.3404 0.9552 0.7687
0.5187 0.9448 0.7663
0.7139 0.9354 0.7674
0.8609 0.9282 0.7754
0.9674 0.9186 0.7605
0.0000 1.0000 0.7708
0.0209 1.0000 0.7684
0.0530 1.0000 0.7617
0.1880 1.0000 0.7612
0.3452 1.0000 0.7589
0.5241 1.0000 0.7566
0.7011 1.0000 0.7599
0.8317 1.0000 0.7727
0.9523 0.9952 0.7699
0.0000 0.0332 0.8739
0.0375 0.0287 0.8739
0.1630 0.0236 0.8739
0.3500 0.0236 0.8739
0.5846 0.0236 0.8739
0.7987 0.0236 0.8739
0.8562 0.0236 0.8739
0.9115 0.0236 0.8739
0.9674 0.0236 0.8739
0.0000 0.0917 0.8739
0.0209 0.0888 0.8739
0.1311 0.0832 0.8739
0.3350 0.0832 0.8739
0.6044 0.0832 0.8739
0.8014 0.0832 0.8739
0.8562 0.0832 0.8739
0.9115 0.0832 0.8739
0.9674 0.0832 0.8739
0.0000 0.2286 0.8739
0.0209 0.2352 0.8739
0.0831 0.2384 0.8739
0.2642 0.2414 0.8739
0.5757 0.2213 0.8739
0.7905 0.2167 0.8739
0.8562 0.2245 0.8739
0.9115 0.2334 0.8739
0.9674 0.2453 0.8739
0.0000 0.3885 0.8739
0.0209 0.3961 0.8739
0.0530 0.4014 0.8739
0.1978 0.4076 0.8739
0.4930 0.4039 0.8739
0.7601 0.3819 0.8739
0.8562 0.3872 0.8739
0.9115 0.3919 0.8739
0.9674 0.3958 0.8739
0.0000 0.5387 0.8739
0.0209 0.5468 0.8739
0.0530 0.5513 0.8739
0.1746 0.5611 0.8739
0.4042 0.5805 0.8739
0.6941 0.5652 0.8739
0.8562 0.5521 0.8739
0.9115 0.5465 0.8739
0.9674 0.5401 0.8739
0.0000 0.6775 0.8739
0.0209 0.6914 0.8739
0.0530 0.6988 0.8739
0.1800 0.7091 0.8739
0.3694 0.7228 0.8739
0.6144 0.7277 0.8739
0.8151 0.7178 0.8739
0.9115 0.7013 0.8739
0.9674 0.6753 0.8739
0.0000 0.8126 0.8739
0.0209 0.8295 0.8739
0.0530 0.8347 0.8739
0.2023 0.8376 0.8739
0.3688 0.8406 0.8739
0.5537 0.8440 0.8739
0.7556 0.8450 0.8739
0.8967 0.8380 0.8739
0.9674 0.8103 0.8648
0.0000 0.9486 0.8739
0.0209 0.9530 0.8739
0.0592 0.9500 0.8739
0.2095 0.9476 0.8716
0.3605 0.9447 0.8680
0.5151 0.9415 0.8669
0.6988 0.9369 0.8669
0.8550 0.9341 0.8669
0.9674 0.9218 0.8612
0.0000 1.0000 0.8739
0.0209 1.0000 0.8721
0.0674 1.0000 0.8661
0.2049 1.0000 0.8610
0.3507 1.0000 0.8596
0.5057 1.0000 0.8571
0.6697 1.0000 0.8501
0.8182 1.0000 0.8548
0.9436 1.0000 0.8566
0.0000 0.0300 0.9208
0.0346 0.0255 0.9208
0.1571 0.0236 0.9208
0.3300 0.0236 0.9208
0.5830 0.0236 0.9208
0.8014 0.0236 0.9208
0.8562 0.0236 0.9208
0.9115 0.0236 0.9208
0.9674 0.0236 0.9208
0.0000 0.0888 0.9208
0.0209 0.0888 0.9208
0.1173 0.0832 0.9208
0.3007 0.0832 0.9208
0.5716 0.0832 0.9208
0.8014 0.0832 0.9208
0.8562 0.0837 0.9208
0.9115 0.0909 0.9208
0.9674 0.1052 0.9208
0.0000 0.2307 0.9208
0.0209 0.2420 0.9208
0.0712 0.2481 0.9208
0.2343 0.2531 0.9208
0.5105 0.2488 0.9208
0.7708 0.2406 0.9208
0.8562 0.2493 0.9208
0.9115 0.2632 0.9208
0.9674 0.2757 0.9208
0.0000 0.3933 0.9208
0.0209 0.4036 0.9208
0.0530 0.4099 0.9208
0.1911 0.4127 0.9208
0.4274 0.4157 0.9208
0.7327 0.4006 0.9208
0.8562 0.4025 0.9208
0.9115 0.4113 0.9208
0.9674 0.4192 0.9208
0.0000 0.5432 0.9208
0.0209 0.5515 0.9208
0.0530 0.5546 0.9208
0.1775 0.5569 0.9208
0.3660 0.5664 0.9208
0.6496 0.5653 0.9208
0.8562 0.5523 0.9208
0.9115 0.5532 0.9208
0.9674 0.5530 0.9208
0.0000 0.6774 0.9208
0.0209 0.6873 0.9208
0.0530 0.6886 0.9208
0.1799 0.6909 0.9208
0.3578 0.6993 0.9208
0.5812 0.7094 0.9208
0.8084 0.7013 0.9208
0.9115 0.6892 0.9208
0.9674 0.6790 0.9208
0.0000 0.8129 0.9208
0.0209 0.8202 0.9208
0.0530 0.8189 0.9208
0.2002 0.8211 0.9208
0.3683 0.8241 0.9208
0.5459 0.8288 0.9208
0.7483 0.8288 0.9208
0.8967 0.8224 0.9208
0.9674 0.8036 0.9208
0.0000 0.9465 0.9208
0.0209 0.9446 0.9208
0.0643 0.9386 0.9208
0.2139 0.9362 0.9208
0.3690 0.9319 0.9208
0.5238 0.9300 0.9208
0.6979 0.9278 0.9208
0.8523 0.9274 0.9208
0.9674 0.9163 0.9208
0.0000 1.0000 0.9208
0.0209 1.0000 0.9208
0.0745 1.0000 0.9208
0.2133 1.0000 0.9208
0.3614 1.0000 0.9208
0.5156 1.0000 0.9208
0.6666 1.0000 0.9208
0.8094 1.0000 0.9208
0.9396 1.0000 0.9208
0.0000 0.0300 0.9678
0.0314 0.0236 0.9678
0.1529 0.0236 0.9678
0.3132 0.0236 0.9678
0.5690 0.0236 0.9678
0.8014 0.0236 0.9678
0.8562 0.0236 0.9678
0.9115 0.0236 0.9678
0.9674 0.0236 0.9678
0.0000 0.0860 0.9678
0.0209 0.0860 0.9678
0.1076 0.0832 0.9678
0.2814 0.0833 0.9678
0.5231 0.0927 0.9678
0.7731 0.0977 0.9678
0.8562 0.1023 0.9678
0.9115 0.1134 0.9678
0.9674 0.1225 0.9678
0.0000 0.2312 0.9678
0.0209 0.2518 0.9678
0.0648 0.2594 0.9678
0.2241 0.2647 0.9678
0.4497 0.2744 0.9678
0.7206 0.2744 0.9678
0.8562 0.2746 0.9678
0.9115 0.2820 0.9678
0.9674 0.2889 0.9678
0.0000 0.3962 0.9678
0.0209 0.4132 0.9678
0.0530 0.4193 0.9678
0.1970 0.4217 0.9678
0.3917 0.4268 0.9678
0.6751 0.4248 0.9678
0.8562 0.4213 0.9678
0.9115 0.4259 0.9678
0.9674 0.4306 0.9678
0.0000 0.5525 0.9678
0.0209 0.5610 0.9678
0.0530 0.5625 0.9678
0.1888 0.5625 0.9678
0.3609 0.5647 0.9678
0.5945 0.5693 0.9678
0.8484 0.5613 0.9678
0.9115 0.5602 0.9678
0.9674 0.5604 0.9678
0.0000 0.6863 0.9678
0.0209 0.6930 0.9678
0.0530 0.6908 0.9678
0.1902 0.6884 0.9678
0.3583 0.6873 0.9678
0.5487 0.6931 0.9678
0.7851 0.6950 0.9678
0.9115 0.6841 0.9678
0.9674 0.6796 0.9678
0.0000 0.8175 0.9678
0.0209 0.8193 0.9678
0.0530 0.8118 0.9678
0.1997 0.8076 0.9678
0.3643 0.8052 0.9678
0.5365 0.8075 0.9678
0.7310 0.8126 0.9678
0.8964 0.8066 0.9678
0.9674 0.7938 0.9678
0.0000 0.9443 0.9678
0.0209 0.9388 0.9678
0.0678 0.9293 0.9678
0.2137 0.9229 0.9678
0.3700 0.9182 0.9678
0.5264 0.9159 0.9678
0.6952 0.9141 0.9678
0.8495 0.9117 0.9678
0.9674 0.9029 0.9678
0.0000 1.0000 0.9678
0.0209 1.0000 0.9678
0.0777 1.0000 0.9678
0.2160 1.0000 0.9678
0.3657 1.0000 0.9678
0.5210 1.0000 0.9678
0.6729 1.0000 0.9678
0.8069 0.9978 0.9678
0.9346 0.9966 0.9678
