kpg/editing/luts/EditorsKeys Cinematic Lut Pack/Editors Keys Studio Glow.cube
LUT_3D_SIZE 6
-0.054066 -0.054422 -0.053500
0.203976 -0.049317 -0.057047
0.444453 -0.047423 -0.057064
0.641428 -0.046791 -0.057063
0.817337 -0.045404 -0.057084
0.968035 -0.043026 -0.057094
-0.035142 0.175539 -0.028759
0.193497 0.168451 -0.049720
0.418297 0.188648 -0.057057
0.629822 0.200364 -0.057062
0.810335 0.204600 -0.057073
0.964713 0.203377 -0.057095
-0.003939 0.381063 0.004938
0.218511 0.380856 0.004472
0.446879 0.384617 -0.052493
0.660749 0.406645 -0.056148
0.840167 0.414894 -0.056490
0.996088 0.407180 -0.056455
0.010572 0.584292 0.022362
0.227491 0.595129 0.016055
0.456955 0.591541 0.002867
0.665749 0.595094 -0.046568
0.853470 0.600293 -0.053585
1.011042 0.594753 -0.009276
0.011180 0.783106 0.022738
0.220305 0.795807 0.011332
0.462248 0.790588 0.004305
0.667737 0.792947 -0.029513
0.856310 0.781996 -0.043027
1.011616 0.768609 0.003203
-0.006927 0.955862 0.007792
0.202133 0.966033 -0.008781
0.446505 0.960575 -0.025321
0.645097 0.956638 -0.042792
0.844479 0.963217 -0.041134
1.009296 0.953459 -0.000800
-0.058869 -0.043462 0.137245
0.186515 -0.038302 0.171114
0.459487 -0.052640 0.164037
0.668103 -0.056416 0.155772
0.843345 -0.056150 0.150872
0.994883 -0.055966 0.144764
-0.058860 0.172021 0.167471
0.170439 0.180121 0.179046
0.450801 0.164726 0.137268
0.672060 0.127460 0.088653
0.835927 0.097771 0.069609
0.993713 0.159777 0.115150
-0.023957 0.385199 0.210830
0.142132 0.396049 0.160047
0.447318 0.390726 0.108796
0.670921 0.399931 0.073399
0.849630 0.400611 0.063729
1.002252 0.402346 0.116645
0.001612 0.594929 0.238248
0.137877 0.600795 0.147727
0.440200 0.600104 0.129145
0.665625 0.598935 0.076991
0.858231 0.598929 0.061436
1.013364 0.596771 0.154134
0.003253 0.793302 0.246892
0.124824 0.797745 0.134188
0.434438 0.801436 0.114627
0.660684 0.798785 0.087488
0.857406 0.786910 0.074272
1.015456 0.776069 0.172308
-0.017801 0.964310 0.236325
0.143932 0.973176 0.205063
0.425520 0.982003 0.178557
0.640297 0.971346 0.172933
0.844526 0.975833 0.165444
1.017649 0.969225 0.192361
-0.058856 -0.024471 0.291563
0.142736 -0.001220 0.333781
0.417271 -0.012865 0.377447
0.647940 -0.020413 0.385124
0.836275 -0.025619 0.376539
0.992224 -0.033635 0.360379
-0.058867 0.188175 0.324269
0.126251 0.191879 0.362419
0.425332 0.174834 0.400450
0.677265 0.138315 0.386754
0.858912 0.104943 0.363904
1.013914 0.154613 0.352351
-0.058869 0.384426 0.376990
0.088174 0.393835 0.385063
0.410929 0.422659 0.420956
0.690504 0.403785 0.378161
0.882767 0.359459 0.320133
1.017668 0.382661 0.344311
-0.052135 0.599147 0.412393
0.089017 0.610018 0.403208
0.354842 0.644878 0.358331
0.679644 0.632350 0.334358
0.878049 0.606699 0.290515
1.022609 0.602224 0.358638
-0.035549 0.798901 0.425410
0.087800 0.807786 0.405797
0.270608 0.828761 0.300230
0.636249 0.822030 0.276393
0.867755 0.807455 0.260927
1.028220 0.790910 0.376844
-0.050609 0.969461 0.411323
0.122210 0.978784 0.405111
0.363161 0.993027 0.372447
0.624426 0.993281 0.370396
0.840779 0.990202 0.369436
1.030285 0.989014 0.396079
-0.058860 -0.009267 0.455428
0.140832 0.010922 0.492080
0.415800 0.014645 0.548330
0.621379 0.003435 0.568433
0.814143 -0.003995 0.572380
0.974109 -0.007558 0.553728
-0.058872 0.206097 0.484772
0.116329 0.201753 0.534407
0.401203 0.182845 0.619674
0.642605 0.151270 0.597826
0.831177 0.122671 0.585226
0.990215 0.169216 0.560942
-0.058866 0.403815 0.546916
0.084200 0.410273 0.569550
0.353544 0.416944 0.630805
0.674799 0.397314 0.637904
0.883230 0.355780 0.593295
1.035153 0.380011 0.562596
-0.058906 0.594191 0.584648
0.068649 0.603553 0.592236
0.306913 0.645035 0.633546
0.667294 0.651728 0.643498
0.886870 0.629431 0.604839
1.034705 0.621434 0.594826
-0.058938 0.792819 0.602433
0.058745 0.804177 0.599446
0.202784 0.828151 0.581352
0.601222 0.852423 0.570211
0.877184 0.830838 0.554822
1.036644 0.812524 0.611026
-0.059008 0.964587 0.585628
0.103764 0.979137 0.583093
0.340353 0.997385 0.583885
0.610561 1.010726 0.591639
0.837940 1.000966 0.593678
1.041134 1.004013 0.615117
-0.058866 0.008496 0.636277
0.147864 0.025682 0.669877
0.397242 0.040619 0.761935
0.629627 0.021268 0.748686
0.801476 0.014647 0.752923
0.958425 0.011156 0.733397
-0.058875 0.228153 0.661556
0.101527 0.206043 0.712686
0.344730 0.194545 0.784586
0.638115 0.161597 0.778600
0.818912 0.137251 0.776296
0.970984 0.182888 0.746532
-0.058883 0.424281 0.721448
0.077513 0.424167 0.747795
0.324710 0.414647 0.806748
0.646680 0.382848 0.836203
0.859280 0.359182 0.817668
1.003052 0.387563 0.762477
-0.058910 0.612487 0.764410
0.065031 0.617085 0.777363
0.277363 0.632341 0.830826
0.620806 0.630131 0.852394
0.881481 0.619556 0.830610
1.043492 0.621612 0.784012
-0.058944 0.794648 0.779784
0.058415 0.801274 0.784156
0.186754 0.827765 0.804157
0.583825 0.851162 0.828392
0.877461 0.849597 0.830675
1.044708 0.843198 0.820439
-0.059015 0.961313 0.758234
0.103831 0.974638 0.759340
0.329235 0.997743 0.766757
0.607607 1.015269 0.787098
0.857021 1.020564 0.815153
1.049798 1.015577 0.825585
-0.058862 0.031200 0.811502
0.152840 0.043175 0.838956
0.364630 0.060965 0.907849
0.607528 0.050989 0.900242
0.794401 0.028663 0.914204
0.958519 0.020397 0.906551
-0.058865 0.249056 0.835585
0.125236 0.243300 0.852308
0.314996 0.236471 0.906201
0.602781 0.219255 0.932100
0.795373 0.204311 0.927630
0.970569 0.190366 0.923283
-0.058902 0.431397 0.880724
0.121357 0.441056 0.905074
0.322349 0.420241 0.929540
0.592301 0.396500 0.984973
0.811269 0.400449 0.955860
0.994776 0.389235 0.949007
-0.058932 0.607288 0.921783
0.105576 0.611648 0.933125
0.341064 0.621063 0.961932
0.596680 0.616877 0.981409
0.829352 0.619699 0.976141
1.017866 0.617127 0.971757
-0.058957 0.784290 0.941533
0.104915 0.791518 0.949794
0.341256 0.804612 0.980650
0.597719 0.814066 0.986132
0.856309 0.837745 0.997897
1.042614 0.840141 0.990403
-0.059026 0.966484 0.941051
0.103664 0.978448 0.947545
0.341692 0.998976 0.965570
0.597698 1.012804 0.978838
0.862314 1.028276 0.995656
1.054403 1.026062 1.001365
