kpg/editing/luts/EditorsKeys Cinematic Lut Pack/Editors Keys Vintage Film Summer.cube
LUT_3D_SIZE 16
-0.141439 -0.135813 -0.130358
-0.131036 -0.135813 -0.130358
-0.057661 -0.135813 -0.130358
0.077034 -0.130609 -0.124830
0.107400 -0.126665 -0.120622
0.146277 -0.122398 -0.116045
0.196592 -0.118035 -0.111320
0.258719 -0.114514 -0.107491
0.331836 -0.112969 -0.105806
0.413897 -0.114157 -0.107097
0.498082 -0.117823 -0.111092
0.579091 -0.122854 -0.116533
0.655319 -0.128254 -0.122319
0.725992 -0.133281 -0.127671
0.789742 -0.137345 -0.131970
0.846779 -0.140077 -0.134854
-0.141440 -0.125735 -0.130358
-0.131036 -0.125735 -0.130358
-0.057661 -0.125736 -0.130358
0.077034 -0.125266 -0.124830
0.107400 -0.123249 -0.120622
0.146277 -0.119440 -0.116045
0.196592 -0.114815 -0.111320
0.258719 -0.110595 -0.107491
0.331836 -0.108083 -0.105806
0.413897 -0.108249 -0.107097
0.498082 -0.111132 -0.111092
0.579091 -0.115717 -0.116533
0.655319 -0.120880 -0.122319
0.725992 -0.125791 -0.127672
0.789742 -0.129798 -0.131970
0.846779 -0.132512 -0.134854
-0.141440 -0.053858 -0.130359
-0.131037 -0.053858 -0.130359
-0.057662 -0.053859 -0.130359
0.077034 -0.097622 -0.124831
0.107400 -0.106857 -0.120622
0.146277 -0.105425 -0.116045
0.196592 -0.099364 -0.111321
0.258719 -0.091052 -0.107491
0.331836 -0.082376 -0.105806
0.413897 -0.075301 -0.107098
0.498082 -0.072299 -0.111092
0.579091 -0.073750 -0.116534
0.655319 -0.077771 -0.122319
0.725992 -0.082488 -0.127672
0.789742 -0.086601 -0.131970
0.846779 -0.089567 -0.134854
-0.133374 0.081446 -0.121242
-0.127711 0.081446 -0.121242
-0.098033 0.081446 -0.121242
0.084036 0.083084 -0.120077
0.107399 -0.051105 -0.120623
0.146277 -0.062997 -0.116045
0.196592 -0.046063 -0.111321
0.258719 0.044408 -0.107492
0.331836 0.073592 -0.105806
0.413895 0.092520 -0.107103
0.498036 0.104451 -0.111429
0.579055 0.111099 -0.117142
0.655285 0.114399 -0.123020
0.725979 0.115597 -0.128318
0.789739 0.115506 -0.132475
0.846793 0.114602 -0.135147
-0.127959 0.110201 -0.115024
-0.124285 0.110201 -0.115024
-0.106441 0.110201 -0.115024
-0.038162 0.110201 -0.115024
0.113880 0.111629 -0.113383
0.147474 0.093318 -0.114041
0.197078 0.100736 -0.110065
0.258966 0.118136 -0.106579
0.331811 0.137061 -0.105959
0.413634 0.154850 -0.108657
0.497803 0.168890 -0.113653
0.578816 0.178469 -0.119454
0.655085 0.184644 -0.125097
0.725815 0.188136 -0.129955
0.789613 0.189607 -0.133594
0.846726 0.189391 -0.135720
-0.123210 0.146023 -0.109472
-0.120006 0.146023 -0.109472
-0.104675 0.146023 -0.109472
-0.054831 0.146023 -0.109473
0.099193 0.146151 -0.109226
0.150835 0.146909 -0.107975
0.198365 0.150996 -0.106681
0.259152 0.166511 -0.105794
0.331556 0.186366 -0.107194
0.413329 0.206871 -0.111212
0.497396 0.224091 -0.116744
0.578502 0.236570 -0.122483
0.654839 0.245030 -0.127689
0.725816 0.250203 -0.131927
0.789618 0.252550 -0.134837
0.846668 0.252664 -0.136197
-0.120321 0.192315 -0.106041
-0.116898 0.192315 -0.106041
-0.100352 0.192315 -0.106041
-0.038695 0.192315 -0.106041
0.105456 0.192345 -0.105986
0.155395 0.192443 -0.105827
0.198667 0.192567 -0.105806
0.258910 0.209204 -0.106714
0.331114 0.231655 -0.109716
0.412740 0.255633 -0.114744
0.496951 0.276329 -0.120550
0.578145 0.291594 -0.125991
0.654603 0.302190 -0.130561
0.725693 0.308832 -0.133945
0.789550 0.311977 -0.135887
0.846655 0.312274 -0.136313
-0.121148 0.249893 -0.107027
-0.117186 0.249893 -0.107027
-0.097640 0.249893 -0.107027
0.037270 0.249893 -0.107027
0.119645 0.249844 -0.107180
0.170262 0.249716 -0.107631
0.215266 0.249542 -0.108286
0.258295 0.249624 -0.109174
0.330362 0.275191 -0.113349
0.412021 0.302917 -0.118994
0.496383 0.327143 -0.124741
0.577780 0.345281 -0.129615
0.654387 0.357977 -0.133289
0.725500 0.365966 -0.135581
0.789613 0.369916 -0.136312
0.846655 0.370197 -0.136314
-0.126343 0.318361 -0.113128
-0.121792 0.318361 -0.113128
-0.098888 0.318361 -0.113128
0.057954 0.318361 -0.113128
0.135201 0.318267 -0.113523
0.188966 0.318120 -0.114239
0.237501 0.317936 -0.115171
0.283804 0.317653 -0.116332
0.329447 0.317858 -0.117721
0.411271 0.349498 -0.123577
0.495822 0.377379 -0.128916
0.577362 0.398268 -0.132898
0.654218 0.413032 -0.135398
0.725326 0.422421 -0.136310
0.789612 0.426861 -0.136314
0.846654 0.427055 -0.136316
-0.134407 0.396166 -0.122427
-0.129314 0.396166 -0.122427
-0.103390 0.396166 -0.122427
0.070385 0.396165 -0.122421
0.150399 0.396104 -0.122912
0.208521 0.395910 -0.123587
0.261358 0.395804 -0.124465
0.311863 0.395542 -0.125504
0.361276 0.395412 -0.126710
0.410568 0.395743 -0.128038
0.495311 0.427235 -0.132565
0.577083 0.450987 -0.135327
0.654094 0.467795 -0.136310
0.725325 0.478335 -0.136314
0.789612 0.483222 -0.136316
0.846654 0.483346 -0.136318
-0.142089 0.477118 -0.131084
-0.136528 0.477118 -0.131084
-0.107989 0.477118 -0.131084
0.079883 0.477105 -0.131129
0.163620 0.477069 -0.131459
0.225814 0.476986 -0.131911
0.282583 0.476911 -0.132467
0.336984 0.476820 -0.133108
0.390131 0.476682 -0.133811
0.442566 0.476594 -0.134526
0.494931 0.476922 -0.135206
0.576973 0.503537 -0.136311
0.654093 0.522265 -0.136314
0.725324 0.533837 -0.136316
0.789612 0.539131 -0.136319
0.846654 0.539158 -0.136321
-0.146441 0.556150 -0.135926
-0.140398 0.556150 -0.135926
-0.109000 0.556150 -0.135926
0.090357 0.556145 -0.135950
0.175079 0.556122 -0.136039
0.239940 0.556098 -0.136143
0.299491 0.556075 -0.136243
0.356680 0.556059 -0.136305
0.412688 0.556058 -0.136312
0.467950 0.556058 -0.136313
0.522621 0.556057 -0.136314
0.576972 0.555972 -0.136314
0.654093 0.576430 -0.136317
0.725323 0.589098 -0.136319
0.789612 0.594861 -0.136322
0.846653 0.594890 -0.136324
-0.146794 0.631296 -0.136315
-0.140167 0.631296 -0.136315
-0.104895 0.631296 -0.136315
0.102558 0.631296 -0.136315
0.185298 0.631296 -0.136315
0.251280 0.631296 -0.136315
0.312410 0.631295 -0.136316
0.371402 0.631295 -0.136316
0.429134 0.631295 -0.136317
0.486242 0.631295 -0.136317
0.542793 0.631295 -0.136318
0.599123 0.631295 -0.136319
0.654093 0.630291 -0.136320
0.725323 0.644069 -0.136322
0.789611 0.650241 -0.136325
0.846653 0.650231 -0.136327
-0.146798 0.701320 -0.136319
-0.139683 0.701320 -0.136319
-0.100876 0.701320 -0.136319
0.110994 0.701320 -0.136320
0.192282 0.701320 -0.136320
0.258811 0.701320 -0.136320
0.320886 0.701320 -0.136320
0.380853 0.701320 -0.136321
0.439841 0.701320 -0.136321
0.498077 0.701320 -0.136322
0.555803 0.701319 -0.136323
0.613339 0.701319 -0.136324
0.670603 0.701319 -0.136325
0.725322 0.699001 -0.136326
0.789611 0.705600 -0.136329
0.846653 0.705689 -0.136331
-0.146803 0.764675 -0.136324
-0.139303 0.764675 -0.136324
-0.097653 0.764675 -0.136325
0.116113 0.764675 -0.136325
0.196222 0.764675 -0.136325
0.262864 0.764675 -0.136325
0.325279 0.764675 -0.136326
0.385789 0.764675 -0.136326
0.445200 0.764675 -0.136327
0.503960 0.764674 -0.136327
0.562296 0.764674 -0.136328
0.620417 0.764674 -0.136329
0.678177 0.764674 -0.136330
0.735968 0.764674 -0.136331
0.789610 0.760829 -0.136333
0.846652 0.760724 -0.136335
-0.146808 0.820740 -0.136330
-0.139073 0.820740 -0.136330
-0.095600 0.820740 -0.136330
0.118325 0.820740 -0.136330
0.197381 0.820740 -0.136330
0.263719 0.820740 -0.136331
0.326004 0.820739 -0.136331
0.386462 0.820739 -0.136331
0.445802 0.820739 -0.136332
0.504581 0.820739 -0.136333
0.562895 0.820739 -0.136334
0.621051 0.820739 -0.136335
0.678780 0.820739 -0.136336
0.736681 0.820739 -0.136337
0.794180 0.820738 -0.136338
0.846651 0.815856 -0.136338
-0.141439 -0.135813 -0.120584
-0.131036 -0.135813 -0.120584
-0.057661 -0.135813 -0.120584
0.077034 -0.130609 -0.119619
0.107400 -0.126665 -0.117272
0.146277 -0.122398 -0.113119
0.196592 -0.118035 -0.108129
0.258719 -0.114514 -0.103570
0.331836 -0.112969 -0.100890
0.413897 -0.114157 -0.101184
0.498082 -0.117823 -0.104438
0.579091 -0.122854 -0.109491
0.655319 -0.128254 -0.115104
0.725992 -0.133281 -0.120388
0.789742 -0.137345 -0.124676
0.846779 -0.140077 -0.127557
-0.141440 -0.125735 -0.120584
-0.131036 -0.125735 -0.120584
-0.057661 -0.125736 -0.120584
0.077034 -0.119910 -0.114391
0.107400 -0.115455 -0.109616
0.146277 -0.110575 -0.104355
0.196592 -0.105511 -0.098834
0.258719 -0.101365 -0.094289
0.331836 -0.099531 -0.092239
0.413897 -0.100942 -0.093804
0.498082 -0.105263 -0.098564
0.579091 -0.111102 -0.104914
0.655319 -0.117253 -0.111552
0.725992 -0.122913 -0.117589
0.789742 -0.127440 -0.122389
0.846779 -0.130456 -0.125576
-0.141440 -0.053858 -0.120585
-0.131037 -0.053858 -0.120585
-0.057662 -0.053859 -0.120585
0.077034 -0.092485 -0.114391
0.107400 -0.098779 -0.109616
0.146277 -0.095713 -0.104355
0.196592 -0.088411 -0.098834
0.258719 -0.079005 -0.094289
0.331836 -0.069532 -0.092239
0.413897 -0.062494 -0.093804
0.498082 -0.060919 -0.098564
0.579091 -0.064651 -0.104914
0.655319 -0.070835 -0.111552
0.725992 -0.077182 -0.117590
0.789742 -0.082383 -0.122389
0.846779 -0.085970 -0.125576
-0.133374 0.081446 -0.115812
-0.122004 0.081446 -0.110327
-0.092451 0.081446 -0.110327
0.084036 0.083084 -0.108998
0.107399 -0.034119 -0.109617
0.146277 -0.044487 -0.104355
0.196591 0.027734 -0.098834
0.258719 0.062501 -0.094289
0.331836 0.083707 -0.092239
0.413854 0.099356 -0.093932
0.498008 0.109499 -0.099112
0.579046 0.115076 -0.105729
0.655278 0.117630 -0.112419
0.725968 0.118266 -0.118357
0.789736 0.117761 -0.122968
0.846792 0.116608 -0.125912
-0.127959 0.110201 -0.111440
-0.115834 0.110201 -0.103168
-0.097518 0.110201 -0.103168
0.023110 0.110201 -0.103168
0.113880 0.111629 -0.101257
0.147837 0.098046 -0.101287
0.197245 0.106564 -0.096788
0.258983 0.123175 -0.093000
0.331803 0.141127 -0.092490
0.413661 0.158024 -0.095809
0.497776 0.171375 -0.101699
0.578808 0.180470 -0.108379
0.655078 0.186261 -0.114751
0.725818 0.189486 -0.120188
0.789635 0.190726 -0.124207
0.846725 0.190389 -0.126542
-0.123210 0.146023 -0.106295
-0.110343 0.146023 -0.096640
-0.093876 0.146023 -0.096640
-0.023957 0.146023 -0.096641
0.103380 0.146201 -0.096238
0.150835 0.146910 -0.094853
0.198377 0.152840 -0.093201
0.259150 0.168837 -0.092231
0.331541 0.188567 -0.094029
0.413279 0.208760 -0.098833
0.497404 0.225612 -0.105276
0.578495 0.237831 -0.111812
0.654834 0.246061 -0.117661
0.725809 0.251055 -0.122366
0.789617 0.253277 -0.125569
0.846668 0.253310 -0.127055
-0.120321 0.192315 -0.102616
-0.106952 0.192315 -0.092527
-0.088470 0.192315 -0.092527
0.039374 0.192315 -0.092527
0.111035 0.192361 -0.092448
0.157282 0.192414 -0.092265
0.198667 0.192567 -0.092239
0.258918 0.210166 -0.093388
0.331083 0.232867 -0.097028
0.412745 0.256768 -0.102948
0.496930 0.277318 -0.109623
0.578139 0.292468 -0.115766
0.654599 0.302921 -0.120846
0.725688 0.309434 -0.124595
0.789549 0.312502 -0.126720
0.846655 0.312741 -0.127180
-0.121148 0.249893 -0.103075
-0.107921 0.249893 -0.093713
-0.085805 0.249893 -0.093713
0.059793 0.249893 -0.093713
0.124917 0.249841 -0.093953
0.172742 0.249712 -0.094489
0.216280 0.249536 -0.095248
0.258295 0.249624 -0.096286
0.330353 0.275697 -0.101274
0.412064 0.303585 -0.107827
0.496367 0.327810 -0.114365
0.577776 0.345872 -0.119803
0.654385 0.358468 -0.123866
0.725497 0.366413 -0.126387
0.789613 0.370231 -0.127179
0.846655 0.370507 -0.127183
-0.126343 0.318361 -0.108676
-0.113962 0.318361 -0.100958
-0.088408 0.318361 -0.100958
0.072296 0.318361 -0.100958
0.139702 0.318268 -0.101473
0.191330 0.318114 -0.102301
0.238785 0.317931 -0.103370
0.284325 0.317622 -0.104704
0.329447 0.317858 -0.106287
0.411252 0.349798 -0.113018
0.495814 0.377736 -0.119011
0.577359 0.398725 -0.123440
0.654216 0.413406 -0.126189
0.725326 0.422732 -0.127177
0.789613 0.427159 -0.127182
0.846654 0.427298 -0.127185
-0.134407 0.396166 -0.117562
-0.123174 0.396166 -0.111669
-0.094966 0.396166 -0.111669
0.080877 0.396134 -0.111713
0.154034 0.396079 -0.112270
0.210550 0.395945 -0.113021
0.262588 0.395791 -0.113996
0.312608 0.395570 -0.115172
0.361591 0.395406 -0.116514
0.410568 0.395743 -0.118002
0.495307 0.427405 -0.123052
0.577082 0.451201 -0.126106
0.654094 0.468039 -0.127176
0.725325 0.478580 -0.127182
0.789612 0.483436 -0.127186
0.846654 0.483534 -0.127189
-0.142089 0.477118 -0.125873
-0.131758 0.477118 -0.121395
-0.101354 0.477118 -0.121395
0.087793 0.477099 -0.121476
0.166519 0.477064 -0.121844
0.227493 0.476983 -0.122336
0.283677 0.476908 -0.122945
0.337684 0.476818 -0.123649
0.390574 0.476681 -0.124428
0.442730 0.476593 -0.125213
0.494931 0.476922 -0.125969
0.576973 0.503632 -0.127178
0.654093 0.522374 -0.127183
0.725324 0.533957 -0.127186
0.789612 0.539272 -0.127189
0.846654 0.539340 -0.127193
-0.146441 0.556150 -0.130311
-0.136573 0.556150 -0.126762
-0.103527 0.556150 -0.126762
0.096184 0.556144 -0.126793
0.177357 0.556121 -0.126882
0.241314 0.556097 -0.126994
0.300409 0.556074 -0.127106
0.357319 0.556059 -0.127169
0.413128 0.556058 -0.127180
0.468163 0.556058 -0.127181
0.522733 0.556057 -0.127182
0.576972 0.555972 -0.127183
0.654093 0.576498 -0.127187
0.725323 0.589190 -0.127190
0.789612 0.594986 -0.127194
0.846653 0.594986 -0.127198
-0.146794 0.631296 -0.130170
-0.136957 0.631296 -0.127183
-0.100049 0.631296 -0.127183
0.106749 0.631296 -0.127184
0.187097 0.631296 -0.127184
0.252392 0.631296 -0.127184
0.313153 0.631295 -0.127185
0.371919 0.631295 -0.127185
0.429512 0.631295 -0.127186
0.486487 0.631295 -0.127187
0.542919 0.631295 -0.127188
0.599188 0.631295 -0.127190
0.654093 0.630291 -0.127191
0.725323 0.644085 -0.127195
0.789611 0.650314 -0.127199
0.846653 0.650317 -0.127191
-0.146798 0.701320 -0.129707
-0.136962 0.701320 -0.127190
-0.096562 0.701320 -0.127191
0.114148 0.701320 -0.127191
0.193703 0.701320 -0.127191
0.259729 0.701320 -0.127191
0.321508 0.701320 -0.127192
0.381350 0.701320 -0.127193
0.440159 0.701320 -0.127194
0.498299 0.701319 -0.127195
0.556015 0.701319 -0.127196
0.613469 0.701319 -0.127198
0.670624 0.701319 -0.127199
0.725322 0.699001 -0.127189
0.789611 0.705686 -0.127194
0.846653 0.705650 -0.127198
-0.146803 0.764675 -0.129369
-0.136967 0.764675 -0.127199
-0.093778 0.764675 -0.127199
0.118610 0.764675 -0.127199
0.197400 0.764675 -0.127199
0.263628 0.764675 -0.127200
0.325811 0.764675 -0.127189
0.386130 0.764675 -0.127189
0.445480 0.764675 -0.127190
0.504205 0.764675 -0.127191
0.562468 0.764674 -0.127193
0.620537 0.764674 -0.127195
0.678226 0.764674 -0.127196
0.736064 0.764674 -0.127198
0.789610 0.760829 -0.127200
0.846652 0.760756 -0.127204
-0.146808 0.820740 -0.129147
-0.136972 0.820740 -0.127196
-0.092015 0.820740 -0.127196
0.120482 0.820740 -0.127196
0.198418 0.820740 -0.127197
0.264392 0.820740 -0.127197
0.326477 0.820740 -0.127198
0.386754 0.820739 -0.127198
0.446051 0.820739 -0.127199
0.504777 0.820739 -0.127201
0.563063 0.820739 -0.127202
0.621147 0.820739 -0.127203
0.678919 0.820739 -0.127205
0.736735 0.820739 -0.127207
0.794214 0.820738 -0.127209
0.846652 0.815856 -0.127211
-0.141439 -0.135813 -0.049965
-0.131036 -0.135813 -0.049965
-0.057661 -0.135813 -0.049965
0.077034 -0.130609 -0.092511
0.107400 -0.126665 -0.101137
0.146277 -0.122398 -0.099231
0.196592 -0.118035 -0.092651
0.258719 -0.114514 -0.083750
0.331836 -0.112969 -0.074515
0.413897 -0.114157 -0.067191
0.498082 -0.117823 -0.064658
0.579091 -0.122854 -0.067172
0.655319 -0.128254 -0.072344
0.725992 -0.133281 -0.077985
0.789742 -0.137345 -0.082732
0.846779 -0.140077 -0.086078
-0.141440 -0.125736 -0.049965
-0.131036 -0.125736 -0.049965
-0.057661 -0.125736 -0.049966
0.077034 -0.119910 -0.087446
0.107400 -0.115455 -0.093145
0.146277 -0.110575 -0.089508
0.196592 -0.105511 -0.081524
0.258719 -0.101365 -0.071205
0.331836 -0.099531 -0.060687
0.413897 -0.100942 -0.053011
0.498082 -0.105263 -0.052148
0.579091 -0.111102 -0.057549
0.655319 -0.117253 -0.065277
0.725992 -0.122913 -0.072719
0.789742 -0.127440 -0.078618
0.846779 -0.130456 -0.082596
-0.141440 -0.053858 -0.049966
-0.131037 -0.053858 -0.049967
-0.057662 -0.053859 -0.049967
0.077033 -0.026433 -0.009766
0.107505 0.033852 0.041341
0.146580 0.049120 0.055443
0.197225 0.058446 0.064618
0.259592 0.063222 0.069432
0.332583 0.064802 0.071054
0.414356 0.062431 0.068732
0.498344 0.055561 0.061969
0.579224 0.043765 0.050691
0.655413 0.021201 0.032243
0.725992 -0.043427 -0.037957
0.789742 -0.059095 -0.055712
0.846779 -0.067234 -0.064444
-0.133374 0.081446 -0.086961
-0.122004 0.081446 -0.081408
0.021926 0.081482 0.038841
0.084141 0.083197 0.043454
0.108242 0.074682 0.044013
0.147060 0.082943 0.056935
0.197614 0.093653 0.065803
0.259819 0.103561 0.069807
0.332613 0.112632 0.070498
0.414348 0.120367 0.067170
0.498209 0.125792 0.059307
0.579100 0.128813 0.046549
0.655267 0.130047 0.023195
0.725924 0.128951 -0.042406
0.789723 0.126888 -0.057778
0.846785 0.124768 -0.065440
-0.127959 0.110201 -0.093864
-0.115834 0.110201 -0.084879
0.048425 0.110435 0.058355
0.082033 0.110579 0.058336
0.114210 0.111934 0.061709
0.149657 0.116793 0.066159
0.198709 0.128264 0.070171
0.260107 0.141727 0.071235
0.332526 0.155774 0.069806
0.414018 0.169381 0.064674
0.497928 0.180433 0.055064
0.578835 0.188129 0.039820
0.655012 0.193063 -0.020671
0.725778 0.195091 -0.049212
0.789625 0.195413 -0.061128
0.846720 0.194535 -0.066929
-0.123210 0.146023 -0.090901
-0.110343 0.146023 -0.079719
0.059889 0.146517 0.068875
0.090037 0.146666 0.068586
0.120880 0.147039 0.069683
0.151499 0.147492 0.070801
0.199373 0.161186 0.072546
0.260126 0.178534 0.071380
0.332197 0.197242 0.067731
0.413641 0.215920 0.060361
0.497538 0.231598 0.048098
0.578494 0.243027 0.026852
0.654809 0.250479 -0.039446
0.725838 0.254708 -0.056080
0.789610 0.256351 -0.064602
0.846666 0.256037 -0.068134
-0.120321 0.192315 -0.085697
-0.106952 0.192315 -0.073032
0.064276 0.193149 0.073085
0.098280 0.193247 0.072463
0.132297 0.193316 0.072635
0.166022 0.193375 0.072755
0.199594 0.193399 0.072553
0.259828 0.214666 0.069471
0.331649 0.237971 0.063763
0.412987 0.261473 0.053465
0.496946 0.281427 0.036413
0.578115 0.296114 -0.029160
0.654581 0.305961 -0.051435
0.725667 0.312011 -0.062149
0.789546 0.314685 -0.067357
0.846655 0.314662 -0.068386
-0.121148 0.249893 -0.083086
-0.107921 0.249893 -0.070371
0.061186 0.250755 0.070216
0.104502 0.250866 0.069045
0.144482 0.250774 0.068645
0.183125 0.250630 0.068026
0.221212 0.250448 0.067130
0.259172 0.250400 0.065681
0.330826 0.278186 0.057228
0.412226 0.306433 0.042601
0.496330 0.330581 -0.015108
0.577741 0.348379 -0.047880
0.654373 0.360641 -0.060249
0.725487 0.368292 -0.066576
0.789613 0.371850 -0.068384
0.846655 0.371961 -0.068391
-0.126343 0.318361 -0.085818
-0.113962 0.318361 -0.074949
0.049569 0.318784 0.059713
0.109171 0.318850 0.057766
0.156612 0.318751 0.056819
0.201097 0.318572 0.055444
0.244373 0.318338 0.053528
0.287055 0.318059 0.050982
0.329777 0.318138 0.047587
0.411291 0.351137 0.021117
0.495814 0.379393 -0.044760
0.577357 0.400376 -0.059039
0.654176 0.415024 -0.066094
0.725326 0.424094 -0.068383
0.789612 0.428321 -0.068390
0.846654 0.428399 -0.068390
-0.134407 0.396166 -0.092515
-0.123174 0.396166 -0.084238
-0.010291 0.396166 0.033969
0.112818 0.396214 0.028933
0.168600 0.396126 0.026025
0.219193 0.395939 0.021020
0.267921 0.395773 0.009167
0.315665 0.395537 -0.022798
0.362936 0.395381 -0.032432
0.410568 0.395743 -0.039885
0.495293 0.428174 -0.057820
0.577078 0.452243 -0.065862
0.654094 0.469082 -0.068381
0.725325 0.479555 -0.068391
0.789612 0.484321 -0.068390
0.846654 0.484383 -0.068397
-0.142089 0.477118 -0.099007
-0.131758 0.477118 -0.092744
-0.059884 0.477118 -0.052653
0.114356 0.477077 -0.053187
0.178365 0.477044 -0.054297
0.234663 0.476965 -0.055762
0.288296 0.476894 -0.057519
0.340657 0.476834 -0.059480
0.392270 0.476674 -0.061539
0.443530 0.476590 -0.063565
0.494931 0.476922 -0.065418
0.576973 0.504100 -0.068383
0.654093 0.523004 -0.068391
0.725324 0.534646 -0.068391
0.789612 0.539901 -0.068399
0.846654 0.540008 -0.068401
-0.146441 0.556150 -0.101131
-0.136573 0.556150 -0.096059
-0.072700 0.556150 -0.067370
0.117174 0.556140 -0.067489
0.186866 0.556118 -0.067708
0.247172 0.556095 -0.067966
0.304306 0.556073 -0.068215
0.360013 0.556059 -0.068368
0.414899 0.556058 -0.068385
0.469254 0.556058 -0.068387
0.523266 0.556057 -0.068389
0.576972 0.555972 -0.068384
0.654093 0.576797 -0.068393
0.725323 0.589603 -0.068401
0.789612 0.595405 -0.068404
0.846654 0.595456 -0.068411
-0.146794 0.631296 -0.097408
-0.136957 0.631296 -0.092921
-0.073613 0.631296 -0.068386
0.122695 0.631296 -0.068386
0.194661 0.631296 -0.068387
0.257144 0.631296 -0.068388
0.316433 0.631296 -0.068389
0.374166 0.631295 -0.068390
0.431155 0.631295 -0.068392
0.487555 0.631295 -0.068394
0.543637 0.631295 -0.068396
0.599502 0.631295 -0.068399
0.654093 0.630291 -0.068402
0.725323 0.644264 -0.068406
0.789611 0.650599 -0.068415
0.846653 0.650666 -0.068422
-0.146798 0.701320 -0.093685
-0.136962 0.701320 -0.089687
-0.073621 0.701320 -0.068401
0.126573 0.701320 -0.068402
0.199774 0.701320 -0.068402
0.263622 0.701320 -0.068403
0.324221 0.701320 -0.068404
0.383315 0.701320 -0.068401
0.441579 0.701320 -0.068403
0.499295 0.701320 -0.068405
0.556705 0.701319 -0.068408
0.613932 0.701319 -0.068411
0.670804 0.701319 -0.068414
0.725322 0.699001 -0.068418
0.789611 0.705836 -0.068423
0.846653 0.705901 -0.068431
-0.146803 0.764675 -0.090706
-0.136967 0.764675 -0.087108
-0.073640 0.764675 -0.068414
0.128680 0.764675 -0.068414
0.202401 0.764675 -0.068415
0.266866 0.764675 -0.068416
0.328103 0.764675 -0.068417
0.387790 0.764675 -0.068419
0.446769 0.764675 -0.068421
0.505144 0.764674 -0.068418
0.563138 0.764674 -0.068421
0.620992 0.764674 -0.068425
0.678539 0.764674 -0.068428
0.736226 0.764674 -0.068433
0.789610 0.760829 -0.068440
0.846652 0.760891 -0.068442
-0.146808 0.820740 -0.088793
-0.136972 0.820740 -0.085468
-0.073655 0.820740 -0.068428
0.129158 0.820740 -0.068428
0.202793 0.820740 -0.068429
0.267236 0.820740 -0.068430
0.328527 0.820740 -0.068432
0.388313 0.820739 -0.068433
0.447221 0.820739 -0.068438
0.505701 0.820739 -0.068441
0.563721 0.820739 -0.068434
0.621630 0.820739 -0.068440
0.679239 0.820739 -0.068443
0.736834 0.820739 -0.068447
0.794213 0.820739 -0.068452
0.846652 0.815856 -0.068453
-0.138672 -0.132884 0.074648
-0.133318 -0.132884 0.074648
-0.105928 -0.132884 0.074648
0.078092 -0.129980 0.080336
0.107400 -0.126665 -0.043756
0.146277 -0.122398 -0.055652
0.196592 -0.118035 -0.033806
0.258719 -0.114514 0.053647
0.331836 -0.112969 0.079760
0.413897 -0.114157 0.097711
0.498073 -0.117851 0.109307
0.579086 -0.122905 0.115605
0.655312 -0.128315 0.118470
0.725979 -0.133337 0.119116
0.789736 -0.137390 0.118464
0.846775 -0.140101 0.117067
-0.138672 -0.127676 0.074648
-0.127959 -0.122472 0.074648
-0.100950 -0.122472 0.074648
0.078092 -0.119208 0.080336
0.107400 -0.115455 -0.021187
0.146277 -0.110575 -0.033810
0.196592 -0.105511 0.040430
0.258719 -0.101365 0.069201
0.331836 -0.099531 0.089297
0.413893 -0.100955 0.104447
0.498071 -0.105304 0.114365
0.579085 -0.111170 0.119621
0.655311 -0.117336 0.121738
0.725978 -0.122975 0.121833
0.789736 -0.127492 0.120759
0.846775 -0.130489 0.119117
-0.138672 -0.100995 0.074647
-0.127960 -0.096125 0.074647
-0.046756 -0.041477 0.074647
0.078092 -0.019428 0.080336
0.107571 0.034147 0.077572
0.146643 0.049242 0.086460
0.197248 0.058541 0.097456
0.259604 0.063268 0.107836
0.332585 0.064783 0.117296
0.414368 0.062342 0.125236
0.498341 0.055395 0.130629
0.579213 0.043498 0.133449
0.655326 0.020485 0.134362
0.725973 -0.043801 0.132697
0.789735 -0.059279 0.130046
0.846775 -0.067329 0.127429
-0.133066 0.081949 0.085603
-0.121646 0.081949 0.085603
0.024773 0.081998 0.085659
0.084496 0.083501 0.087211
0.111303 0.086079 0.089975
0.151054 0.088053 0.092038
0.203028 0.088535 0.092546
0.265159 0.088084 0.092065
0.337178 0.087366 0.091304
0.417969 0.084758 0.088504
0.501161 0.079670 0.083036
0.581384 0.072481 0.075295
0.657115 0.063630 0.065696
0.727497 0.053540 0.054655
0.790846 0.043092 0.042986
0.847640 0.033829 0.032172
-0.127959 0.110201 0.022790
-0.115834 0.110201 0.043515
0.048505 0.110453 0.086188
0.089088 0.111642 0.092072
0.114750 0.112186 0.092655
0.152082 0.118747 0.094206
0.202170 0.126576 0.094227
0.263885 0.134898 0.092746
0.336026 0.143861 0.090720
0.417043 0.152561 0.086765
0.500379 0.159409 0.080373
0.580818 0.163824 0.071976
0.656630 0.166248 0.061960
0.727019 0.167124 0.050729
0.790646 0.166794 0.039163
0.847564 0.165672 0.029279
-0.123210 0.146023 -0.030788
