kpg/editing/luts/EditorsKeys Cinematic Lut Pack/Editors Keys Orange and Teal.cube
LUT_3D_SIZE 6
0.000000 0.014598 0.053620
0.005599 0.014598 0.053620
0.212202 0.014598 0.053620
0.514609 0.014598 0.053620
0.702372 0.014598 0.053620
0.851364 0.014598 0.053620
0.000000 0.045466 0.053620
0.005822 0.042938 0.053620
0.212147 0.014598 0.053620
0.514613 0.014598 0.053620
0.702354 0.014598 0.053620
0.837889 0.070024 0.053620
0.000000 0.180938 0.053620
0.000000 0.180937 0.053620
0.192768 0.178751 0.053620
0.523402 0.266076 0.053620
0.745567 0.331971 0.053620
0.895251 0.369595 0.053620
0.000000 0.375666 0.053620
0.007407 0.375666 0.053620
0.304828 0.375462 0.053620
0.569003 0.412205 0.057473
0.786775 0.495937 0.053620
0.934295 0.540477 0.053620
0.000000 0.585811 0.053620
0.051499 0.585811 0.053620
0.397695 0.611153 0.053620
0.604696 0.613825 0.053620
0.843189 0.613430 0.076048
0.939620 0.680949 0.053620
0.000000 0.823450 0.053620
0.058099 0.833722 0.053620
0.427764 0.843499 0.053620
0.643283 0.824527 0.053620
0.824032 0.839867 0.053909
1.042600 0.798554 0.093751
0.000000 0.014598 0.072572
0.004144 0.014598 0.075637
0.212194 0.014598 0.053620
0.514602 0.014598 0.053620
0.702370 0.014598 0.053620
0.873717 0.014598 0.053620
0.000000 0.070821 0.096328
0.002493 0.046384 0.077974
0.167962 0.036636 0.053620
0.492168 0.036749 0.053620
0.698525 0.037092 0.053620
0.857159 0.041851 0.053620
0.000000 0.180938 0.053620
0.010410 0.179569 0.103014
0.187510 0.176558 0.060431
0.523930 0.267849 0.053620
0.746153 0.331341 0.053620
0.895545 0.366176 0.053620
0.000000 0.375666 0.096951
0.029658 0.379199 0.138819
0.304990 0.378795 0.124176
0.568110 0.411689 0.057935
0.786634 0.497143 0.053620
0.935354 0.540587 0.083815
0.000000 0.585810 0.158069
0.036010 0.594738 0.153569
0.385931 0.618876 0.128410
0.604497 0.618346 0.091510
0.846945 0.615442 0.077688
0.940351 0.682295 0.102665
0.000000 0.832404 0.197525
0.018027 0.834712 0.151494
0.413335 0.854147 0.098973
0.639977 0.829893 0.078129
0.821714 0.845290 0.053670
1.033159 0.806893 0.148546
0.000000 0.014598 0.115669
0.000000 0.014598 0.115511
0.150722 0.014598 0.192114
0.552086 0.014598 0.246580
0.755952 0.014598 0.268924
0.911601 0.014598 0.274254
0.000000 0.014598 0.115390
0.000120 0.059870 0.129675
0.123118 0.061503 0.185401
0.528020 0.053042 0.244094
0.755943 0.042694 0.266617
0.918011 0.014598 0.270997
0.000000 0.188333 0.192927
0.000000 0.184674 0.189535
0.059667 0.219686 0.231905
0.588263 0.200275 0.153899
0.795178 0.160936 0.097082
0.931979 0.242835 0.158953
0.000000 0.398780 0.287871
0.002649 0.400443 0.291149
0.054509 0.424401 0.214370
0.585781 0.431515 0.142694
0.803439 0.487256 0.074236
0.944962 0.531997 0.183602
0.000000 0.625605 0.365229
0.009005 0.631582 0.365532
0.051754 0.639094 0.209836
0.572500 0.638995 0.133654
0.854795 0.627843 0.129824
0.949384 0.692041 0.178273
0.000000 0.856626 0.391585
0.003244 0.861654 0.389298
0.024898 0.860041 0.207362
0.589971 0.861437 0.131655
0.804983 0.860061 0.108925
1.030393 0.821619 0.183608
0.000000 0.014598 0.180150
0.000000 0.014598 0.180050
0.187417 0.014598 0.344480
0.467796 0.014598 0.385145
0.688027 0.014598 0.449505
0.871492 0.014598 0.477863
0.000000 0.023767 0.180101
0.000000 0.082873 0.191056
0.140293 0.111044 0.354610
0.447436 0.087689 0.380376
0.686359 0.080834 0.451132
0.876080 0.072627 0.480272
0.000000 0.247592 0.280594
0.000000 0.252746 0.285505
0.032351 0.256044 0.369516
0.503010 0.209781 0.460792
0.767259 0.155023 0.478984
0.948272 0.211317 0.463514
0.000000 0.403885 0.403958
0.000000 0.403298 0.403275
0.000000 0.429006 0.425369
0.479069 0.514968 0.541552
0.852969 0.474660 0.423236
0.962982 0.505376 0.449283
0.000000 0.611577 0.498731
0.000045 0.622095 0.504577
0.002731 0.659202 0.490017
0.334008 0.732095 0.386827
0.860455 0.688288 0.376869
0.965937 0.722693 0.472971
0.000000 0.849100 0.550229
0.000000 0.857994 0.550314
0.001726 0.880646 0.508336
0.419967 0.931357 0.440520
0.775030 0.912231 0.389790
1.021721 0.866272 0.357027
0.000000 0.014598 0.269769
0.000000 0.014598 0.269729
0.150962 0.038946 0.516147
0.506380 0.014598 0.537337
0.650398 0.014598 0.582526
0.833828 0.014598 0.646278
0.000000 0.087802 0.269772
0.000000 0.117929 0.284387
0.061975 0.168106 0.498514
0.503837 0.119285 0.543450
0.653276 0.107139 0.589033
0.837933 0.099979 0.651547
0.000000 0.299151 0.419352
0.000000 0.304964 0.428024
0.019036 0.287886 0.505533
0.513039 0.227252 0.683922
0.713559 0.174139 0.671694
0.898977 0.241991 0.692880
0.000000 0.500629 0.544467
0.000000 0.503899 0.549216
0.000000 0.504637 0.576393
0.414149 0.533576 0.801181
0.818661 0.478730 0.795264
0.974954 0.507681 0.716940
0.000000 0.635631 0.651726
0.000000 0.639073 0.653826
0.000000 0.661180 0.673306
0.000000 0.746891 0.765990
0.821789 0.762245 0.792898
0.979722 0.757425 0.762954
0.000000 0.837484 0.700807
0.000000 0.845748 0.703157
0.001330 0.865203 0.690306
0.348720 0.939319 0.713630
0.773350 0.964129 0.755996
1.002739 0.928942 0.762437
0.000000 0.014598 0.415777
0.000000 0.025780 0.446992
0.121900 0.078235 0.669385
0.537160 0.056470 0.746144
0.696444 0.014598 0.768423
0.828092 0.014598 0.807775
0.000000 0.183902 0.429619
0.000000 0.175020 0.437225
0.051796 0.241281 0.655464
0.524531 0.176359 0.776542
0.694948 0.144698 0.777276
0.834481 0.119020 0.819183
0.000000 0.374450 0.621051
0.000000 0.377657 0.629716
0.036009 0.362297 0.676869
0.427503 0.308557 0.952702
0.722858 0.282432 0.865968
0.881681 0.258873 0.893263
0.000000 0.548469 0.759821
0.000000 0.550453 0.766142
0.007146 0.578369 0.875175
0.413809 0.552127 0.945698
0.782898 0.534681 0.961006
0.936334 0.532236 0.954925
0.000000 0.737863 0.835261
0.000000 0.739867 0.838142
0.000000 0.750592 0.865045
0.305906 0.763777 0.955550
0.801152 0.773779 0.991080
0.967968 0.775086 0.978878
0.000000 0.871706 0.906617
0.000000 0.877553 0.910238
0.000000 0.892919 0.919721
0.000000 0.951739 0.961137
0.721798 0.968616 0.978184
0.995085 0.968244 0.991498
