kpg/editing/luts/EditorsKeys Cinematic Lut Pack/Editors Keys Neon Nights.cube
LUT_3D_SIZE 16
0.000000 0.007747 0.058116
0.010500 0.007747 0.058116
0.048072 0.007747 0.058116
0.115566 0.007747 0.058116
0.188433 0.007747 0.058116
0.257130 0.007747 0.058116
0.327507 0.007747 0.058116
0.386375 0.007747 0.058116
0.428406 0.007747 0.058116
0.465015 0.007747 0.058116
0.498163 0.007747 0.058116
0.530976 0.007747 0.058116
0.565079 0.007747 0.058116
0.600320 0.007747 0.058116
0.635547 0.007747 0.058116
0.673801 0.010914 0.058116
0.000000 0.031499 0.058116
0.014233 0.028691 0.059179
0.031797 0.029920 0.058116
0.068416 0.033397 0.058116
0.116784 0.037732 0.058116
0.173046 0.040965 0.058116
0.229516 0.041966 0.058116
0.288434 0.041398 0.058116
0.354626 0.041415 0.058116
0.412500 0.042266 0.058116
0.453974 0.042521 0.058116
0.491401 0.043280 0.058116
0.530689 0.044012 0.058116
0.572267 0.045519 0.058116
0.618961 0.047951 0.058116
0.660773 0.050885 0.058116
0.000000 0.072928 0.058116
0.019057 0.065252 0.058116
0.039990 0.059936 0.059429
0.080147 0.061756 0.058935
0.121579 0.068856 0.058240
0.173780 0.076760 0.058116
0.234684 0.082854 0.058116
0.288094 0.085141 0.058116
0.337031 0.084727 0.058116
0.385637 0.081684 0.058116
0.427429 0.078244 0.058116
0.460133 0.076595 0.058116
0.493667 0.075165 0.058116
0.531333 0.075207 0.058116
0.573649 0.077218 0.058116
0.617928 0.080450 0.058116
0.000000 0.117146 0.058116
0.019797 0.114178 0.058116
0.044709 0.105560 0.058116
0.097292 0.097335 0.061622
0.149873 0.101803 0.061088
0.199864 0.111926 0.059489
0.256610 0.123603 0.058625
0.309783 0.133057 0.058226
0.356435 0.139088 0.058116
0.406128 0.143593 0.058116
0.454306 0.147253 0.058116
0.493166 0.149711 0.058116
0.524652 0.152120 0.058116
0.560414 0.155985 0.058116
0.602667 0.162276 0.058116
0.651984 0.170929 0.058116
0.000000 0.160810 0.058116
0.015408 0.158905 0.058116
0.048370 0.154619 0.058116
0.108377 0.146089 0.058116
0.174359 0.139874 0.064241
0.233129 0.149190 0.063903
0.290684 0.162661 0.061886
0.346686 0.175403 0.060465
0.392956 0.184942 0.059585
0.436154 0.193719 0.059016
0.480141 0.202530 0.058626
0.522364 0.210185 0.058354
0.556173 0.216546 0.058226
0.590277 0.224104 0.058156
0.630950 0.234430 0.058116
0.679276 0.246681 0.058116
0.000000 0.206047 0.058116
0.013821 0.205364 0.058116
0.038072 0.205170 0.058116
0.108843 0.191568 0.058116
0.194004 0.189413 0.058116
0.256302 0.189402 0.066491
0.322774 0.202282 0.067268
0.382639 0.217666 0.065450
0.432210 0.229985 0.063885
0.475661 0.240262 0.062663
0.519228 0.250750 0.061717
0.563668 0.261946 0.061007
0.601979 0.271581 0.060502
0.635295 0.280607 0.060191
0.674864 0.292283 0.059948
0.719954 0.305952 0.059740
0.000000 0.249782 0.058116
0.007001 0.250270 0.058116
0.023548 0.251975 0.058116
0.105164 0.248288 0.058116
0.184213 0.241544 0.058116
0.280813 0.238577 0.058116
0.339712 0.244771 0.068166
0.411815 0.259255 0.070946
0.465750 0.273374 0.069990
0.509278 0.284315 0.068586
0.551979 0.295720 0.067306
0.597374 0.307935 0.066097
0.640697 0.320097 0.065168
0.674853 0.330068 0.064560
0.713740 0.342360 0.064113
0.757864 0.356679 0.063698
0.000000 0.292604 0.058116
0.000000 0.293795 0.058116
0.000000 0.296250 0.058116
0.088283 0.301520 0.058116
0.186472 0.286481 0.058116
0.265931 0.290142 0.058116
0.366998 0.287601 0.058621
0.418304 0.299846 0.069247
0.486782 0.313384 0.073742
0.534320 0.325041 0.074212
0.578624 0.337221 0.073614
0.624184 0.350472 0.072634
0.670537 0.364276 0.071554
0.708422 0.376175 0.070774
0.746996 0.389079 0.070190
0.790738 0.403855 0.069600
0.000000 0.336363 0.058116
0.000000 0.337878 0.058116
0.000000 0.341329 0.058116
0.065462 0.349905 0.058116
0.182609 0.341113 0.058116
0.250608 0.339584 0.058116
0.345774 0.340867 0.058116
0.449625 0.336655 0.059276
0.483842 0.352536 0.068924
0.543863 0.362900 0.074395
0.594389 0.374026 0.076902
0.642489 0.387429 0.077558
0.691725 0.402720 0.077388
0.734499 0.416100 0.076857
0.773362 0.428637 0.076252
0.816878 0.442716 0.075487
0.000000 0.375948 0.058116
0.000000 0.378967 0.058116
0.000000 0.384642 0.058116
0.018165 0.396286 0.058116
0.168535 0.396567 0.058116
0.257084 0.381021 0.058116
0.328408 0.388704 0.058116
0.423277 0.392100 0.058116
0.522098 0.385520 0.059351
0.533929 0.402412 0.066898
0.594829 0.411163 0.073442
0.649308 0.422869 0.077660
0.705467 0.436731 0.080147
0.753343 0.450910 0.080902
0.793224 0.463668 0.081033
0.836971 0.477906 0.080786
0.000000 0.414004 0.058116
0.000000 0.417798 0.058116
0.000000 0.425326 0.058116
0.000000 0.439277 0.058116
0.144838 0.447214 0.058116
0.251609 0.433149 0.058116
0.307057 0.435976 0.058116
0.402640 0.438035 0.058116
0.496085 0.441815 0.058116
0.579714 0.436781 0.058491
0.577540 0.450340 0.064197
0.644076 0.459281 0.071766
0.706024 0.472116 0.077427
0.762598 0.486017 0.081233
0.808120 0.497955 0.083163
0.854987 0.511374 0.084116
0.000000 0.454543 0.058116
0.000000 0.458881 0.058116
0.000000 0.467813 0.058116
0.000000 0.482753 0.058116
0.111278 0.494020 0.058116
0.240832 0.483658 0.058116
0.321640 0.471763 0.058116
0.383975 0.486296 0.058116
0.475089 0.487437 0.058116
0.556872 0.489080 0.058116
0.630742 0.485046 0.058116
0.689202 0.486504 0.063053
0.694348 0.508850 0.070484
0.763589 0.522178 0.076723
0.814587 0.534524 0.080846
0.865259 0.547256 0.084119
0.000000 0.500209 0.058116
0.000000 0.505306 0.058116
0.000000 0.516507 0.058116
0.000000 0.532040 0.058116
0.043529 0.546004 0.058116
0.223457 0.538330 0.058116
0.316184 0.525693 0.058116
0.376242 0.524554 0.058116
0.458281 0.536857 0.058116
0.536492 0.536377 0.058116
0.610669 0.536856 0.058116
0.685790 0.534899 0.058116
0.767302 0.532206 0.061680
0.750742 0.559725 0.070937
0.812937 0.570321 0.076107
0.868735 0.581956 0.080254
0.000000 0.555196 0.058116
0.000000 0.562252 0.058116
0.000000 0.576157 0.058116
0.000000 0.591062 0.058116
0.000000 0.606394 0.058116
0.194659 0.601837 0.058116
0.306084 0.588277 0.058116
0.386592 0.575815 0.058116
0.434063 0.593690 0.058116
0.519337 0.592864 0.058116
0.589989 0.590585 0.058116
0.667564 0.591186 0.058116
0.748080 0.589803 0.058116
0.834872 0.586058 0.060778
0.807233 0.610666 0.065917
0.861243 0.622663 0.078081
0.000000 0.617537 0.058116
0.000000 0.631323 0.058116
0.000000 0.646530 0.058116
0.000000 0.661283 0.058116
0.000000 0.677404 0.058116
0.144945 0.675915 0.058116
0.288765 0.661734 0.058116
0.382705 0.647923 0.058116
0.457170 0.637508 0.058116
0.492096 0.660883 0.058116
0.571268 0.658409 0.058116
0.647350 0.655017 0.058116
0.732818 0.656171 0.058116
0.823763 0.654079 0.058116
0.888735 0.648086 0.058707
0.960029 0.651295 0.063532
0.000000 0.690631 0.058116
0.000000 0.703460 0.058116
0.000000 0.717189 0.058116
0.000000 0.731775 0.058116
0.000000 0.748363 0.058116
0.065450 0.745926 0.058116
0.268408 0.732394 0.058116
0.375787 0.719901 0.058116
0.454758 0.706970 0.058116
0.516085 0.704517 0.058116
0.542869 0.730766 0.058116
0.627773 0.730177 0.058116
0.714498 0.727999 0.058116
0.809911 0.728923 0.058116
0.881307 0.723871 0.058116
0.941158 0.717174 0.058116
0.000000 0.007747 0.070924
0.007312 0.007747 0.078288
0.049315 0.007747 0.072637
0.124357 0.007747 0.065171
0.205919 0.007747 0.058116
0.271943 0.007747 0.058116
0.338568 0.007747 0.058116
0.402687 0.007747 0.058116
0.449638 0.007747 0.058116
0.485055 0.007747 0.058116
0.517612 0.007747 0.058116
0.550349 0.007747 0.058116
0.584606 0.007747 0.058116
0.622468 0.007747 0.058116
0.659404 0.007747 0.058116
0.698330 0.007747 0.058116
0.000000 0.032296 0.081761
0.005864 0.033491 0.084998
0.028832 0.032070 0.077059
0.079270 0.030858 0.067412
0.147629 0.029580 0.060043
0.211727 0.029934 0.058116
0.274032 0.030587 0.058116
0.338524 0.030840 0.058116
0.396483 0.031815 0.058116
0.446245 0.032704 0.058116
0.483786 0.033338 0.058116
0.519429 0.034251 0.058116
0.555872 0.035362 0.058116
0.595291 0.036967 0.058116
0.639219 0.038891 0.058116
0.681428 0.041511 0.058116
0.000000 0.067084 0.092560
0.008906 0.068147 0.087697
0.035413 0.060217 0.073318
0.076995 0.060230 0.067835
0.125765 0.062788 0.058464
0.175481 0.067771 0.058116
0.231675 0.072336 0.058116
0.281752 0.072766 0.058116
0.330418 0.070893 0.058116
0.382770 0.067567 0.058116
0.428348 0.064147 0.058116
0.464720 0.062611 0.058116
0.500367 0.061804 0.058116
0.539878 0.062086 0.058116
0.587596 0.064267 0.058116
0.638187 0.067150 0.058116
0.000000 0.110464 0.108250
0.004215 0.112222 0.101115
0.039923 0.103446 0.082444
0.090081 0.097424 0.088551
0.147019 0.098034 0.061473
0.195187 0.106831 0.059098
0.250871 0.117842 0.058418
0.303669 0.126459 0.058139
0.352078 0.131378 0.058116
0.401069 0.135091 0.058116
0.449183 0.137720 0.058116
0.487878 0.139292 0.058116
0.519529 0.141057 0.058116
0.555463 0.144270 0.058116
0.598130 0.150056 0.058116
0.647444 0.158303 0.058116
0.000000 0.155546 0.125956
0.000000 0.156816 0.117671
0.037013 0.155613 0.099809
0.099009 0.144638 0.058116
0.168447 0.139258 0.084177
0.228155 0.145067 0.064285
0.284902 0.157967 0.061886
0.340758 0.170281 0.060106
0.386498 0.179454 0.059300
0.429552 0.187859 0.058796
0.473710 0.195990 0.058443
0.517407 0.203501 0.058227
0.551863 0.209708 0.058148
0.586303 0.217208 0.058123
0.629139 0.227341 0.058117
0.678303 0.239866 0.058116
0.000000 0.202341 0.143987
0.005946 0.202973 0.131500
0.025857 0.203277 0.110069
0.098739 0.193111 0.095565
0.186595 0.187792 0.058116
0.251093 0.186923 0.078884
0.317885 0.198925 0.069008
0.378280 0.214125 0.065824
0.427824 0.226265 0.064121
0.471295 0.236101 0.062284
0.514487 0.246423 0.061385
0.559498 0.257627 0.060694
0.598524 0.267352 0.060215
0.632362 0.276536 0.059926
0.672716 0.288605 0.059715
0.718692 0.302778 0.059550
0.000000 0.248126 0.156026
0.000000 0.248727 0.141086
0.016205 0.250653 0.121213
0.088833 0.250848 0.102840
0.174414 0.242493 0.058116
0.274681 0.238139 0.058116
0.334576 0.242983 0.082150
0.407615 0.256282 0.073289
0.462079 0.270476 0.071787
0.505767 0.281290 0.069427
0.548454 0.292523 0.068066
0.593916 0.304741 0.066352
0.637996 0.317070 0.065334
0.673459 0.327561 0.064253
0.713131 0.340342 0.063832
0.757977 0.354908 0.063443
0.000000 0.292483 0.162976
0.000000 0.292870 0.144555
0.000000 0.295561 0.122396
0.066061 0.302764 0.058116
0.177497 0.289469 0.058116
0.258006 0.290454 0.058116
0.361321 0.288558 0.058405
0.413475 0.299632 0.084601
0.483793 0.312000 0.079072
0.532082 0.323632 0.077575
0.576788 0.335660 0.075915
0.622142 0.348923 0.074451
0.669585 0.363135 0.072717
0.708331 0.375344 0.071935
0.747751 0.388369 0.071059
0.791693 0.403641 0.070799
0.000000 0.337682 0.164338
0.000000 0.337711 0.140642
0.000000 0.341068 0.111422
0.032634 0.350392 0.058116
0.169032 0.345899 0.058116
0.239718 0.341895 0.058116
0.339147 0.342055 0.058116
0.443790 0.338858 0.058799
0.479830 0.352675 0.083924
0.541293 0.362600 0.083892
0.592418 0.373649 0.082323
0.641050 0.386989 0.081636
0.691199 0.402506 0.081446
0.734842 0.416202 0.080160
0.773987 0.429033 0.078832
0.817858 0.443172 0.077094
0.000000 0.379941 0.157321
0.000000 0.380544 0.123563
0.000000 0.385880 0.058116
0.000000 0.397666 0.058116
0.146012 0.403074 0.058116
0.248593 0.385503 0.058116
0.319844 0.391730 0.058116
0.416995 0.394180 0.058116
0.517486 0.390024 0.058744
0.529772 0.404000 0.087048
0.591643 0.411599 0.086746
0.646917 0.423297 0.087839
0.703461 0.437278 0.086238
0.753622 0.451787 0.085523
0.793859 0.464711 0.085768
0.837793 0.478877 0.085624
0.000000 0.419508 0.140889
0.000000 0.419920 0.058116
0.000000 0.427039 0.058116
0.000000 0.441630 0.058116
0.110913 0.452768 0.058116
0.239582 0.440287 0.058116
0.308746 0.432829 0.058116
0.396136 0.442311 0.058116
0.490530 0.445117 0.058116
0.575465 0.441288 0.058199
0.585065 0.450196 0.063665
0.640359 0.460412 0.088866
0.703466 0.473222 0.090965
0.761647 0.487281 0.091970
0.808325 0.499340 0.090757
0.855550 0.512577 0.089339
0.000000 0.461073 0.083758
0.000000 0.461616 0.058116
0.000000 0.470179 0.058116
0.000000 0.486013 0.058116
0.052531 0.500344 0.058116
0.224129 0.492428 0.058116
0.313476 0.478966 0.058116
0.373462 0.491418 0.058116
0.468771 0.491310 0.058116
0.552079 0.493746 0.058116
0.627198 0.490458 0.058116
0.703527 0.487542 0.062204
0.690170 0.511343 0.091339
0.762120 0.524372 0.093733
0.814140 0.536714 0.095309
0.864946 0.549165 0.096252
0.000000 0.507546 0.058116
0.000000 0.508214 0.058116
0.000000 0.519484 0.058116
0.000000 0.535501 0.058116
0.000000 0.551324 0.058116
0.201151 0.547754 0.058116
0.305642 0.533844 0.058116
0.380419 0.522911 0.058116
0.450740 0.542319 0.058116
0.530770 0.540836 0.058116
0.605825 0.542050 0.058116
0.682297 0.540789 0.058116
0.762875 0.537855 0.060675
0.748533 0.563797 0.094674
0.811560 0.574086 0.099132
0.867925 0.585770 0.101208
0.000000 0.562758 0.058116
0.000000 0.565325 0.058116
0.000000 0.579495 0.058116
0.000000 0.594991 0.058116
0.000000 0.610872 0.058116
0.162564 0.611995 0.058116
0.292674 0.596817 0.058116
0.379260 0.583173 0.058116
0.430762 0.595409 0.058116
0.512852 0.599101 0.058116
0.584308 0.595734 0.058116
0.663011 0.597155 0.058116
0.744653 0.596049 0.058116
0.831946 0.592464 0.059944
0.826980 0.611489 0.065441
0.859968 0.627682 0.103954
0.000000 0.628363 0.058116
0.000000 0.635981 0.058116
0.000000 0.651747 0.058116
0.000000 0.666990 0.058116
0.000000 0.683423 0.058116
0.079544 0.688419 0.058116
0.270395 0.671958 0.058116
0.372951 0.657157 0.058116
0.450951 0.644315 0.058116
0.486750 0.665057 0.058116
0.564421 0.665640 0.058116
0.641572 0.661629 0.058116
0.728096 0.663165 0.058116
0.820304 0.661042 0.058116
0.886892 0.655139 0.058327
0.961554 0.658013 0.062483
0.000000 0.701509 0.058116
0.000000 0.709270 0.058116
0.000000 0.723545 0.058116
0.000000 0.738203 0.058116
0.000000 0.755391 0.058116
0.000000 0.761160 0.058116
0.243918 0.745726 0.058116
0.364332 0.731476 0.058116
0.448911 0.717995 0.058116
0.510712 0.712159 0.058116
0.540695 0.735095 0.058116
0.620635 0.738890 0.058116
0.709643 0.736514 0.058116
0.805411 0.737092 0.058116
0.879076 0.732108 0.058116
0.939628 0.724889 0.058116
0.000000 0.007747 0.079207
0.000000 0.007747 0.092708
0.030901 0.007747 0.113794
0.108560 0.007747 0.110216
0.204020 0.007747 0.095363
0.290014 0.007747 0.084251
0.364997 0.007747 0.077925
0.437408 0.007747 0.072649
0.493632 0.007747 0.068558
0.530611 0.007747 0.065720
0.564842 0.007747 0.063101
0.598880 0.007747 0.059201
0.633357 0.007747 0.058116
0.670437 0.007747 0.058116
0.708336 0.007747 0.058116
0.746264 0.007747 0.058116
0.000000 0.036289 0.091681
0.000000 0.039864 0.097287
0.017322 0.041671 0.110586
0.074556 0.037736 0.102763
0.154949 0.032646 0.091420
0.242163 0.024999 0.080901
0.321961 0.017800 0.072657
0.392559 0.013947 0.066499
0.456751 0.013064 0.060774
0.507167 0.014281 0.058116
0.540557 0.016433 0.058116
0.573762 0.018096 0.058116
0.608449 0.019683 0.058116
0.648075 0.021265 0.058116
0.692661 0.023193 0.058116
0.735733 0.025480 0.058116
0.000000 0.066602 0.109732
0.000000 0.068744 0.113579
0.014011 0.070728 0.121106
0.065141 0.072204 0.112381
0.127737 0.071807 0.101519
0.202204 0.067711 0.085848
0.277248 0.058835 0.071172
0.330710 0.047457 0.062256
0.382198 0.039678 0.058116
0.437683 0.036524 0.058116
0.486837 0.035020 0.058116
0.524651 0.035114 0.058116
0.562990 0.036008 0.058116
0.604764 0.037448 0.058116
0.653089 0.039703 0.058116
0.697840 0.042503 0.058116
0.000000 0.109083 0.124905
0.000000 0.109822 0.125713
0.015524 0.112212 0.127387
0.086291 0.104701 0.058454
0.145587 0.106041 0.099698
0.210629 0.107224 0.073333
0.269910 0.110680 0.060973
0.315816 0.114167 0.058116
0.359271 0.115828 0.058116
0.404027 0.116354 0.058116
0.448390 0.114966 0.058116
0.482467 0.112606 0.058116
0.511852 0.111305 0.058116
0.545947 0.110558 0.058116
0.586484 0.111808 0.058116
0.633488 0.114952 0.058116
0.000000 0.155552 0.144621
0.000000 0.155845 0.143407
0.008750 0.157759 0.138021
0.076064 0.151591 0.113056
0.157263 0.146476 0.117583
0.231294 0.145189 0.072497
0.287381 0.154169 0.060689
0.341161 0.165100 0.059516
0.385670 0.173163 0.058847
0.427697 0.180164 0.058445
0.472945 0.186457 0.058191
0.516439 0.192002 0.058117
0.550374 0.196518 0.058116
0.586210 0.202544 0.058116
0.629109 0.211423 0.058116
0.678311 0.222638 0.058116
0.000000 0.203397 0.162894
0.000000 0.203439 0.159606
0.010297 0.204464 0.149221
0.064962 0.204353 0.128043
0.168060 0.193114 0.058116
0.244065 0.191833 0.102295
0.317045 0.197428 0.069879
0.378683 0.212058 0.065320
0.427990 0.223355 0.063488
0.471077 0.232539 0.061757
0.513945 0.242246 0.060887
0.559055 0.252611 0.060194
0.596874 0.261321 0.059739
0.630675 0.269927 0.059466
0.670786 0.281513 0.059273
0.717164 0.295466 0.059121
0.000000 0.251518 0.178178
0.000000 0.251997 0.173231
0.005177 0.252110 0.158270
0.043110 0.256789 0.133656
0.160495 0.244737 0.058116
0.261611 0.242562 0.058116
0.329205 0.244568 0.092355
0.405918 0.254909 0.073399
0.461685 0.268911 0.071499
0.505789 0.279471 0.068938
0.549166 0.290202 0.067024
0.594554 0.302120 0.065732
0.638101 0.313927 0.064286
0.673838 0.324130 0.063693
0.713651 0.336668 0.063282
0.758367 0.350971 0.062892
0.000000 0.297668 0.189179
0.000000 0.298012 0.182043
0.000000 0.297441 0.162005
0.017097 0.303655 0.136218
0.152114 0.302166 0.058116
0.242017 0.295158 0.058116
0.350815 0.293387 0.058116
0.408633 0.300673 0.089582
0.482095 0.311498 0.079105
0.532246 0.323289 0.077398
0.577652 0.335126 0.075544
0.623262 0.348130 0.074168
0.671181 0.362133 0.072376
0.709852 0.374115 0.071555
0.749446 0.386852 0.070448
0.793301 0.401747 0.070193
0.000000 0.344015 0.196135
0.000000 0.344350 0.185497
0.000000 0.342768 0.159181
0.000000 0.349900 0.126730
0.129921 0.359536 0.058116
0.237894 0.339381 0.058116
0.326539 0.345352 0.058116
0.434676 0.344165 0.058185
0.475857 0.353659 0.085327
0.540360 0.363230 0.083944
0.592648 0.374263 0.082529
0.642103 0.387499 0.081724
0.692993 0.403006 0.081413
0.736901 0.416492 0.079822
0.776161 0.429071 0.078601
0.820302 0.443145 0.076894
0.000000 0.388379 0.195406
0.000000 0.389530 0.180821
0.000000 0.386843 0.146489
0.000000 0.396414 0.084940
0.089307 0.411415 0.058116
0.232477 0.394659 0.058116
0.305122 0.396217 0.058116
0.407295 0.397552 0.058116
0.511244 0.395531 0.058240
0.526501 0.405754 0.088692
0.590471 0.412638 0.086773
0.647115 0.424197 0.087903
0.704608 0.438163 0.086311
0.755347 0.452555 0.085607
0.795915 0.465375 0.085791
0.840069 0.479526 0.085509
0.000000 0.429281 0.188887
0.000000 0.430526 0.169281
0.000000 0.427428 0.117137
0.000000 0.440292 0.058116
0.008352 0.458474 0.058116
0.217493 0.450948 0.058116
0.306986 0.433976 0.058116
0.385306 0.446990 0.058116
0.482918 0.449180 0.058116
0.571427 0.446058 0.058116
0.602749 0.448711 0.063265
0.638683 0.461826 0.088760
0.703271 0.474276 0.090962
0.763037 0.488498 0.092111
0.809976 0.500315 0.090785
0.857436 0.513365 0.089363
0.000000 0.471052 0.173460
0.000000 0.472691 0.144106
0.000000 0.469760 0.058116
0.000000 0.484210 0.058116
0.000000 0.503539 0.058116
0.195303 0.503441 0.058116
0.301039 0.487461 0.058116
0.359183 0.496051 0.058116
0.460633 0.495808 0.058116
0.546522 0.498110 0.058116
0.623695 0.495439 0.058116
0.703299 0.490770 0.061438
0.688515 0.513341 0.091581
0.762566 0.526022 0.093890
0.815286 0.538063 0.095443
0.866611 0.550269 0.096306
0.000000 0.518110 0.136141
0.000000 0.520042 0.058116
0.000000 0.517410 0.058116
0.000000 0.533920 0.058116
0.000000 0.553135 0.058116
0.161525 0.559397 0.058116
0.290376 0.542528 0.058116
0.373185 0.527950 0.058116
0.440368 0.547272 0.058116
0.524335 0.544770 0.058116
0.601029 0.546571 0.058116
0.679372 0.545492 0.058116
0.759826 0.542133 0.060025
0.747668 0.566520 0.096019
0.811776 0.576385 0.100315
0.868986 0.587849 0.102810
0.000000 0.574060 0.058116
0.000000 0.578149 0.058116
0.000000 0.575671 0.058116
0.000000 0.593543 0.058116
0.000000 0.612172 0.058116
0.098835 0.623668 0.058116
0.272939 0.606052 0.058116
0.369453 0.590743 0.058116
0.431324 0.593590 0.058116
0.505666 0.603928 0.058116
0.578701 0.599760 0.058116
0.658970 0.601653 0.058116
0.741865 0.600481 0.058116
0.829598 0.596628 0.059446
0.841959 0.611492 0.065172
0.860144 0.630490 0.106998
0.000000 0.640970 0.058116
0.000000 0.649712 0.058116
0.000000 0.647700 0.058116
0.000000 0.665387 0.058116
0.000000 0.684486 0.058116
0.000000 0.699008 0.058116
0.245146 0.681564 0.058116
0.360935 0.665089 0.058116
0.443670 0.649961 0.058116
0.485410 0.665273 0.058116
0.557897 0.670171 0.058116
0.637388 0.666366 0.058116
0.724237 0.667292 0.058116
0.818232 0.665039 0.058116
0.886081 0.659110 0.058199
0.960969 0.661849 0.061981
0.000000 0.713800 0.058116
0.000000 0.722245 0.058116
0.000000 0.719861 0.058116
0.000000 0.736646 0.058116
0.000000 0.755560 0.058116
0.000000 0.770327 0.058116
0.210824 0.755978 0.058116
0.349903 0.739995 0.058116
0.441290 0.725600 0.058116
0.505242 0.716424 0.058116
0.541172 0.735082 0.058116
0.614672 0.743589 0.058116
0.705329 0.741115 0.058116
0.802525 0.741161 0.058116
0.877741 0.735978 0.058116
0.939413 0.728488 0.058116
0.000000 0.013689 0.092304
0.000000 0.019303 0.101123
0.005210 0.036223 0.136653
0.072859 0.024760 0.154296
0.166828 0.016336 0.158287
0.272816 0.007747 0.148854
0.359390 0.007747 0.136064
0.436467 0.007747 0.123277
0.498682 0.007747 0.113525
0.539787 0.007747 0.108741
0.575194 0.007747 0.105055
0.610390 0.007747 0.101804
0.646859 0.007747 0.099274
0.688001 0.007747 0.097105
0.731547 0.007747 0.095655
0.773809 0.007747 0.094813
0.000000 0.043497 0.101066
0.000000 0.047884 0.107902
0.000000 0.057325 0.125371
0.051056 0.055550 0.148488
0.127976 0.050165 0.147351
0.231250 0.040339 0.137930
0.317874 0.029640 0.125922
0.394208 0.020998 0.115162
0.464590 0.016203 0.107613
0.523254 0.013886 0.102101
0.563200 0.011758 0.097698
0.600675 0.009909 0.094516
0.639275 0.007747 0.091845
0.681885 0.007747 0.089940
0.731011 0.007747 0.088730
0.779209 0.007747 0.088183
0.000000 0.070614 0.123684
0.000000 0.072950 0.127763
0.000000 0.078918 0.138844
0.039226 0.086948 0.160680
0.117650 0.082356 0.149706
0.205980 0.076671 0.137405
0.296967 0.066711 0.123609
0.370002 0.053479 0.111900
0.442609 0.038209 0.100770
0.511067 0.023638 0.090719
0.564330 0.014756 0.082556
0.603597 0.011030 0.077846
0.643227 0.008223 0.074492
0.686365 0.007747 0.072075
0.736908 0.007747 0.070111
0.785753 0.009629 0.069078
0.000000 0.108659 0.148441
0.000000 0.110613 0.150638
0.000000 0.115737 0.157257
0.037343 0.123078 0.173782
0.122375 0.126363 0.164286
0.198484 0.129648 0.156258
0.285197 0.130802 0.140322
0.361374 0.128223 0.123395
0.423629 0.119951 0.106711
0.483955 0.106116 0.089642
0.541568 0.086333 0.072460
0.575097 0.072897 0.064798
0.602151 0.063190 0.060302
0.637191 0.053982 0.058116
0.682288 0.047304 0.058116
0.725022 0.048296 0.058116
0.000000 0.155115 0.167830
0.000000 0.157024 0.168785
0.000000 0.159125 0.169751
0.031261 0.165758 0.178741
0.144915 0.163991 0.101869
0.219598 0.168214 0.158460
0.300670 0.174026 0.133281
0.375768 0.176628 0.106981
0.434228 0.174484 0.083475
0.485645 0.170293 0.063368
0.521879 0.171080 0.058116
0.550769 0.173632 0.058116
0.573759 0.174787 0.058116
0.600051 0.177285 0.058116
0.634520 0.182774 0.058116
0.679474 0.190011 0.058116
0.000000 0.205100 0.187881
0.000000 0.205567 0.187802
0.000000 0.207637 0.186676
0.001922 0.212794 0.186311
0.132995 0.212238 0.158462
0.226213 0.211073 0.168040
0.320844 0.215600 0.135032
0.397004 0.222522 0.097787
0.451898 0.224711 0.066184
0.485830 0.230708 0.060776
0.523516 0.238670 0.060114
0.566395 0.247597 0.059525
0.600387 0.254231 0.059136
0.631826 0.261146 0.058891
0.670175 0.271096 0.058722
0.714831 0.283150 0.058584
0.000000 0.255553 0.208065
0.000000 0.256220 0.206592
0.000000 0.258166 0.201566
0.000000 0.262907 0.193868
0.113584 0.271840 0.158788
0.236163 0.257020 0.058116
0.319729 0.261670 0.149870
0.410791 0.265585 0.106628
0.470789 0.272302 0.077298
0.512261 0.280311 0.068589
0.555182 0.290174 0.066442
0.600308 0.301320 0.065183
0.643005 0.312018 0.063680
0.677246 0.320874 0.063031
0.716103 0.331970 0.062510
0.760084 0.345095 0.062072
0.000000 0.303938 0.222334
0.000000 0.304674 0.219156
0.000000 0.306240 0.211050
0.000000 0.309898 0.197304
0.076512 0.324367 0.156021
0.214637 0.308958 0.058116
0.332808 0.307731 0.058116
0.402804 0.314193 0.128020
