kpg/editing/luts/EditorsKeys Cinematic Lut Pack/Editors Keys Studio Glow.cube
LUT_3D_SIZE 16
-0.054066 -0.054422 -0.053500
0.042415 -0.054098 -0.054622
0.124484 -0.052000 -0.057055
0.203976 -0.049317 -0.057047
0.283975 -0.048466 -0.057042
0.364651 -0.047952 -0.057054
0.444453 -0.047423 -0.057064
0.513937 -0.047124 -0.057067
0.579118 -0.047050 -0.057053
0.641428 -0.046791 -0.057063
0.702106 -0.046482 -0.057062
0.761110 -0.045919 -0.057070
0.817337 -0.045404 -0.057084
0.872033 -0.044529 -0.057075
0.923966 -0.043223 -0.057086
0.968035 -0.043026 -0.057094
-0.050140 0.038777 -0.051559
0.044683 0.038314 -0.053524
0.114697 0.034827 -0.056461
0.185056 0.035302 -0.057057
0.259364 0.036850 -0.057051
0.336560 0.038023 -0.057060
0.416666 0.038319 -0.057053
0.495921 0.038513 -0.057052
0.566924 0.038928 -0.057057
0.631224 0.039438 -0.057062
0.693561 0.040189 -0.057066
0.754418 0.041320 -0.057072
0.813792 0.042791 -0.057066
0.869748 0.044690 -0.057088
0.921494 0.046586 -0.057090
0.965385 0.045793 -0.057095
-0.043044 0.110678 -0.041428
0.047667 0.108250 -0.042464
0.117913 0.105494 -0.049079
0.185943 0.105359 -0.057049
0.253924 0.110149 -0.057062
0.330721 0.115726 -0.057051
0.408220 0.119430 -0.057062
0.481191 0.120746 -0.057067
0.552339 0.119896 -0.057070
0.618224 0.118488 -0.057061
0.678960 0.117947 -0.057072
0.738936 0.117324 -0.057072
0.798791 0.117555 -0.057085
0.858043 0.118709 -0.057080
0.910305 0.120789 -0.057088
0.953940 0.118483 -0.057096
-0.035142 0.175539 -0.028759
0.051934 0.174572 -0.029982
0.122540 0.169120 -0.031785
0.193497 0.168451 -0.049720
0.266100 0.172720 -0.056858
0.341250 0.180601 -0.057065
0.418297 0.188648 -0.057057
0.489359 0.194013 -0.057057
0.560515 0.197654 -0.057061
0.629822 0.200364 -0.057062
0.692472 0.201926 -0.057065
0.751848 0.203248 -0.057066
0.810335 0.204600 -0.057073
0.868472 0.206184 -0.057089
0.920785 0.207427 -0.057102
0.964713 0.203377 -0.057095
-0.024692 0.241968 -0.016112
0.059912 0.241272 -0.017374
0.129720 0.239379 -0.018341
0.199428 0.234883 -0.023470
0.275257 0.236154 -0.052188
0.353300 0.244669 -0.056597
0.431710 0.254213 -0.056939
0.504655 0.261394 -0.057071
0.573492 0.267041 -0.057067
0.641063 0.272007 -0.057072
0.704611 0.275654 -0.057075
0.762859 0.278097 -0.057068
0.819477 0.280244 -0.057088
0.876588 0.282407 -0.057092
0.928955 0.283751 -0.057097
0.973020 0.278158 -0.057096
-0.013184 0.311454 -0.004651
0.071108 0.311230 -0.005976
0.135237 0.311337 -0.008239
0.209761 0.305562 -0.006205
0.281351 0.304696 -0.022307
0.361058 0.308919 -0.053087
0.441799 0.319637 -0.056061
0.516786 0.328360 -0.056492
0.585725 0.334508 -0.056853
0.652803 0.339878 -0.056887
0.717907 0.344373 -0.057073
0.775975 0.346861 -0.057082
0.831531 0.348566 -0.057081
0.887136 0.350286 -0.057092
0.939506 0.351071 -0.057094
0.984046 0.344157 -0.057099
-0.003939 0.381063 0.004938
0.081108 0.381270 0.003039
0.142421 0.382337 0.000895
0.218511 0.380856 0.004472
0.291849 0.377708 -0.000074
0.364070 0.377474 -0.025270
0.446879 0.384617 -0.052493
0.524716 0.394494 -0.055186
0.593840 0.401090 -0.055871
0.660749 0.406645 -0.056148
0.725958 0.411237 -0.056387
0.785405 0.413614 -0.056633
0.840167 0.414894 -0.056490
0.895444 0.416141 -0.057094
0.949938 0.415691 -0.056668
0.996088 0.407180 -0.056455
0.002966 0.450409 0.012955
0.089298 0.450694 0.009875
0.150850 0.452302 0.007793
0.223562 0.455023 0.010381
0.300753 0.448631 0.010534
0.372330 0.450579 -0.000186
0.445517 0.449065 -0.034617
0.526740 0.457828 -0.051112
0.597806 0.465141 -0.053619
0.665153 0.470854 -0.054945
0.730305 0.475625 -0.055050
0.791458 0.478356 -0.055133
0.846511 0.478814 -0.056275
0.901289 0.479277 -0.056255
0.955889 0.480097 -0.045366
1.003139 0.471669 -0.039114
0.007674 0.518556 0.018756
0.095514 0.519225 0.014950
0.157522 0.521585 0.012941
0.226484 0.526189 0.014218
0.307204 0.521446 0.016237
0.379568 0.519916 0.009524
0.451312 0.522493 -0.008275
0.523804 0.521036 -0.042003
0.598453 0.527731 -0.048301
0.666658 0.533416 -0.050953
0.732596 0.537717 -0.053377
0.795251 0.540065 -0.054571
0.850185 0.540195 -0.054494
0.904940 0.540086 -0.054388
0.959450 0.542274 -0.032898
1.007450 0.534539 -0.020041
0.010572 0.584292 0.022362
0.099637 0.585167 0.018056
0.161841 0.588941 0.016038
0.227491 0.595129 0.016055
0.310741 0.593302 0.018516
0.384564 0.588691 0.015360
0.456955 0.591541 0.002867
0.528263 0.593079 -0.019645
0.596919 0.592146 -0.042776
0.665749 0.595094 -0.046568
0.733241 0.598888 -0.048752
0.796629 0.601011 -0.050707
0.853470 0.600293 -0.053585
0.908348 0.599496 -0.054244
0.962129 0.603060 -0.021417
1.011042 0.594753 -0.009276
0.012369 0.649948 0.024457
0.102363 0.650964 0.019833
0.164285 0.655391 0.017564
0.227456 0.661642 0.016455
0.311862 0.662310 0.018451
0.388030 0.657528 0.016543
0.460560 0.657442 0.008051
0.532234 0.660871 -0.009230
0.599762 0.661297 -0.027161
0.666402 0.660928 -0.043884
0.731350 0.660363 -0.045254
0.797292 0.661252 -0.046325
0.855219 0.660624 -0.048510
0.910506 0.659362 -0.050063
0.963628 0.662648 -0.015073
1.012169 0.652801 -0.006970
0.012828 0.716448 0.024881
0.103324 0.717614 0.019976
0.164342 0.722631 0.017107
0.225291 0.728643 0.015211
0.310815 0.731015 0.016127
0.389359 0.726440 0.014654
0.462007 0.722766 0.008508
0.534671 0.725960 -0.004535
0.601836 0.727552 -0.019482
0.668063 0.728009 -0.032810
0.735085 0.728314 -0.043184
0.795610 0.722285 -0.044136
0.856370 0.720158 -0.043747
0.912463 0.717746 -0.046453
0.964135 0.721101 -0.011298
1.012475 0.709997 -0.003955
0.011180 0.783106 0.022738
0.101359 0.785238 0.017562
0.160759 0.790816 0.014009
0.220305 0.795807 0.011332
0.307236 0.798698 0.011163
0.387635 0.794773 0.009146
0.462248 0.790588 0.004305
0.534330 0.790203 -0.005817
0.602135 0.791953 -0.018295
0.667737 0.792947 -0.029513
0.734914 0.793997 -0.037192
0.803352 0.793742 -0.043183
0.856310 0.781996 -0.043027
0.912695 0.778433 -0.042263
0.963862 0.780964 -0.003531
1.011616 0.768609 0.003203
0.006546 0.848251 0.017926
0.095668 0.851171 0.012253
0.152881 0.856659 0.007200
0.213490 0.861652 0.004105
0.301887 0.865115 0.002286
0.383584 0.861527 -0.000584
0.459851 0.857642 -0.006310
0.531384 0.854290 -0.014442
0.598928 0.855223 -0.022951
0.665053 0.856665 -0.032777
0.732067 0.857964 -0.040880
0.802178 0.859682 -0.040285
0.867183 0.858705 -0.042048
0.913445 0.842779 -0.041873
0.962643 0.843519 -0.004201
1.009567 0.829258 0.003188
-0.002101 0.909954 0.010867
0.086405 0.912125 0.006810
0.142463 0.916555 0.000435
0.207698 0.920792 -0.005702
0.297357 0.923755 -0.009977
0.378974 0.919841 -0.014348
0.455696 0.916000 -0.020181
0.526740 0.912622 -0.027147
0.592583 0.911571 -0.033128
0.658715 0.913440 -0.040009
0.725836 0.915490 -0.045983
0.795321 0.917791 -0.046585
0.862008 0.919509 -0.041053
0.923814 0.919054 -0.040437
0.962296 0.907404 -0.008820
1.009159 0.891567 -0.000782
-0.006927 0.955862 0.007792
0.080092 0.957905 0.004483
0.136860 0.961923 -0.001104
0.202133 0.966033 -0.008781
0.290961 0.968451 -0.014297
0.371044 0.964458 -0.019750
0.446505 0.960575 -0.025321
0.516165 0.956997 -0.031707
0.580035 0.954829 -0.036983
0.645097 0.956638 -0.042792
0.710931 0.958750 -0.047276
0.778917 0.961129 -0.048796
0.844479 0.963217 -0.041134
0.906309 0.964278 -0.040255
0.959576 0.967086 -0.009531
1.009296 0.953459 -0.000800
-0.055843 -0.052921 0.034952
0.040439 -0.052728 0.037339
0.125543 -0.052316 0.030135
0.207020 -0.051946 0.025439
0.286642 -0.051450 0.024507
0.365695 -0.050632 0.024700
0.446327 -0.049930 0.024941
0.518194 -0.049410 0.025027
0.583018 -0.049230 0.025096
0.645326 -0.048918 0.025314
0.706042 -0.048586 0.025692
0.765272 -0.048096 0.026299
0.821828 -0.047573 0.027133
0.876520 -0.046791 0.028123
0.928294 -0.045553 0.028823
0.972540 -0.045360 0.028158
-0.055215 0.039501 0.038948
0.040055 0.039821 0.039767
0.118589 0.033963 0.029982
0.195068 0.028976 0.020277
0.272798 0.027172 0.015855
0.350606 0.026898 0.014443
0.430070 0.026746 0.013809
0.505631 0.026931 0.013548
0.574669 0.027346 0.013523
0.638179 0.027837 0.013660
0.699817 0.028486 0.013927
0.759913 0.029338 0.014259
0.818321 0.030257 0.014714
0.873990 0.031459 0.015195
0.925790 0.033043 0.015734
0.970498 0.042180 0.024508
-0.047862 0.108755 0.043648
0.037249 0.109869 0.035180
0.116364 0.105445 0.028800
0.187363 0.104608 0.017907
0.256873 0.107996 0.014938
0.332172 0.112652 0.014071
0.408635 0.115827 0.013703
0.480810 0.116460 0.013567
0.551752 0.115121 0.013600
0.618084 0.113383 0.013777
0.678904 0.112630 0.014044
0.738935 0.111862 0.014416
0.799909 0.111579 0.014865
0.860395 0.111938 0.015345
0.912525 0.113687 0.015896
0.957702 0.113045 0.024635
-0.039184 0.173486 0.053357
0.039422 0.174634 0.042013
0.120043 0.169369 0.039370
0.192169 0.168131 0.024766
0.265938 0.171478 0.014288
0.340834 0.179009 0.013739
0.417583 0.186846 0.013621
0.488987 0.191856 0.013629
0.559943 0.195189 0.013732
0.629516 0.197607 0.013927
0.692262 0.198993 0.014205
0.751693 0.200080 0.014585
0.810202 0.201220 0.015012
0.868468 0.202623 0.015510
0.921038 0.203903 0.016032
0.964941 0.200437 0.024561
-0.027437 0.240377 0.065484
0.046200 0.241431 0.051810
0.125386 0.240374 0.048629
0.197927 0.234747 0.044705
0.274068 0.235406 0.019981
0.352406 0.243453 0.014080
0.430871 0.252830 0.013829
0.503889 0.259891 0.013810
0.572706 0.265399 0.013969
0.640101 0.270202 0.014187
0.704048 0.273895 0.014500
0.762367 0.276331 0.014874
0.819493 0.278322 0.015289
0.876585 0.280534 0.015789
0.929366 0.282080 0.016276
0.973150 0.276874 0.024476
-0.014919 0.310542 0.078056
0.055411 0.311553 0.061372
0.129777 0.311817 0.056591
0.207442 0.306512 0.058521
0.280338 0.304882 0.046141
0.359760 0.307988 0.017969
0.440766 0.318566 0.014908
0.516138 0.327278 0.014649
0.585094 0.333333 0.014542
0.652132 0.338687 0.014768
0.717422 0.343153 0.014900
0.775979 0.345686 0.015258
0.831550 0.347472 0.015699
0.887290 0.349258 0.016157
0.939832 0.350142 0.016621
0.984386 0.343518 0.024365
-0.005176 0.380683 0.088836
0.063677 0.381820 0.070217
0.137241 0.383073 0.065643
0.214467 0.382980 0.068105
0.290396 0.378488 0.064448
0.363370 0.377921 0.044461
0.445699 0.384002 0.019347
0.523841 0.393784 0.016343
0.593377 0.400373 0.015946
0.660524 0.405788 0.015753
0.725695 0.410465 0.016024
0.785730 0.413044 0.016164
0.840524 0.414365 0.016581
0.895845 0.415621 0.016656
0.950461 0.415221 0.017631
0.996722 0.406859 0.025109
0.002261 0.450612 0.097773
0.070385 0.451563 0.077725
0.144769 0.453193 0.072986
0.217789 0.456527 0.074144
0.298427 0.450212 0.075013
0.371280 0.451546 0.065627
0.444930 0.450005 0.038364
0.525989 0.457728 0.020822
0.597402 0.464996 0.018632
0.664873 0.470753 0.017664
0.730239 0.475502 0.017836
0.791693 0.478312 0.018065
0.846918 0.478817 0.017514
0.901583 0.479316 0.017961
0.956440 0.480245 0.028076
1.003596 0.472253 0.040293
0.007225 0.519462 0.104543
0.075586 0.520369 0.083593
0.150406 0.522977 0.078643
0.218905 0.527925 0.078305
0.303662 0.523708 0.080857
0.377777 0.521107 0.075302
0.450441 0.523610 0.060059
0.523333 0.522053 0.033221
0.597734 0.527987 0.024690
0.666219 0.533534 0.021928
0.732227 0.537905 0.020280
0.795408 0.540262 0.019308
0.850561 0.540466 0.019728
0.905325 0.540374 0.020192
0.959762 0.542584 0.038601
1.007893 0.535192 0.055001
0.010266 0.585616 0.109180
0.079022 0.586775 0.087785
0.153892 0.590548 0.082548
0.218249 0.596835 0.080811
0.305889 0.596141 0.083454
0.382040 0.590669 0.081172
0.455655 0.592878 0.070123
0.527628 0.594468 0.052233
0.596544 0.593369 0.033138
0.665042 0.595609 0.026949
0.732850 0.599241 0.024921
0.796443 0.601348 0.023462
0.853634 0.600671 0.021375
0.908596 0.599805 0.021144
0.962403 0.603499 0.048478
1.011328 0.595182 0.062768
0.011989 0.651565 0.112309
0.081294 0.652646 0.090825
0.155589 0.657120 0.084916
0.216943 0.663597 0.081936
0.305806 0.665447 0.083916
0.384938 0.660250 0.082962
0.458553 0.659042 0.075470
0.531347 0.662338 0.060328
0.599366 0.663007 0.047268
0.666143 0.662744 0.034055
0.731035 0.661467 0.030382
0.797228 0.662024 0.028193
0.855480 0.661313 0.026567
0.910657 0.659862 0.025511
0.963996 0.663227 0.054488
1.012496 0.653430 0.064577
0.012283 0.718222 0.113524
0.082137 0.719156 0.092282
0.155343 0.724310 0.085621
0.215322 0.730444 0.081742
0.304085 0.733559 0.082519
0.385503 0.729062 0.081494
0.459634 0.724547 0.076415
0.533350 0.727420 0.065244
0.601164 0.728914 0.052778
0.667549 0.729703 0.044027
0.735067 0.730235 0.035536
0.795447 0.723661 0.033068
0.856600 0.721344 0.032905
0.912545 0.718943 0.031026
0.964342 0.721972 0.058643
1.012711 0.710994 0.067219
0.010356 0.785081 0.112198
0.080681 0.786979 0.091493
0.152157 0.792174 0.084092
0.211178 0.797339 0.079175
0.300045 0.801045 0.078618
0.383395 0.797318 0.077046
0.459636 0.792895 0.072537
0.532599 0.791597 0.064611
0.601094 0.793488 0.055236
0.667016 0.794498 0.046230
0.734468 0.795551 0.041808
0.803275 0.795764 0.037011
0.856620 0.783693 0.036107
0.912939 0.780036 0.036687
0.963951 0.782232 0.066444
1.011877 0.769890 0.074002
0.005292 0.850514 0.108310
0.076014 0.853065 0.089160
0.145291 0.858484 0.080471
0.204242 0.863472 0.074418
0.293759 0.868215 0.071113
0.378881 0.864348 0.068443
0.456923 0.860076 0.064064
0.529716 0.856276 0.058197
0.597533 0.856848 0.052044
0.664065 0.858179 0.045122
0.731132 0.859522 0.038778
0.801441 0.861314 0.040497
0.867339 0.860779 0.039335
0.913700 0.844890 0.039103
0.962885 0.845028 0.067226
1.010032 0.830805 0.074113
-0.003833 0.911829 0.102086
0.068199 0.914031 0.086646
0.134890 0.918274 0.076661
0.197372 0.922613 0.070245
0.289806 0.927158 0.065716
0.374923 0.923072 0.061005
0.453286 0.918953 0.055487
0.525394 0.915324 0.050203
0.591135 0.913320 0.045784
0.657645 0.915172 0.040947
0.724862 0.917210 0.036623
0.794655 0.919484 0.034847
0.861770 0.921440 0.041181
0.924109 0.921423 0.041948
0.962792 0.909413 0.065715
1.009827 0.893421 0.071267
-0.008612 0.957703 0.097991
0.065674 0.959898 0.088081
0.127513 0.963834 0.077347
0.190901 0.967934 0.071443
0.283021 0.972459 0.066385
0.366995 0.968711 0.061619
0.444289 0.964044 0.055021
0.514981 0.960135 0.049366
0.578806 0.956991 0.045255
0.644073 0.958657 0.040636
0.709902 0.960636 0.036815
0.778079 0.962988 0.034441
0.844151 0.965058 0.041540
0.906013 0.966000 0.041917
0.959514 0.968813 0.065358
1.009992 0.955673 0.071385
-0.058854 -0.049149 0.088514
0.026828 -0.046576 0.093291
0.115167 -0.046134 0.106404
0.203639 -0.048933 0.101277
0.293094 -0.053560 0.094498
0.378376 -0.056697 0.091523
0.461261 -0.056595 0.090076
0.537683 -0.056303 0.088602
0.602731 -0.056127 0.087574
0.664883 -0.055958 0.086606
0.724998 -0.055835 0.085614
0.782439 -0.055197 0.085261
0.837853 -0.054413 0.084909
0.891268 -0.053602 0.084846
0.942657 -0.052888 0.084313
0.987292 -0.052727 0.082437
-0.058854 0.037666 0.092829
0.030057 0.041879 0.101350
0.110368 0.037336 0.107373
0.193770 0.030432 0.099752
0.280390 0.024310 0.094062
0.367972 0.019217 0.090093
0.450421 0.016531 0.087530
0.529009 0.015335 0.085380
0.598511 0.015246 0.084012
0.660159 0.015977 0.083686
0.720024 0.016703 0.083313
0.778194 0.017588 0.082944
0.835134 0.018625 0.082381
0.889921 0.019822 0.081851
0.941312 0.021067 0.081337
0.985785 0.030388 0.080579
-0.058855 0.107941 0.104701
0.021305 0.109413 0.106676
0.103377 0.110244 0.110004
0.186961 0.107665 0.100993
0.270649 0.100518 0.086127
0.358581 0.091207 0.069645
0.437088 0.080363 0.057626
0.506667 0.071768 0.051517
0.579674 0.066250 0.047682
0.647028 0.062205 0.044501
0.708269 0.059748 0.041860
0.767768 0.058002 0.039632
0.825957 0.056622 0.037694
0.881946 0.055803 0.036018
0.932591 0.055549 0.034631
0.974408 0.090286 0.065756
-0.055015 0.172261 0.113216
0.022760 0.173010 0.112950
0.099980 0.176579 0.104862
0.188965 0.172611 0.094425
0.273088 0.171633 0.074539
0.354482 0.172244 0.057596
0.428329 0.175641 0.052355
0.499714 0.176644 0.048955
0.569407 0.176714 0.045949
0.636952 0.175798 0.043348
0.697594 0.174468 0.041103
0.755739 0.173375 0.039154
0.812909 0.172498 0.037429
0.870097 0.172350 0.035905
0.922100 0.173374 0.034621
0.966032 0.189988 0.066003
-0.038654 0.239938 0.126661
0.034531 0.240661 0.125227
0.093862 0.245070 0.101109
0.188540 0.239705 0.094844
0.273542 0.238316 0.073670
0.357508 0.241091 0.051446
0.436945 0.248454 0.048317
0.510040 0.253618 0.045945
0.578496 0.257310 0.043779
0.645316 0.260433 0.041790
0.708283 0.262606 0.039981
0.765738 0.263699 0.038342
0.822631 0.264375 0.036859
0.879568 0.265697 0.035487
0.932044 0.266534 0.034302
0.974122 0.271824 0.065770
-0.022474 0.311000 0.140800
0.047280 0.311808 0.138242
0.094165 0.315671 0.101745
0.189334 0.314750 0.097233
0.275391 0.309153 0.088477
0.359494 0.309015 0.056148
0.443561 0.317160 0.045434
0.520455 0.324841 0.043556
0.589902 0.329680 0.041769
0.657201 0.333874 0.040173
0.722132 0.337239 0.038764
0.779863 0.338735 0.037448
0.834944 0.339689 0.036209
0.890176 0.341008 0.035012
0.942544 0.341469 0.033955
0.984864 0.340777 0.065460
-0.010173 0.382710 0.153754
0.057879 0.383653 0.150046
0.097968 0.386519 0.104378
0.188884 0.389760 0.099835
0.281255 0.382405 0.098358
0.360604 0.381592 0.081209
0.445275 0.384169 0.048179
0.525754 0.392938 0.042349
0.596444 0.398807 0.040764
0.664157 0.403416 0.039291
0.729475 0.407272 0.038240
0.789356 0.408994 0.036931
0.843947 0.409575 0.035846
0.898823 0.410325 0.034579
0.953830 0.409303 0.033796
0.998118 0.404936 0.066373
-0.001037 0.453280 0.164536
0.065947 0.454316 0.159535
0.101276 0.456159 0.106884
0.189405 0.460586 0.101868
0.286002 0.456036 0.103733
0.365695 0.454527 0.094595
0.442969 0.453085 0.069634
0.525658 0.458071 0.044823
0.598829 0.464937 0.041339
0.667326 0.470159 0.039373
0.733273 0.474222 0.038390
0.794772 0.476350 0.037490
0.849779 0.476324 0.035773
0.904430 0.476277 0.034945
0.959347 0.477254 0.046165
1.004629 0.471883 0.084084
0.004905 0.522997 0.172838
0.071901 0.524080 0.166420
0.103723 0.524806 0.108764
0.190539 0.530278 0.103584
0.287986 0.530027 0.105400
0.369944 0.524058 0.101131
0.446674 0.526247 0.086398
0.522152 0.524507 0.060009
0.597619 0.528540 0.045739
0.667416 0.533795 0.042065
0.734090 0.537568 0.039430
0.797625 0.539451 0.037500
0.852938 0.539160 0.036894
0.907364 0.538559 0.036197
0.962133 0.541208 0.057586
1.008705 0.535536 0.099997
0.008175 0.590245 0.178224
0.075665 0.591274 0.170911
0.104951 0.591394 0.109704
0.191381 0.598466 0.104502
0.287372 0.602166 0.105099
0.372841 0.595012 0.103612
0.450357 0.595281 0.093110
0.524995 0.596984 0.076380
0.595853 0.595540 0.056575
0.664955 0.596447 0.045845
0.733617 0.599550 0.042869
0.797836 0.601244 0.040537
0.855288 0.600119 0.037470
0.910298 0.598831 0.036238
0.964282 0.602645 0.065693
1.011852 0.595696 0.107262
0.009830 0.656154 0.181752
0.077913 0.657215 0.173808
0.105087 0.657158 0.110112
0.191590 0.664588 0.104446
0.285278 0.670807 0.103353
0.374052 0.664689 0.102754
0.451865 0.661429 0.096023
0.527637 0.664425 0.081271
0.597596 0.665270 0.068578
0.665751 0.664696 0.055143
0.731048 0.662533 0.048246
0.797792 0.662467 0.044194
0.856519 0.661286 0.041770
0.911869 0.659454 0.039752
0.965222 0.662872 0.069866
1.013064 0.654427 0.109228
0.009895 0.722589 0.183434
0.078633 0.723690 0.175210
0.103885 0.723763 0.109255
0.190161 0.731187 0.102922
0.282098 0.737028 0.100227
0.373205 0.733075 0.099365
0.452212 0.727706 0.094520
0.528633 0.729296 0.083855
0.598499 0.730970 0.070429
0.666086 0.731576 0.063184
0.734659 0.732144 0.054188
0.795647 0.725027 0.049380
0.857128 0.722034 0.047961
0.913577 0.719207 0.045356
0.965392 0.722082 0.073075
1.013238 0.712841 0.112685
0.007644 0.789361 0.182877
0.077070 0.791131 0.174411
0.100431 0.790959 0.106559
0.186029 0.797822 0.099167
0.276910 0.803382 0.094964
0.369988 0.800680 0.093266
0.451412 0.795812 0.088758
0.526934 0.793039 0.081116
0.597589 0.795044 0.071788
0.664860 0.796036 0.062488
0.733280 0.797231 0.058783
0.803097 0.797517 0.053485
0.856844 0.785062 0.051443
0.913568 0.780830 0.051092
0.964595 0.782481 0.080342
1.012499 0.771987 0.120520
0.002154 0.854919 0.179789
0.072038 0.857345 0.171749
0.093525 0.857156 0.103108
0.178730 0.863791 0.094055
0.269650 0.869486 0.087139
0.364772 0.867668 0.083743
0.448067 0.862771 0.078918
0.523813 0.858446 0.072664
0.593448 0.858106 0.066689
0.661223 0.859519 0.060095
0.729259 0.860880 0.053670
0.800407 0.862549 0.055274
0.867389 0.862272 0.053917
0.914107 0.845951 0.053132
0.963265 0.845727 0.080156
1.010886 0.833603 0.120622
-0.007736 0.915528 0.175602
0.064235 0.917568 0.169078
0.084215 0.917068 0.100758
0.168804 0.922569 0.090190
0.265892 0.927790 0.082394
0.360927 0.926353 0.077076
0.444286 0.921661 0.071172
0.519556 0.917767 0.065374
0.586727 0.914829 0.060485
0.654444 0.916437 0.055141
0.722533 0.918386 0.050559
0.793047 0.920625 0.047751
0.861012 0.922597 0.054518
0.924335 0.922905 0.055098
0.963064 0.910152 0.078280
1.011532 0.897348 0.122086
-0.012565 0.961149 0.171446
0.062747 0.963184 0.166470
0.107986 0.966592 0.148295
0.163483 0.970698 0.133168
0.261271 0.975248 0.127612
0.354443 0.977830 0.123492
0.437790 0.973071 0.119738
0.512194 0.968994 0.114990
0.577871 0.965351 0.111030
0.642765 0.963848 0.106548
0.709172 0.965716 0.100958
0.777613 0.967761 0.096355
0.843941 0.969442 0.098620
0.905949 0.970303 0.099738
0.960127 0.972658 0.120366
1.012337 0.960683 0.125837
-0.058869 -0.043462 0.137245
0.024923 -0.041423 0.140206
0.092483 -0.031616 0.162083
0.186515 -0.038302 0.171114
0.280148 -0.043049 0.172458
0.373459 -0.047781 0.168900
0.459487 -0.052640 0.164037
0.538889 -0.056180 0.159389
0.605753 -0.056400 0.157252
0.668103 -0.056416 0.155772
0.728145 -0.056338 0.154185
0.786471 -0.056244 0.152560
0.843345 -0.056150 0.150872
0.897733 -0.056066 0.149600
0.949805 -0.055981 0.148122
0.994883 -0.055966 0.144764
-0.058859 0.039947 0.139643
0.025178 0.042875 0.150962
0.089975 0.044140 0.162844
0.179772 0.038783 0.169766
0.270058 0.032602 0.170081
0.364037 0.026350 0.166151
0.449417 0.020965 0.161420
0.530218 0.017476 0.157437
0.602480 0.016475 0.155087
0.665965 0.015828 0.153153
0.726742 0.015547 0.151437
0.785741 0.015637 0.149733
0.843411 0.016044 0.148043
0.899343 0.016500 0.146704
0.951521 0.017014 0.145284
0.997581 0.025810 0.142500
-0.058871 0.108247 0.153474
0.018653 0.110537 0.158099
0.086678 0.113320 0.168573
0.175680 0.111527 0.177359
0.268491 0.103371 0.169452
0.362948 0.092803 0.161187
0.450614 0.080614 0.152864
0.531034 0.067576 0.144592
0.607832 0.055589 0.137012
0.675173 0.047919 0.131389
0.735094 0.043969 0.127762
0.793038 0.041359 0.124931
0.849924 0.039398 0.122370
0.906053 0.037823 0.120360
0.957047 0.036601 0.118704
1.004232 0.073340 0.130881
-0.058860 0.172021 0.167471
0.015748 0.173234 0.168762
0.075731 0.177770 0.173906
0.170439 0.180121 0.179046
0.267123 0.177562 0.169051
0.358902 0.172262 0.155088
0.450801 0.164726 0.137268
0.531302 0.154556 0.119737
0.606519 0.141409 0.102154
0.672060 0.127460 0.088653
0.727059 0.116655 0.081003
0.780970 0.106655 0.074866
0.835927 0.097771 0.069609
0.892560 0.090747 0.065070
0.944447 0.130811 0.090486
0.993713 0.159777 0.115150
-0.057080 0.240200 0.180438
0.017200 0.241168 0.180736
0.071690 0.245324 0.177249
0.161069 0.251720 0.170837
0.269532 0.248261 0.157408
0.362246 0.248348 0.143239
0.452165 0.247415 0.120817
0.531014 0.244550 0.099018
0.599230 0.242568 0.086266
0.662065 0.241730 0.081089
0.721294 0.240075 0.076531
0.775794 0.237613 0.072192
0.830004 0.235644 0.068011
0.885581 0.233967 0.063975
0.940759 0.246726 0.086357
0.998161 0.250425 0.108004
-0.040498 0.312271 0.196004
0.032034 0.312916 0.195650
0.078171 0.317234 0.185331
0.147350 0.324341 0.163690
0.266137 0.319740 0.152498
0.360808 0.319058 0.135037
0.452469 0.320421 0.108554
0.532108 0.321836 0.087650
0.599728 0.323823 0.080736
0.666330 0.325772 0.076910
0.730744 0.327004 0.073164
0.786801 0.326210 0.069493
0.840944 0.325130 0.065879
0.895328 0.324644 0.062309
0.945226 0.331334 0.082563
0.999120 0.329891 0.105352
-0.023957 0.385199 0.210830
0.046382 0.386021 0.209784
0.085604 0.389980 0.193764
0.142132 0.396049 0.160047
0.262235 0.395594 0.151173
0.356551 0.391000 0.139757
0.447318 0.390726 0.108796
0.530862 0.393766 0.084669
0.602749 0.396951 0.076653
0.670921 0.399931 0.073399
0.736317 0.402005 0.070348
0.795525 0.401795 0.066926
0.849630 0.400611 0.063729
