kpg/editing/luts/EditorsKeys Cinematic Lut Pack/Editors Keys Vintage Film Summer.cube
LUT_3D_SIZE 6
-0.141439 -0.135813 -0.130358
0.077034 -0.130609 -0.124830
0.196592 -0.118035 -0.111320
0.413897 -0.114157 -0.107097
0.655319 -0.128254 -0.122319
0.846779 -0.140077 -0.134854
-0.133374 0.081446 -0.121242
0.084036 0.083084 -0.120077
0.196592 -0.046063 -0.111321
0.413895 0.092520 -0.107103
0.655285 0.114399 -0.123020
0.846793 0.114602 -0.135147
-0.120321 0.192315 -0.106041
-0.038695 0.192315 -0.106041
0.198667 0.192567 -0.105806
0.412740 0.255633 -0.114744
0.654603 0.302190 -0.130561
0.846655 0.312274 -0.136313
-0.134407 0.396166 -0.122427
0.070385 0.396165 -0.122421
0.261358 0.395804 -0.124465
0.410568 0.395743 -0.128038
0.654094 0.467795 -0.136310
0.846654 0.483346 -0.136318
-0.146794 0.631296 -0.136315
0.102558 0.631296 -0.136315
0.312410 0.631295 -0.136316
0.486242 0.631295 -0.136317
0.654093 0.630291 -0.136320
0.846653 0.650231 -0.136327
-0.146808 0.820740 -0.136330
0.118325 0.820740 -0.136330
0.326004 0.820739 -0.136331
0.504581 0.820739 -0.136333
0.678780 0.820739 -0.136336
0.846651 0.815856 -0.136338
-0.138672 -0.132884 0.074648
0.078092 -0.129980 0.080336
0.196592 -0.118035 -0.033806
0.413897 -0.114157 0.097711
0.655312 -0.128315 0.118470
0.846775 -0.140101 0.117067
-0.133066 0.081949 0.085603
0.084496 0.083501 0.087211
0.203028 0.088535 0.092546
0.417969 0.084758 0.088504
0.657115 0.063630 0.065696
0.847640 0.033829 0.032172
-0.120321 0.192315 0.032031
0.090652 0.194688 0.093821
0.200534 0.194011 0.093436
0.414704 0.255807 0.079514
0.655658 0.295271 0.049635
0.847240 0.302235 0.025783
-0.134408 0.396165 0.074280
0.067093 0.397099 0.067900
0.261716 0.396578 0.064289
0.410975 0.396073 0.056834
0.654435 0.465738 0.027125
0.847088 0.479221 0.028181
-0.146794 0.631296 0.100597
0.035036 0.631436 0.028529
0.305431 0.631445 0.028880
0.484027 0.631390 0.029583
0.654175 0.630383 0.030528
0.846864 0.648730 0.031586
-0.146808 0.820740 0.116050
0.037671 0.820804 0.032945
0.315669 0.820788 0.033249
0.500246 0.820761 0.033869
0.677203 0.820811 0.034817
0.846708 0.815879 0.035745
-0.130881 -0.124592 0.191331
-0.071661 -0.124592 0.191331
0.197160 -0.116676 0.195529
0.413826 -0.114681 0.263064
0.655261 -0.129122 0.309899
0.846791 -0.140369 0.318204
-0.130882 -0.065387 0.191331
0.085679 0.084639 0.197873
0.203062 0.087551 0.200656
0.417897 0.083197 0.263667
0.657045 0.060966 0.302215
0.847671 0.029669 0.307692
-0.120190 0.192401 0.197087
0.089543 0.194631 0.198901
0.199536 0.192725 0.196607
0.424739 0.176267 0.177755
0.673231 0.139129 0.135084
0.861037 0.110907 0.102126
-0.134938 0.396100 0.257625
0.063707 0.397096 0.257188
0.156641 0.402721 0.142870
0.414822 0.398382 0.132347
0.662685 0.433147 0.106978
0.855128 0.430363 0.091688
-0.146794 0.631296 0.306416
0.028021 0.631503 0.299017
0.123934 0.634995 0.099184
0.447598 0.633806 0.096908
0.655810 0.631073 0.093606
0.850548 0.631745 0.084517
-0.146809 0.820740 0.319727
0.031896 0.820810 0.309149
0.111892 0.822852 0.083474
0.446987 0.822452 0.082834
0.658699 0.821822 0.081993
0.847571 0.816180 0.080242
-0.122027 -0.115043 0.405502
0.091221 -0.115039 0.405504
0.266254 -0.112956 0.405808
0.413645 -0.115898 0.406498
0.655148 -0.130696 0.478024
0.846735 -0.140816 0.492070
-0.122016 0.091205 0.405508
0.085760 0.084669 0.417328
0.269661 0.085236 0.412586
0.417091 0.081444 0.409518
0.656703 0.058093 0.476303
0.847536 0.027633 0.487941
-0.122906 0.256450 0.405243
0.081634 0.257381 0.408850
0.183738 0.175398 0.417094
0.425098 0.167287 0.415358
0.672662 0.130977 0.447586
0.861135 0.100947 0.439236
-0.135966 0.395841 0.403175
0.061745 0.396723 0.403803
0.147295 0.402280 0.407806
0.413247 0.395863 0.400367
0.665756 0.375608 0.378423
0.866264 0.334980 0.333783
-0.146794 0.631296 0.476878
0.028196 0.631449 0.474515
0.104556 0.635284 0.434718
0.366418 0.641486 0.342089
0.662438 0.634480 0.327574
0.860182 0.602109 0.301778
-0.146809 0.820739 0.494864
0.032056 0.820799 0.490414
0.087108 0.823084 0.432660
0.310830 0.828479 0.276943
0.623567 0.826063 0.269369
0.850704 0.816545 0.257310
-0.120640 -0.113536 0.646137
0.131046 -0.113692 0.646146
0.319111 -0.116610 0.645878
0.489324 -0.123711 0.645192
0.654924 -0.132950 0.642482
0.846677 -0.141288 0.661870
-0.121111 0.128151 0.646143
0.083046 0.081942 0.653437
0.312648 0.078706 0.650631
0.488623 0.069846 0.647785
0.656270 0.053504 0.643644
0.847448 0.025374 0.660691
-0.130694 0.306189 0.645115
0.069831 0.299171 0.647998
0.174634 0.165954 0.660715
0.466050 0.147862 0.665953
0.670787 0.125098 0.656264
0.860076 0.098748 0.649318
-0.144076 0.469521 0.643584
0.039577 0.467707 0.644439
0.128323 0.439377 0.657975
0.383090 0.363016 0.659081
0.666559 0.360339 0.648393
0.865705 0.327651 0.618126
-0.146795 0.631295 0.642542
0.028483 0.631457 0.642650
0.103380 0.634651 0.644799
0.360704 0.640945 0.648245
0.657319 0.631956 0.641603
0.858374 0.609228 0.618492
-0.146810 0.820739 0.665771
0.032306 0.820816 0.664027
0.086745 0.822860 0.643976
0.296895 0.828323 0.600414
0.616267 0.826473 0.593511
0.851281 0.816802 0.582802
-0.125891 -0.119222 0.841396
0.138029 -0.119619 0.841353
0.331989 -0.123676 0.841050
0.508745 -0.130753 0.840711
0.682869 -0.138157 0.840142
0.846655 -0.141462 0.830442
-0.127018 0.133936 0.841294
0.073217 0.072000 0.845645
0.321218 0.066989 0.844313
0.505080 0.056065 0.842729
0.682007 0.038562 0.841379
0.847334 0.024871 0.831006
-0.137353 0.318448 0.840651
0.056004 0.307943 0.842856
0.154156 0.144255 0.866240
0.464764 0.128014 0.864048
0.676220 0.110608 0.857546
0.858654 0.096291 0.840862
-0.146601 0.488936 0.839997
0.026819 0.484920 0.840811
0.113441 0.439584 0.856807
0.362029 0.342782 0.858814
0.645934 0.337925 0.855361
0.864772 0.318142 0.843463
-0.146799 0.657794 0.840038
0.028723 0.656259 0.840243
0.095658 0.641730 0.846884
0.340208 0.614372 0.853735
0.629789 0.602635 0.850744
0.857877 0.596641 0.836647
-0.146811 0.820739 0.835327
0.032669 0.820794 0.835336
0.086263 0.822495 0.836489
0.293620 0.827423 0.838456
0.617737 0.826006 0.837404
0.848617 0.820395 0.837772
