kpg/editing/luts/EditorsKeys Cinematic Lut Pack/Editors Keys Forest.cube
LUT_3D_SIZE 6
-0.097049 -0.099419 -0.100237
0.115079 -0.096543 -0.103596
0.330405 -0.093311 -0.103590
0.562647 -0.092475 -0.103595
0.758683 -0.091518 -0.103623
0.912043 -0.088934 -0.103644
-0.084886 0.105006 -0.085892
0.109546 0.101636 -0.094543
0.297554 0.130146 -0.103593
0.533914 0.159018 -0.103611
0.743612 0.172798 -0.103632
0.907161 0.180027 -0.103629
-0.058892 0.282175 -0.053677
0.143369 0.279994 -0.057091
0.326497 0.290208 -0.097642
0.571209 0.352835 -0.103161
0.776763 0.383879 -0.103447
0.927130 0.386982 -0.103272
-0.039681 0.505580 -0.032669
0.181121 0.511224 -0.037177
0.378182 0.507441 -0.045169
0.583114 0.528896 -0.095205
0.789044 0.563643 -0.101076
0.936685 0.562752 -0.079242
-0.033607 0.730121 -0.025675
0.196905 0.740478 -0.033717
0.418535 0.739240 -0.037998
0.613117 0.741730 -0.071999
0.792102 0.738559 -0.091527
0.938968 0.730063 -0.061166
-0.050187 0.914563 -0.038768
0.180286 0.921305 -0.054427
0.411464 0.919992 -0.068253
0.604319 0.915858 -0.084736
0.789037 0.919422 -0.092341
0.937281 0.903533 -0.064363
-0.101536 -0.092927 0.088368
0.105736 -0.088517 0.102703
0.343870 -0.098218 0.121061
0.591860 -0.101264 0.130986
0.781369 -0.100892 0.134215
0.928690 -0.100111 0.132923
-0.100908 0.103250 0.101915
0.096997 0.105310 0.105640
0.318215 0.103944 0.087403
0.572030 0.079059 0.063338
0.774416 0.069942 0.054234
0.923965 0.066903 0.049093
-0.074161 0.282389 0.147885
0.089365 0.286192 0.106855
0.324149 0.289670 0.066515
0.579895 0.345585 0.052438
0.785098 0.369979 0.047307
0.931833 0.368714 0.044837
-0.047032 0.512943 0.198547
0.089440 0.513255 0.115755
0.360737 0.511383 0.091447
0.582399 0.529758 0.051325
0.793327 0.561662 0.044462
0.940464 0.557392 0.061586
-0.040340 0.739650 0.225100
0.087752 0.738424 0.121026
0.390221 0.745781 0.088833
0.606397 0.745005 0.065193
0.792265 0.740644 0.050236
0.940529 0.729273 0.071852
-0.059103 0.920247 0.220112
0.072715 0.919869 0.115297
0.380224 0.924671 0.069396
0.593160 0.918070 0.055990
0.784418 0.921622 0.049660
0.937795 0.906218 0.070601
-0.101559 -0.076460 0.219583
0.096956 -0.062667 0.244863
0.305349 -0.068150 0.289311
0.573430 -0.073080 0.342781
0.776712 -0.077279 0.354923
0.928931 -0.084072 0.346517
-0.101558 0.125932 0.238706
0.078590 0.121635 0.254590
0.295550 0.111160 0.293277
0.585340 0.083948 0.339080
0.793560 0.068391 0.341093
0.940279 0.060375 0.327347
-0.101574 0.282781 0.282439
0.057128 0.287487 0.287298
0.282225 0.311188 0.318839
0.584087 0.314607 0.299609
0.805365 0.300901 0.268881
0.954346 0.275267 0.241830
-0.090866 0.518143 0.361234
0.056050 0.523749 0.353473
0.260870 0.549140 0.315311
0.583178 0.550888 0.276209
0.807622 0.555955 0.218424
0.952623 0.536876 0.226662
-0.074814 0.746832 0.404782
0.062179 0.751361 0.388712
0.198367 0.764145 0.270008
0.572316 0.760452 0.208280
0.794218 0.749774 0.174953
0.947840 0.726141 0.200873
-0.087387 0.924368 0.398760
0.051781 0.926606 0.379537
0.156248 0.930049 0.230229
0.537953 0.928541 0.166558
0.764946 0.926912 0.146942
0.940123 0.913642 0.184068
-0.101562 -0.061494 0.384703
0.106352 -0.046131 0.412310
0.334902 -0.036486 0.483679
0.540174 -0.050213 0.512776
0.752672 -0.054675 0.549202
0.917529 -0.057831 0.543122
-0.101564 0.156128 0.406725
0.072534 0.140344 0.432916
0.301719 0.124587 0.521958
0.547919 0.098361 0.529547
0.767241 0.085251 0.557021
0.927432 0.079029 0.542134
-0.101590 0.335213 0.469109
0.054278 0.337596 0.484954
0.250222 0.339154 0.531262
0.559022 0.324673 0.560009
0.801591 0.300876 0.557220
0.956933 0.273550 0.521650
-0.101613 0.514995 0.516758
0.043759 0.519054 0.520993
0.205465 0.551416 0.553515
0.565546 0.575836 0.584882
0.807758 0.572472 0.561460
0.958769 0.553650 0.539469
-0.101659 0.740641 0.575516
0.039227 0.747294 0.573694
0.143563 0.768091 0.556236
0.545527 0.790718 0.560505
0.799673 0.781215 0.550870
0.952527 0.747772 0.528933
-0.101753 0.922304 0.571867
0.037935 0.925793 0.564120
0.118930 0.934185 0.523294
0.454510 0.947262 0.487628
0.741015 0.942042 0.472916
0.945577 0.931068 0.486644
-0.101561 -0.043535 0.578193
0.118459 -0.025405 0.611121
0.337313 -0.007311 0.708295
0.573540 -0.029431 0.710438
0.741077 -0.035870 0.722362
0.906619 -0.039319 0.723755
-0.101573 0.189314 0.600626
0.063343 0.155684 0.633995
0.289741 0.141500 0.725939
0.580967 0.112244 0.736013
0.754495 0.097396 0.740381
0.915392 0.091504 0.730225
-0.101591 0.381345 0.668461
0.050890 0.380924 0.690653
0.239011 0.362307 0.730321
0.562806 0.334386 0.783323
0.783288 0.308178 0.775463
0.941880 0.284155 0.740380
-0.101618 0.567997 0.721836
0.042733 0.571408 0.732601
0.184147 0.581204 0.772487
0.541440 0.585305 0.796737
0.801510 0.582910 0.791957
0.958975 0.564760 0.753393
-0.101668 0.745449 0.745824
0.039029 0.749217 0.749094
0.136603 0.763036 0.760775
0.521393 0.792230 0.790965
0.800295 0.797276 0.797932
0.956796 0.790518 0.785216
-0.101733 0.919239 0.740852
0.037926 0.922237 0.738391
0.115293 0.929780 0.724705
0.410521 0.948568 0.718415
0.777420 0.953316 0.781412
0.948797 0.945926 0.785439
-0.101573 -0.017665 0.779748
0.129006 0.001606 0.808200
0.319249 0.016777 0.873703
0.568464 0.005905 0.882184
0.744188 -0.013632 0.890414
0.903223 -0.026260 0.893228
-0.101577 0.225609 0.802957
0.057441 0.175627 0.824159
0.271861 0.155142 0.883505
0.558574 0.135149 0.908938
0.746704 0.113407 0.903759
0.911886 0.100078 0.905089
-0.101606 0.409792 0.853540
0.047719 0.401526 0.869618
0.232836 0.368049 0.901466
0.522671 0.345881 0.958104
0.751577 0.318192 0.933687
0.934331 0.288302 0.934234
-0.101626 0.582299 0.895336
0.041493 0.579341 0.902669
0.195603 0.574012 0.936558
0.522982 0.577069 0.951998
0.770964 0.585843 0.954211
0.945279 0.574068 0.948970
-0.101691 0.748229 0.914014
0.038613 0.748413 0.917374
0.133817 0.746252 0.933077
0.487169 0.758126 0.955180
0.791379 0.798771 0.961882
0.950497 0.797891 0.954642
-0.101745 0.921131 0.916616
0.037913 0.923783 0.918261
0.113991 0.930040 0.923477
0.398774 0.946419 0.938013
0.768571 0.952043 0.949120
0.954420 0.954395 0.955174
