kpg/editing/luts/EditorsKeys Cinematic Lut Pack/Editors Keys Neon Nights.cube
LUT_3D_SIZE 6
0.000000 0.007747 0.058116
0.115566 0.007747 0.058116
0.327507 0.007747 0.058116
0.465015 0.007747 0.058116
0.565079 0.007747 0.058116
0.673801 0.010914 0.058116
0.000000 0.117146 0.058116
0.097292 0.097335 0.061622
0.256610 0.123603 0.058625
0.406128 0.143593 0.058116
0.524652 0.152120 0.058116
0.651984 0.170929 0.058116
0.000000 0.249782 0.058116
0.105164 0.248288 0.058116
0.339712 0.244771 0.068166
0.509278 0.284315 0.068586
0.640697 0.320097 0.065168
0.757864 0.356679 0.063698
0.000000 0.375948 0.058116
0.018165 0.396286 0.058116
0.328408 0.388704 0.058116
0.533929 0.402412 0.066898
0.705467 0.436731 0.080147
0.836971 0.477906 0.080786
0.000000 0.500209 0.058116
0.000000 0.532040 0.058116
0.316184 0.525693 0.058116
0.536492 0.536377 0.058116
0.767302 0.532206 0.061680
0.868735 0.581956 0.080254
0.000000 0.690631 0.058116
0.000000 0.731775 0.058116
0.268408 0.732394 0.058116
0.516085 0.704517 0.058116
0.714498 0.727999 0.058116
0.941158 0.717174 0.058116
0.000000 0.013689 0.092304
0.072859 0.024760 0.154296
0.359390 0.007747 0.136064
0.539787 0.007747 0.108741
0.646859 0.007747 0.099274
0.773809 0.007747 0.094813
0.000000 0.108659 0.148441
0.037343 0.123078 0.173782
0.285197 0.130802 0.140322
0.483955 0.106116 0.089642
0.602151 0.063190 0.060302
0.725022 0.048296 0.058116
0.000000 0.255553 0.208065
0.000000 0.262907 0.193868
0.319729 0.261670 0.149870
0.512261 0.280311 0.068589
0.643005 0.312018 0.063680
0.760084 0.345095 0.062072
0.000000 0.398257 0.236425
0.000000 0.401454 0.186219
0.287071 0.403043 0.058116
0.524041 0.412802 0.063738
0.707460 0.440654 0.086678
0.844451 0.480497 0.085240
0.000000 0.529814 0.222306
0.000000 0.534372 0.058116
0.254712 0.561120 0.058116
0.515116 0.553931 0.058116
0.755522 0.549765 0.059112
0.870590 0.591735 0.106792
0.000000 0.726358 0.058116
0.000000 0.734275 0.058116
0.112582 0.776692 0.058116
0.497105 0.726783 0.058116
0.699120 0.749483 0.058116
0.938299 0.734165 0.058116
0.000000 0.048067 0.131853
0.000000 0.089807 0.193722
0.250020 0.072522 0.284429
0.479479 0.055053 0.298414
0.620114 0.045431 0.289437
0.772286 0.027035 0.288582
0.000000 0.126085 0.186172
0.000000 0.150418 0.222064
0.222472 0.167877 0.297911
0.474193 0.137383 0.304090
0.656062 0.098231 0.287184
0.818662 0.065818 0.282066
0.000000 0.252765 0.283780
0.000000 0.260151 0.290534
0.203323 0.327674 0.379117
0.514552 0.339087 0.344031
0.706539 0.339577 0.307567
0.851007 0.324045 0.267607
0.000000 0.405266 0.337626
0.000000 0.419176 0.339986
0.128463 0.481876 0.366030
0.565949 0.481091 0.058116
0.728547 0.507038 0.321173
0.881678 0.526754 0.280144
0.000000 0.545991 0.360114
0.000000 0.565869 0.354038
0.000000 0.617157 0.317297
0.479991 0.619591 0.058116
0.756606 0.619596 0.058116
0.889009 0.647258 0.278028
0.000000 0.748649 0.337850
0.000000 0.768126 0.312787
0.000000 0.799773 0.058116
0.436493 0.821798 0.058116
0.663987 0.814156 0.058116
0.949679 0.786612 0.058116
0.000000 0.075730 0.163412
0.000000 0.114692 0.217899
0.211118 0.137798 0.344480
0.404123 0.104642 0.392404
0.535343 0.091085 0.411035
0.700267 0.080628 0.434431
0.000000 0.144135 0.211062
0.000000 0.174203 0.254228
0.111063 0.230446 0.419438
0.391993 0.173960 0.417695
0.552140 0.141566 0.438754
0.729833 0.119546 0.459415
0.000000 0.265956 0.325774
0.000000 0.278554 0.341418
0.123940 0.362986 0.453199
0.456502 0.364621 0.509436
0.693588 0.342136 0.509459
0.875494 0.305834 0.490885
0.000000 0.392270 0.417006
0.000001 0.406029 0.428389
0.000000 0.486576 0.509664
0.456002 0.541831 0.581992
0.726052 0.546318 0.538110
0.893566 0.543707 0.507175
0.000000 0.521291 0.459450
0.000000 0.555480 0.472254
0.000000 0.610539 0.483921
0.438608 0.696795 0.531421
0.743000 0.678041 0.290109
0.905532 0.696257 0.520200
0.000000 0.738220 0.483341
0.000000 0.768579 0.480125
0.000000 0.810726 0.463536
0.199019 0.879878 0.429067
0.659489 0.861955 0.288959
0.948947 0.841368 0.058116
0.000000 0.105641 0.198138
0.000000 0.146257 0.254522
0.101222 0.207944 0.446832
0.396594 0.145563 0.450745
0.496893 0.129583 0.489098
0.638810 0.122064 0.530217
0.000000 0.167036 0.240140
0.000000 0.199762 0.287578
0.035227 0.274280 0.418900
0.371297 0.225030 0.476733
0.518445 0.174935 0.522583
0.661048 0.161028 0.560993
0.000000 0.284985 0.361590
0.000000 0.301117 0.383940
0.096064 0.394321 0.512139
0.426020 0.385707 0.693203
0.622306 0.369853 0.625311
0.781994 0.339204 0.643728
0.000000 0.415138 0.481099
0.000000 0.431640 0.500679
0.000000 0.517303 0.622306
0.425652 0.568484 0.678368
0.693396 0.560812 0.691701
0.902109 0.540470 0.683622
0.000000 0.530827 0.545230
0.000000 0.546494 0.556419
0.000000 0.609928 0.607053
0.390542 0.690656 0.692372
0.710174 0.716290 0.713818
0.914246 0.715783 0.685895
0.000000 0.716228 0.590830
0.000000 0.743432 0.598508
0.000000 0.788520 0.600740
0.090653 0.880450 0.647678
0.629841 0.911788 0.656188
0.941761 0.880427 0.412027
0.000000 0.152375 0.254301
0.000000 0.198025 0.318580
0.050010 0.275322 0.481572
0.390608 0.226669 0.560053
0.510893 0.184452 0.567580
0.632863 0.151949 0.619090
0.000000 0.220591 0.309963
0.000000 0.252491 0.355458
0.000000 0.329936 0.491892
0.363582 0.283052 0.704724
0.520990 0.248587 0.604534
0.660901 0.190603 0.657410
0.000000 0.336716 0.441746
0.000000 0.373413 0.498267
0.086194 0.449506 0.611336
0.366040 0.438262 0.854826
0.630299 0.404331 0.742233
0.756753 0.370822 0.760309
0.000000 0.471502 0.594050
0.000000 0.484314 0.615186
0.000000 0.581023 0.747488
0.389411 0.603645 0.822438
0.708316 0.580547 0.861720
0.839327 0.571749 0.836800
0.000000 0.590680 0.681599
0.000000 0.603013 0.695646
0.000000 0.671473 0.796473
0.350775 0.730689 0.858721
0.686560 0.742115 0.894708
0.884629 0.734092 0.876465
0.000000 0.731585 0.723048
0.000000 0.750841 0.736837
0.000000 0.795557 0.770012
0.151312 0.871608 0.845131
0.610889 0.900663 0.877658
0.925560 0.915518 0.906233
