kpg/editing/luts/EditorsKeys Cinematic Lut Pack/Editors Keys Orange and Teal.cube
LUT_3D_SIZE 16
0.000000 0.014598 0.053620
0.000000 0.014598 0.053620
0.000000 0.014598 0.053620
0.005599 0.014598 0.053620
0.033603 0.014598 0.053620
0.099471 0.014598 0.053620
0.212202 0.014598 0.053620
0.335771 0.014598 0.053620
0.437949 0.014598 0.053620
0.514609 0.014598 0.053620
0.581040 0.014598 0.053620
0.643277 0.014598 0.053620
0.702372 0.014598 0.053620
0.756779 0.014598 0.053620
0.807167 0.014598 0.053620
0.851364 0.014598 0.053620
0.000000 0.014598 0.053620
0.000000 0.014598 0.053620
0.000000 0.014598 0.053620
0.005585 0.014598 0.053620
0.033591 0.014598 0.053620
0.099489 0.014598 0.053620
0.212197 0.014598 0.053620
0.335769 0.014598 0.053620
0.437946 0.014598 0.053620
0.514605 0.014598 0.053620
0.581038 0.014598 0.053620
0.643276 0.014598 0.053620
0.702370 0.014598 0.053620
0.756776 0.014598 0.053620
0.807166 0.014598 0.053620
0.851363 0.014598 0.053620
0.000000 0.014598 0.053620
0.000000 0.014598 0.053620
0.000000 0.014598 0.053620
0.005528 0.014598 0.053620
0.033568 0.014598 0.053620
0.099470 0.014598 0.053620
0.212167 0.014598 0.053620
0.335753 0.014598 0.053620
0.437935 0.014598 0.053620
0.514645 0.014598 0.053620
0.581030 0.014598 0.053620
0.643272 0.014598 0.053620
0.702364 0.014598 0.053620
0.756768 0.014598 0.053620
0.807160 0.014598 0.053620
0.851357 0.014598 0.053620
0.000000 0.045466 0.053620
0.000000 0.045465 0.053620
0.000000 0.045460 0.053620
0.005822 0.042938 0.053620
0.033510 0.014598 0.053620
0.099483 0.014598 0.053620
0.212147 0.014598 0.053620
0.335738 0.014598 0.053620
0.437915 0.014598 0.053620
0.514613 0.014598 0.053620
0.580995 0.014598 0.053620
0.643265 0.014598 0.053620
0.702354 0.014598 0.053620
0.744615 0.051845 0.053620
0.796139 0.063007 0.053620
0.837889 0.070024 0.053620
0.000000 0.086001 0.053620
0.000000 0.086001 0.053620
0.000000 0.086000 0.053620
0.000000 0.085999 0.053620
0.027191 0.077428 0.054614
0.062353 0.072743 0.053620
0.126427 0.082688 0.053620
0.244014 0.099736 0.053620
0.353776 0.117298 0.053620
0.452032 0.133787 0.053620
0.541815 0.148842 0.053620
0.612845 0.162305 0.053620
0.675786 0.175829 0.053620
0.738642 0.189813 0.053620
0.799965 0.203608 0.053620
0.845465 0.212849 0.053620
0.000000 0.129695 0.053620
0.000000 0.129695 0.053620
0.000000 0.129694 0.053620
0.000000 0.129693 0.053620
0.025644 0.121457 0.053620
0.080225 0.121155 0.053730
0.166998 0.133692 0.053620
0.285016 0.156986 0.053620
0.395527 0.182816 0.053620
0.488103 0.205748 0.053620
0.574260 0.227839 0.053620
0.650603 0.247748 0.053620
0.711406 0.263975 0.053620
0.770384 0.279851 0.053620
0.825819 0.294316 0.053620
0.870564 0.303510 0.053620
0.000000 0.180938 0.053620
0.000000 0.180938 0.053620
0.000000 0.180937 0.053620
0.000000 0.180937 0.053620
0.034155 0.178417 0.053620
0.098209 0.168143 0.054858
0.192768 0.178751 0.053620
0.316234 0.206734 0.053620
0.430902 0.238609 0.053620
0.523402 0.266076 0.053620
0.606474 0.290826 0.053620
0.684417 0.314027 0.053620
0.745567 0.331971 0.053620
0.799477 0.347291 0.053620
0.851491 0.360948 0.053620
0.895251 0.369595 0.053620
0.000000 0.240709 0.053620
0.000000 0.240709 0.053620
0.000000 0.240709 0.053620
0.000000 0.240708 0.053620
0.048825 0.242361 0.053620
0.127285 0.230862 0.053620
0.265362 0.226559 0.063974
0.332088 0.253463 0.053730
0.452648 0.290751 0.053620
0.545136 0.321548 0.053620
0.626224 0.348442 0.053620
0.702821 0.373494 0.053620
0.766819 0.393414 0.053620
0.818985 0.408588 0.053620
0.868893 0.422024 0.053620
0.920335 0.428720 0.053620
0.000000 0.305763 0.053620
0.000000 0.305763 0.053620
0.000000 0.305762 0.053620
0.001914 0.305763 0.053620
0.068521 0.311230 0.053620
0.173461 0.302804 0.053620
0.260304 0.303809 0.053620
0.407349 0.300282 0.069034
0.461213 0.335750 0.054495
0.555843 0.370626 0.053620
0.636495 0.399444 0.053620
0.711991 0.426016 0.053620
0.779139 0.447864 0.053620
0.830916 0.462448 0.053620
0.879919 0.474196 0.053620
0.927383 0.488222 0.053620
0.000000 0.375666 0.053620
0.000000 0.375666 0.053620
0.000000 0.375666 0.053620
0.007407 0.375666 0.053620
0.092803 0.385664 0.053620
0.218726 0.382408 0.053620
0.304828 0.375462 0.053620
0.391419 0.378356 0.055781
0.529806 0.378253 0.072430
0.569003 0.412205 0.057473
0.639767 0.446209 0.053620
0.716007 0.473527 0.053620
0.786775 0.495937 0.053620
0.839110 0.510909 0.053620
0.887402 0.522595 0.053620
0.934295 0.540477 0.053620
0.000000 0.441336 0.053620
0.000000 0.441336 0.053620
0.000000 0.441336 0.053620
0.015242 0.441337 0.053620
0.115446 0.460726 0.053620
0.252970 0.463087 0.053620
0.341734 0.450880 0.053620
0.418031 0.456798 0.053620
0.519597 0.452417 0.060683
0.635967 0.453650 0.077179
0.665056 0.480843 0.063812
0.720102 0.517737 0.054660
0.788984 0.542761 0.053620
0.844388 0.558561 0.053620
0.893999 0.569362 0.053620
0.937479 0.589683 0.053620
0.000000 0.510411 0.053620
0.000000 0.510411 0.053620
0.000000 0.510411 0.053620
0.026815 0.510412 0.053620
0.132958 0.535119 0.053620
0.278265 0.541162 0.053620
0.372767 0.528762 0.053620
0.449403 0.529020 0.053620
0.519941 0.536945 0.053620
0.620936 0.527766 0.063695
0.725732 0.524662 0.081275
0.757710 0.547976 0.070782
0.799225 0.584617 0.057553
0.848865 0.604929 0.053620
0.898030 0.615698 0.053620
0.939814 0.634839 0.053620
0.000000 0.585811 0.053620
0.000000 0.585811 0.053620
0.000086 0.585811 0.053620
0.051499 0.585811 0.053620
0.140650 0.615175 0.053620
0.296395 0.623436 0.053620
0.397695 0.611153 0.053620
0.473939 0.602476 0.053620
0.547288 0.610286 0.053620
0.604696 0.613825 0.053620
0.704955 0.602269 0.065032
0.810212 0.596396 0.084442
0.843189 0.613430 0.076048
0.869564 0.643015 0.061585
0.903363 0.660455 0.054406
0.939620 0.680949 0.053620
0.000000 0.668021 0.053620
0.000000 0.668021 0.053620
0.000000 0.668021 0.053620
0.081459 0.677255 0.053620
0.143336 0.702718 0.053620
0.307991 0.711218 0.053620
0.415116 0.699125 0.053620
0.496555 0.687252 0.053620
0.569267 0.687700 0.053620
0.627811 0.691732 0.053620
0.682331 0.694327 0.053620
0.785491 0.682303 0.065524
0.893617 0.669062 0.087582
0.921635 0.675051 0.082467
0.938137 0.698398 0.068593
0.962330 0.721174 0.063871
0.000000 0.750504 0.053620
0.000000 0.750504 0.053620
0.000000 0.750504 0.053620
0.072557 0.763346 0.053620
0.141227 0.784685 0.053620
0.311947 0.792901 0.053620
0.425065 0.781932 0.053620
0.512408 0.771839 0.053620
0.581173 0.763769 0.053620
0.641425 0.768423 0.053620
0.698821 0.772214 0.053620
0.756482 0.775579 0.053620
0.866741 0.762897 0.066578
0.959786 0.740542 0.088176
0.993560 0.734595 0.090924
1.016055 0.753754 0.087021
0.000000 0.823450 0.053620
0.000000 0.823449 0.053620
0.000000 0.823449 0.053620
0.058099 0.833722 0.053620
0.137166 0.850250 0.053620
0.313626 0.854119 0.053620
0.427764 0.843499 0.053620
0.517160 0.833758 0.053620
0.584598 0.824815 0.053620
0.643283 0.824527 0.053620
0.701656 0.829136 0.053620
0.760887 0.834406 0.053620
0.824032 0.839867 0.053909
0.922022 0.826004 0.066356
1.002595 0.801709 0.086095
1.042600 0.798554 0.093751
0.000000 0.014598 0.053620
0.000000 0.014598 0.053620
0.000000 0.014598 0.053620
0.005598 0.014598 0.053620
0.033601 0.014598 0.053620
0.099470 0.014598 0.053620
0.212202 0.014598 0.053620
0.335770 0.014598 0.053620
0.437948 0.014598 0.053620
0.514608 0.014598 0.053620
0.581039 0.014598 0.053620
0.643277 0.014598 0.053620
0.702372 0.014598 0.053620
0.756779 0.014598 0.053620
0.807167 0.014598 0.053620
0.851364 0.014598 0.053620
0.000000 0.014598 0.053620
0.000000 0.014598 0.053620
0.000000 0.014598 0.053620
0.005581 0.014598 0.053620
0.033581 0.014598 0.053620
0.099478 0.014598 0.053620
0.212183 0.014598 0.053620
0.335767 0.014598 0.053620
0.437944 0.014598 0.053620
0.514602 0.014598 0.053620
0.581036 0.014598 0.053620
0.643275 0.014598 0.053620
0.702370 0.014598 0.053620
0.756775 0.014598 0.053620
0.807165 0.014598 0.053620
0.851362 0.014598 0.053620
0.000000 0.014598 0.053620
0.000000 0.014598 0.053620
0.000000 0.014598 0.053620
0.005527 0.014598 0.053620
0.033565 0.014598 0.053620
0.099420 0.014598 0.053620
0.212173 0.014598 0.053620
0.335752 0.014598 0.053620
0.437933 0.014598 0.053620
0.514641 0.014598 0.053620
0.581028 0.014598 0.053620
0.643271 0.014598 0.053620
0.702364 0.014598 0.053620
0.756767 0.014598 0.053620
0.807160 0.014598 0.053620
0.851356 0.014598 0.053620
0.000000 0.045465 0.053620
0.000000 0.045464 0.053620
0.000000 0.045459 0.053620
0.005822 0.042935 0.053620
0.033509 0.014598 0.053620
0.099475 0.014598 0.053620
0.212142 0.014598 0.053620
0.335737 0.014598 0.053620
0.437913 0.014598 0.053620
0.514611 0.014598 0.053620
0.580994 0.014598 0.053620
0.643264 0.014598 0.053620
0.686240 0.042574 0.053620
0.742751 0.055170 0.053620
0.795285 0.065044 0.053620
0.837185 0.071492 0.053620
0.000000 0.086001 0.053620
0.000000 0.086001 0.053620
0.000000 0.086000 0.053620
0.000000 0.085999 0.053620
0.027189 0.077426 0.054614
0.062977 0.074054 0.053620
0.127974 0.084759 0.053620
0.245037 0.102343 0.053620
0.354728 0.120195 0.053620
0.452745 0.136502 0.053620
0.542533 0.151512 0.053620
0.613794 0.164864 0.053620
0.676453 0.177992 0.053620
0.739166 0.191521 0.053620
0.800100 0.204943 0.053620
0.845720 0.213982 0.053620
0.000000 0.129695 0.053620
0.000000 0.129695 0.053620
0.000000 0.129694 0.053620
0.000000 0.129693 0.053620
0.026488 0.121250 0.053620
0.080225 0.121152 0.053730
0.167671 0.134383 0.053620
0.285810 0.158038 0.053620
0.396576 0.184011 0.053620
0.489014 0.207081 0.053620
0.574951 0.229109 0.053620
0.651265 0.248982 0.053620
0.712197 0.265011 0.053620
0.770705 0.280609 0.053620
0.825956 0.294884 0.053620
0.870717 0.303993 0.053620
0.000000 0.180938 0.053620
0.000000 0.180938 0.053620
0.000000 0.180937 0.053620
0.000000 0.180937 0.053620
0.035981 0.177743 0.053620
0.100150 0.167907 0.055086
0.192767 0.178750 0.053620
0.316310 0.207101 0.053620
0.431256 0.239270 0.053620
0.523631 0.266759 0.053620
0.606722 0.291538 0.053620
0.684781 0.314734 0.053620
0.745849 0.332662 0.053620
0.799931 0.347803 0.053620
0.851655 0.361389 0.053620
0.895298 0.369916 0.053620
0.000000 0.240709 0.053620
0.000000 0.240709 0.053620
0.000000 0.240709 0.053620
0.000092 0.240708 0.053620
0.051095 0.242475 0.053620
0.128884 0.230945 0.053620
0.266602 0.226542 0.064114
0.332087 0.253463 0.053730
0.452731 0.291019 0.053620
0.545217 0.321966 0.053620
0.626297 0.348838 0.053620
0.702888 0.373950 0.053620
0.767026 0.393788 0.053620
0.819012 0.408962 0.053620
0.868947 0.422219 0.053620
0.920465 0.428952 0.053620
0.000000 0.305763 0.053620
0.000000 0.305762 0.053620
0.000000 0.305762 0.053620
0.002941 0.305762 0.053620
0.070310 0.311519 0.053620
0.175510 0.302463 0.053620
0.261309 0.303817 0.053620
0.407744 0.300384 0.069021
0.461212 0.335784 0.054495
0.555891 0.370790 0.053620
0.636534 0.399725 0.053620
0.711992 0.426245 0.053620
0.779182 0.448069 0.053620
0.830819 0.462629 0.053620
0.880019 0.474292 0.053620
0.927283 0.488395 0.053620
0.000000 0.375666 0.053620
0.000000 0.375666 0.053620
0.000000 0.375666 0.053620
0.009646 0.375666 0.053620
0.096405 0.386164 0.053620
0.220954 0.381900 0.053620
0.305741 0.375473 0.053620
0.392445 0.378066 0.055897
0.529961 0.378330 0.072401
0.569003 0.412204 0.057473
0.639772 0.446296 0.053620
0.716028 0.473624 0.053620
0.786841 0.496202 0.053620
0.839131 0.510997 0.053620
0.887458 0.522721 0.053620
0.934374 0.540577 0.053620
0.000000 0.441336 0.053620
0.000000 0.441336 0.053620
0.000000 0.441336 0.053620
0.019096 0.441337 0.053620
0.118535 0.461297 0.053620
0.254989 0.462840 0.053620
0.342717 0.450862 0.053620
0.418656 0.456936 0.053620
0.520470 0.452422 0.060800
0.636124 0.453714 0.077169
0.665056 0.480843 0.063812
0.720085 0.517848 0.054675
0.789002 0.542858 0.053620
0.844453 0.558749 0.053620
0.894010 0.569485 0.053620
0.937497 0.589759 0.053620
0.000000 0.510411 0.053620
0.000000 0.510411 0.053620
0.000078 0.510413 0.053620
0.034200 0.510413 0.053620
0.135414 0.535560 0.053620
0.280119 0.540918 0.053620
0.373711 0.528602 0.053620
0.449957 0.528992 0.053620
0.520207 0.536979 0.053620
0.621510 0.527700 0.063786
0.725759 0.524637 0.081281
0.757710 0.547976 0.070782
0.799274 0.584660 0.057568
0.848874 0.605059 0.053620
0.898023 0.615912 0.053620
0.939812 0.634864 0.053620
0.000000 0.585811 0.053620
0.000000 0.585811 0.053620
0.000212 0.585811 0.053620
0.079384 0.588299 0.053620
0.143552 0.615613 0.053620
0.298212 0.623271 0.053620
0.398533 0.611032 0.053620
0.474520 0.602577 0.053620
0.547668 0.610304 0.053620
0.604942 0.613830 0.053620
0.705339 0.602265 0.065099
0.810204 0.596406 0.084444
0.843188 0.613430 0.076048
0.869588 0.643012 0.061599
0.903424 0.660524 0.054409
0.939625 0.680974 0.053620
0.000000 0.668021 0.053620
0.000000 0.668021 0.053620
0.000000 0.668021 0.053620
0.083472 0.678363 0.053620
0.145926 0.703019 0.053620
0.309506 0.711172 0.053620
0.415864 0.699153 0.053620
0.496903 0.687205 0.053620
0.569643 0.687726 0.053620
0.627933 0.691711 0.053620
0.682621 0.694343 0.053620
0.785577 0.682313 0.065535
0.893663 0.669002 0.087602
0.921634 0.675051 0.082467
0.938163 0.698356 0.068601
0.962343 0.721089 0.063890
0.000000 0.750504 0.053620
0.000000 0.750503 0.053620
0.000000 0.750503 0.053620
0.073368 0.764132 0.053620
0.143183 0.784861 0.053620
0.313041 0.792854 0.053620
0.425745 0.781927 0.053620
0.512848 0.771830 0.053620
0.581512 0.763816 0.053620
0.641572 0.768279 0.053620
0.698829 0.772237 0.053620
0.756638 0.775599 0.053620
0.866986 0.762865 0.066612
0.959844 0.740465 0.088179
0.993560 0.734595 0.090924
1.016048 0.753744 0.087019
0.000000 0.823450 0.053620
0.000000 0.823449 0.053620
0.000000 0.823449 0.053620
0.058848 0.834078 0.053620
0.138935 0.850625 0.053620
0.314586 0.853822 0.053620
0.428305 0.843464 0.053620
0.517390 0.833689 0.053620
0.584802 0.824752 0.053620
0.643358 0.824567 0.053620
0.701767 0.829169 0.053620
0.761041 0.834456 0.053620
0.824228 0.839871 0.053909
0.922071 0.825948 0.066372
1.002656 0.801700 0.086103
1.042600 0.798553 0.093751
0.000000 0.014598 0.053620
0.000000 0.014598 0.053620
0.000000 0.014598 0.053620
0.005592 0.014598 0.053620
0.033594 0.014598 0.053620
0.099465 0.014598 0.053620
0.212199 0.014598 0.053620
0.335769 0.014598 0.053620
0.437947 0.014598 0.053620
0.514606 0.014598 0.053620
0.581038 0.014598 0.053620
0.643276 0.014598 0.053620
0.702371 0.014598 0.053620
0.756777 0.014598 0.053620
0.807166 0.014598 0.053620
0.851363 0.014598 0.053620
0.000000 0.014598 0.053620
0.000000 0.014598 0.053620
0.000000 0.014598 0.053620
0.005576 0.014598 0.053620
0.033576 0.014598 0.053620
0.099475 0.014598 0.053620
0.212180 0.014598 0.053620
0.335766 0.014598 0.053620
0.437943 0.014598 0.053620
0.514600 0.014598 0.053620
0.581035 0.014598 0.053620
0.643275 0.014598 0.053620
0.702369 0.014598 0.053620
0.756773 0.014598 0.053620
0.807165 0.014598 0.053620
0.851361 0.014598 0.053620
0.000000 0.014598 0.053620
0.000000 0.014598 0.053620
0.000000 0.014598 0.053620
0.005505 0.014598 0.053620
0.033541 0.014598 0.053620
0.099475 0.014598 0.053620
0.212159 0.014598 0.053620
0.335743 0.014598 0.053620
0.437923 0.014598 0.053620
0.514628 0.014598 0.053620
0.581022 0.014598 0.053620
0.643269 0.014598 0.053620
0.702360 0.014598 0.053620
0.756761 0.014598 0.053620
0.807157 0.014598 0.053620
0.851354 0.014598 0.053620
0.000000 0.045464 0.053620
0.000000 0.045462 0.053620
0.000000 0.045457 0.053620
0.005817 0.042918 0.053620
0.033495 0.014598 0.053620
0.099398 0.014598 0.053620
0.212122 0.014598 0.053620
0.335730 0.014598 0.053620
0.437906 0.014598 0.053620
0.476160 0.042778 0.053620
0.541089 0.050039 0.053620
0.604521 0.056075 0.053620
0.669744 0.061069 0.053620
0.734582 0.066567 0.053620
0.790400 0.073564 0.053620
0.831074 0.080303 0.053620
0.000000 0.086001 0.053620
0.000000 0.086001 0.053620
0.000000 0.085999 0.053620
0.000000 0.085999 0.053620
0.027187 0.077425 0.054614
0.065742 0.079954 0.053620
0.134629 0.093459 0.053620
0.249425 0.112966 0.053620
0.359757 0.131453 0.053620
0.455931 0.147662 0.053620
0.545616 0.162571 0.053620
0.617753 0.175284 0.053620
0.679089 0.186632 0.053620
0.741112 0.198696 0.053620
0.801479 0.210643 0.053620
0.846896 0.218564 0.053620
0.000000 0.129695 0.053620
0.000000 0.129694 0.053620
0.000000 0.129693 0.053620
0.000000 0.129693 0.053620
0.030429 0.120377 0.053620
0.080224 0.121151 0.053702
0.169833 0.137444 0.053620
0.289134 0.162648 0.053620
0.400444 0.189397 0.053620
0.492769 0.212592 0.053620
0.578025 0.234499 0.053620
0.654331 0.254085 0.053620
0.714705 0.269445 0.053620
0.772513 0.284130 0.053620
0.827015 0.297491 0.053620
0.871446 0.306092 0.053620
0.000000 0.180938 0.053620
0.000000 0.180938 0.053620
0.000000 0.180937 0.053620
0.000342 0.180937 0.053620
0.044001 0.174932 0.053620
0.111867 0.166362 0.056627
0.192764 0.178748 0.053620
0.317267 0.208998 0.053620
0.432760 0.242108 0.053620
0.525155 0.269984 0.053620
0.607944 0.294792 0.053620
0.686018 0.317803 0.053620
0.746996 0.335315 0.053620
0.800621 0.349927 0.053620
0.852205 0.363137 0.053620
0.895745 0.371428 0.053620
0.000000 0.240709 0.053620
0.000000 0.240709 0.053620
0.000000 0.240709 0.053620
0.005299 0.240708 0.053620
0.061458 0.242364 0.053620
0.136003 0.231260 0.053620
0.272080 0.226686 0.064678
0.332086 0.253462 0.053730
0.453048 0.292163 0.053620
0.545728 0.323670 0.053620
0.626818 0.350831 0.053620
0.703403 0.375898 0.053620
0.767428 0.395466 0.053620
0.819448 0.410364 0.053620
0.869314 0.423482 0.053620
0.920478 0.430114 0.053620
0.000000 0.305762 0.053620
0.000000 0.305762 0.053620
0.000000 0.305762 0.057619
0.019718 0.305769 0.055753
0.084884 0.312770 0.053620
0.184232 0.301039 0.053620
0.266035 0.304003 0.053702
0.409486 0.300946 0.068880
0.461211 0.335783 0.054497
0.555859 0.371439 0.053620
0.636694 0.400634 0.053620
0.712146 0.427402 0.053620
0.779276 0.449180 0.053620
0.831224 0.463602 0.053620
0.879991 0.475097 0.053620
0.927341 0.489188 0.053620
0.000000 0.375666 0.055735
0.000000 0.375666 0.058585
0.000000 0.375674 0.068015
0.053687 0.376515 0.062448
0.111581 0.388241 0.060257
0.229967 0.380389 0.063849
0.310237 0.375917 0.053620
0.397233 0.377402 0.056426
0.530765 0.378804 0.072241
0.569003 0.412203 0.057473
0.639774 0.446815 0.053620
0.716004 0.474293 0.053620
0.786656 0.496790 0.053620
0.839159 0.511737 0.053620
0.887464 0.523263 0.053620
0.934354 0.541111 0.053620
0.000000 0.441336 0.064400
0.000000 0.441336 0.066279
0.000249 0.441350 0.074143
0.069379 0.444323 0.066269
0.131276 0.463543 0.063746
0.262994 0.461602 0.066951
0.346763 0.450839 0.062149
0.421239 0.457233 0.053620
0.523862 0.452196 0.061283
0.636591 0.453898 0.077127
0.665055 0.480842 0.063812
0.720136 0.518071 0.054728
0.788915 0.543232 0.053620
0.844457 0.559180 0.053620
0.893927 0.569881 0.053620
0.937423 0.590096 0.053620
0.000000 0.510411 0.069710
0.000000 0.510411 0.071464
0.000487 0.510442 0.077920
0.082220 0.515276 0.068269
0.146892 0.537605 0.064585
0.287714 0.540032 0.066882
0.377274 0.528122 0.063247
0.452684 0.529466 0.053620
0.521585 0.537012 0.053620
0.623280 0.527447 0.064085
0.726189 0.524762 0.081299
0.757709 0.547975 0.070782
0.799415 0.584788 0.057619
0.848957 0.605254 0.053620
0.898073 0.616124 0.053620
0.939801 0.635146 0.053620
0.000000 0.585811 0.071898
0.000000 0.585811 0.073502
0.000487 0.585818 0.078924
0.090295 0.593909 0.067576
0.156965 0.617216 0.062477
0.305226 0.622467 0.062828
0.401999 0.610515 0.057003
0.476979 0.602780 0.053620
0.549193 0.610430 0.053620
0.605751 0.613851 0.053620
0.706607 0.602073 0.065324
0.810559 0.596402 0.084487
0.843188 0.613429 0.076048
0.869666 0.643098 0.061659
0.903401 0.660689 0.054429
0.939703 0.681251 0.053658
0.000000 0.668021 0.069050
0.000000 0.668021 0.070494
0.000094 0.668027 0.075643
0.089021 0.683050 0.062054
0.156849 0.704148 0.053620
0.315390 0.710764 0.053620
0.419074 0.698658 0.053620
0.498857 0.687007 0.053620
0.570970 0.687925 0.053620
0.628738 0.691762 0.053620
0.683070 0.694337 0.053620
0.786340 0.682129 0.065682
0.894109 0.669096 0.087649
0.921634 0.675050 0.082467
0.938388 0.698434 0.068625
0.962452 0.721194 0.063927
0.000000 0.750504 0.059791
0.000000 0.750503 0.061466
0.000000 0.750504 0.067564
0.076438 0.766592 0.053620
0.151844 0.785657 0.053620
0.317923 0.792294 0.053620
0.428252 0.781620 0.053620
0.514367 0.771685 0.053620
0.582356 0.763909 0.053620
0.642272 0.768377 0.053620
0.699367 0.772164 0.053620
0.757120 0.775667 0.053620
0.867724 0.762826 0.066747
0.959764 0.740474 0.088183
0.993559 0.734594 0.090924
1.016056 0.753755 0.087022
0.000000 0.823450 0.053620
0.000000 0.823449 0.053620
0.000000 0.823449 0.053620
0.061394 0.835455 0.053620
0.146544 0.851156 0.053620
0.318598 0.853609 0.053620
0.430622 0.843170 0.053620
0.518670 0.833489 0.053620
0.585493 0.824797 0.053620
0.643901 0.824611 0.053620
0.702162 0.829188 0.053620
0.761260 0.834447 0.053620
0.824507 0.839826 0.053921
0.922365 0.825957 0.066414
1.002909 0.801704 0.086154
1.042599 0.798553 0.093751
0.000000 0.014598 0.072572
0.000000 0.014598 0.072491
0.000000 0.014598 0.072169
0.004144 0.014598 0.075637
0.033584 0.014598 0.053620
0.099482 0.014598 0.053620
0.212194 0.014598 0.053620
0.335768 0.014598 0.053620
0.437944 0.014598 0.053620
0.514602 0.014598 0.053620
0.581036 0.014598 0.053620
0.643275 0.014598 0.053620
0.702370 0.014598 0.053620
0.772917 0.014598 0.053620
0.828622 0.014598 0.053620
0.873717 0.014598 0.053620
0.000000 0.014598 0.072338
0.000000 0.014598 0.072194
0.000000 0.014598 0.071862
0.004116 0.014598 0.075546
0.033566 0.014598 0.053620
0.099465 0.014598 0.053620
0.212175 0.014598 0.053620
0.335764 0.014598 0.053620
0.437940 0.014598 0.053620
0.514595 0.014598 0.053620
0.581033 0.014598 0.053620
0.643274 0.014598 0.053620
0.711590 0.014598 0.053620
0.775681 0.014598 0.053620
0.830232 0.014598 0.053620
0.874667 0.014598 0.053620
0.000000 0.014598 0.071305
0.000000 0.014598 0.071170
0.000000 0.014598 0.070474
0.004011 0.014598 0.075175
0.033533 0.014598 0.053620
0.099468 0.014598 0.053620
0.212154 0.014598 0.053620
0.335741 0.014598 0.053620
0.437921 0.014598 0.053620
0.526050 0.014598 0.053620
0.598489 0.014598 0.053620
0.664836 0.014598 0.053620
0.728148 0.014598 0.053620
0.786291 0.014598 0.053620
0.836471 0.014598 0.053620
0.879909 0.014598 0.053620
0.000000 0.070821 0.096328
0.000000 0.068986 0.094844
0.000000 0.060034 0.087608
0.002493 0.046384 0.077974
0.022490 0.041081 0.069710
0.073869 0.037900 0.061577
0.167962 0.036636 0.053620
0.282341 0.036788 0.053620
0.394710 0.036397 0.053620
0.492168 0.036749 0.053620
0.569290 0.036458 0.053620
0.635299 0.036541 0.053620
0.698525 0.037092 0.053620
0.760565 0.037854 0.053620
0.813595 0.039480 0.053620
0.857159 0.041851 0.053620
0.000000 0.086001 0.053620
0.000000 0.086000 0.053620
0.000000 0.085999 0.053620
0.004018 0.084087 0.079354
0.024868 0.077386 0.074411
0.070093 0.084597 0.059554
0.141745 0.096826 0.053620
0.254777 0.114452 0.053620
0.360738 0.130639 0.053620
0.455075 0.143588 0.053620
0.543864 0.155219 0.053620
0.615245 0.164662 0.053620
0.676278 0.173227 0.053620
0.738038 0.181999 0.053620
0.798316 0.190913 0.053620
0.844415 0.197686 0.053620
0.000000 0.129694 0.053620
0.000000 0.129694 0.053620
0.000000 0.129693 0.053620
0.005822 0.127817 0.089787
0.031360 0.119490 0.085326
0.076781 0.120386 0.069812
0.168808 0.136960 0.053620
0.288066 0.162112 0.053620
0.399409 0.188061 0.053620
0.490407 0.209798 0.053620
0.574710 0.230166 0.053620
0.651594 0.248601 0.053620
0.711587 0.262789 0.053620
0.769822 0.276504 0.053620
0.824919 0.289259 0.053620
0.870055 0.297655 0.053620
0.000000 0.180938 0.053620
0.000000 0.180938 0.053620
0.000000 0.180937 0.067894
0.010410 0.179569 0.103014
0.043784 0.175647 0.098704
0.108627 0.166778 0.092979
0.187510 0.176558 0.060431
0.314070 0.207449 0.053620
0.431502 0.240830 0.053620
0.523930 0.267849 0.053620
0.606110 0.291971 0.053620
0.684266 0.314261 0.053620
0.746153 0.331341 0.053620
0.800145 0.345490 0.053620
0.851867 0.358159 0.053620
0.895545 0.366176 0.053620
0.000000 0.240709 0.062340
0.000000 0.240709 0.065697
0.000000 0.240708 0.089365
0.017059 0.241244 0.116563
0.056066 0.242962 0.109832
0.134726 0.232573 0.108791
0.260395 0.228803 0.100130
0.327665 0.251230 0.057150
