kpg/editing/luts/EditorsKeys Cinematic Lut Pack/Editors Keys Forest.cube
LUT_3D_SIZE 16
-0.097049 -0.099419 -0.100237
-0.068787 -0.099419 -0.100237
0.058389 -0.098477 -0.102239
0.115079 -0.096543 -0.103596
0.178780 -0.094492 -0.103589
0.250679 -0.093733 -0.103589
0.330405 -0.093311 -0.103590
0.414019 -0.092850 -0.103597
0.490389 -0.092593 -0.103602
0.562647 -0.092475 -0.103595
0.631021 -0.092274 -0.103610
0.696619 -0.091978 -0.103613
0.758683 -0.091518 -0.103623
0.816058 -0.090812 -0.103640
0.867746 -0.089817 -0.103646
0.912043 -0.088934 -0.103644
-0.097049 -0.070678 -0.100238
-0.068787 -0.070678 -0.100238
0.058389 -0.082569 -0.102239
0.115079 -0.081702 -0.103597
0.178780 -0.079404 -0.103589
0.250679 -0.078348 -0.103589
0.330405 -0.077682 -0.103591
0.414018 -0.077022 -0.103597
0.490389 -0.076531 -0.103602
0.562647 -0.076209 -0.103595
0.631021 -0.075870 -0.103610
0.696619 -0.075405 -0.103613
0.758683 -0.074729 -0.103623
0.816058 -0.073690 -0.103641
0.867746 -0.072229 -0.103646
0.912043 -0.070903 -0.103644
-0.090825 0.055046 -0.095327
-0.075257 0.055046 -0.095327
0.058557 0.053858 -0.098502
0.105845 0.052336 -0.101925
0.159727 0.056645 -0.103595
0.220691 0.062613 -0.103591
0.292170 0.069152 -0.103591
0.369754 0.074674 -0.103596
0.452583 0.079393 -0.103600
0.534682 0.083115 -0.103610
0.609102 0.085551 -0.103611
0.678528 0.087523 -0.103614
0.744591 0.089516 -0.103628
0.806797 0.091821 -0.103643
0.861645 0.094230 -0.103640
0.906465 0.095043 -0.103645
-0.084886 0.105006 -0.085892
-0.070414 0.105006 -0.085892
0.060606 0.102433 -0.088333
0.109546 0.101636 -0.094543
0.164127 0.107771 -0.102135
0.225286 0.117790 -0.103541
0.297554 0.130146 -0.103593
0.376688 0.142119 -0.103595
0.455114 0.151716 -0.103599
0.533914 0.159018 -0.103611
0.608902 0.164335 -0.103606
0.678351 0.168696 -0.103615
0.743612 0.172798 -0.103632
0.805873 0.176866 -0.103645
0.861641 0.180172 -0.103646
0.907161 0.180027 -0.103629
-0.077623 0.157696 -0.074829
-0.062990 0.157696 -0.074829
0.068071 0.155851 -0.076919
0.118408 0.152729 -0.081970
0.169954 0.154530 -0.093911
0.234794 0.167277 -0.102648
0.308460 0.183985 -0.103470
0.388645 0.201123 -0.103577
0.467010 0.215403 -0.103594
0.545321 0.227348 -0.103614
0.621171 0.237011 -0.103615
0.691527 0.244608 -0.103618
0.755668 0.250735 -0.103634
0.815492 0.255907 -0.103648
0.869699 0.259288 -0.103649
0.914048 0.258214 -0.103635
-0.068610 0.216050 -0.063757
-0.053799 0.216050 -0.063757
0.077262 0.214891 -0.066314
0.130276 0.212388 -0.067733
0.182287 0.210018 -0.076532
0.242397 0.216931 -0.095967
0.319237 0.237131 -0.102562
0.401540 0.258152 -0.103259
0.482197 0.276128 -0.103439
0.559417 0.290849 -0.103534
0.633601 0.302785 -0.103581
0.703835 0.312419 -0.103596
0.766987 0.319559 -0.103639
0.824527 0.324793 -0.103643
0.876775 0.327751 -0.103627
0.920452 0.325631 -0.103635
-0.058892 0.282175 -0.053677
-0.043971 0.282175 -0.053677
0.088434 0.281976 -0.056890
0.143369 0.279994 -0.057091
0.200079 0.276469 -0.060070
0.255926 0.277084 -0.075135
0.326497 0.290208 -0.097642
0.411089 0.314743 -0.101981
0.493770 0.336145 -0.102780
0.571209 0.352835 -0.103161
0.644572 0.365970 -0.103303
0.714621 0.376563 -0.103394
0.776763 0.383879 -0.103447
0.832494 0.388516 -0.103453
0.883467 0.390613 -0.103511
0.927130 0.386982 -0.103272
-0.050911 0.353420 -0.045198
-0.035905 0.353420 -0.045198
0.099822 0.354057 -0.048878
0.156895 0.354052 -0.048502
0.218449 0.351733 -0.047671
0.276908 0.350070 -0.055757
0.337173 0.352548 -0.077068
0.416468 0.370702 -0.097954
0.501316 0.395008 -0.101217
0.579051 0.413635 -0.102179
0.651887 0.427724 -0.102532
0.721184 0.438808 -0.102716
0.783006 0.446069 -0.102770
0.838183 0.450190 -0.102898
0.888219 0.451215 -0.102854
0.931925 0.446677 -0.099185
-0.044576 0.428629 -0.038246
-0.029446 0.428629 -0.038246
0.110897 0.429870 -0.042099
0.170050 0.431909 -0.042041
0.234710 0.431046 -0.040320
0.297198 0.426765 -0.043334
0.357766 0.428880 -0.056085
0.422277 0.431333 -0.084584
0.503406 0.451288 -0.096457
0.582739 0.471811 -0.100053
0.655829 0.487168 -0.101197
0.725018 0.498837 -0.101499
0.786733 0.505922 -0.101802
0.841962 0.509345 -0.102341
0.891375 0.509424 -0.101093
0.934678 0.505605 -0.089283
-0.039681 0.505580 -0.032669
-0.024416 0.505580 -0.032669
0.120422 0.507423 -0.036767
0.181121 0.511224 -0.037177
0.248183 0.511945 -0.035460
0.315604 0.507441 -0.036344
0.378182 0.507441 -0.045169
0.441313 0.510322 -0.063077
0.507270 0.512608 -0.088353
0.583114 0.528896 -0.095205
0.657109 0.544985 -0.097600
0.726590 0.556746 -0.099776
0.789044 0.563643 -0.101076
0.844310 0.566636 -0.101078
0.893758 0.566410 -0.097378
0.936685 0.562752 -0.079242
-0.036379 0.580199 -0.028797
-0.021021 0.580199 -0.028798
0.127539 0.583180 -0.033201
0.189121 0.588723 -0.034147
0.258128 0.591533 -0.032818
0.329904 0.587961 -0.032504
0.394898 0.585162 -0.038210
0.459746 0.588608 -0.051760
0.524344 0.590673 -0.072795
0.586937 0.592118 -0.088100
0.656958 0.603002 -0.093600
0.726559 0.614239 -0.095579
0.790075 0.621094 -0.097002
0.846122 0.623540 -0.098377
0.895465 0.623377 -0.090838
0.938115 0.619460 -0.069632
-0.034163 0.655099 -0.026274
-0.018689 0.655099 -0.026274
0.132516 0.658711 -0.031115
0.194739 0.665037 -0.032755
0.265387 0.668673 -0.032132
0.340708 0.666501 -0.031708
0.408749 0.662817 -0.035808
0.474947 0.664403 -0.046423
0.539817 0.667170 -0.062863
0.601649 0.668065 -0.078208
0.662344 0.668674 -0.088570
0.726936 0.673676 -0.092560
0.790246 0.678247 -0.093690
0.847413 0.679956 -0.094824
0.896765 0.679618 -0.085149
0.938835 0.674866 -0.065162
-0.033607 0.730121 -0.025675
-0.017944 0.730121 -0.025675
0.134573 0.734421 -0.031207
0.196905 0.740478 -0.033717
0.269151 0.744302 -0.034100
0.347532 0.743117 -0.034430
0.418535 0.739240 -0.037998
0.485792 0.737940 -0.046385
0.552056 0.740696 -0.059753
0.613117 0.741730 -0.071999
0.673932 0.741938 -0.082641
0.734490 0.741504 -0.089117
0.792102 0.738559 -0.091527
0.847699 0.736925 -0.091503
0.897303 0.735684 -0.080950
0.938968 0.730063 -0.061166
-0.036132 0.801900 -0.028383
-0.020104 0.801900 -0.028383
0.131582 0.807357 -0.035467
0.193815 0.812613 -0.038957
0.268004 0.815741 -0.040561
0.348823 0.815119 -0.042201
0.422157 0.811564 -0.046130
0.491059 0.808784 -0.053041
0.557283 0.809523 -0.062952
0.618418 0.810645 -0.072624
0.679703 0.811318 -0.081852
0.741166 0.810953 -0.086967
0.800894 0.808716 -0.089446
0.849841 0.798544 -0.090087
0.897116 0.794440 -0.078358
0.938599 0.787636 -0.055445
-0.042843 0.865230 -0.033891
-0.026276 0.865230 -0.033891
0.124129 0.870132 -0.042708
0.187353 0.874097 -0.048071
0.264190 0.876544 -0.050948
0.345491 0.875977 -0.054067
0.419611 0.873030 -0.058744
0.488865 0.870377 -0.064825
0.553625 0.869226 -0.071814
0.615087 0.870342 -0.079121
0.676594 0.871474 -0.086673
0.739416 0.872296 -0.090664
0.800217 0.871238 -0.089860
0.856368 0.867949 -0.089084
0.898265 0.856436 -0.078917
0.938026 0.847054 -0.058014
-0.050187 0.914563 -0.038768
-0.033055 0.914563 -0.038768
0.116480 0.918152 -0.047671
0.180286 0.921305 -0.054427
0.257716 0.923185 -0.059052
0.337946 0.922473 -0.063366
0.411464 0.919992 -0.068253
0.480266 0.917417 -0.073673
0.543781 0.915688 -0.079345
0.604319 0.915858 -0.084736
0.664970 0.917153 -0.090420
0.726991 0.918469 -0.094295
0.789037 0.919422 -0.092341
0.846191 0.917836 -0.089648
0.897790 0.915150 -0.081855
0.937281 0.903533 -0.064363
-0.097049 -0.099419 -0.071065
-0.068787 -0.099419 -0.071065
0.058389 -0.098477 -0.086046
0.115079 -0.096543 -0.088460
0.178780 -0.094492 -0.088172
0.250679 -0.093733 -0.087837
0.330405 -0.093311 -0.087577
0.414019 -0.092850 -0.087386
0.490389 -0.092593 -0.087154
0.562647 -0.092475 -0.086917
0.631021 -0.092274 -0.086778
0.696619 -0.091978 -0.086607
0.758683 -0.091518 -0.086395
0.816058 -0.090812 -0.086047
0.867746 -0.089817 -0.085567
0.912043 -0.088934 -0.085091
-0.097049 -0.070678 -0.071065
-0.068787 -0.070678 -0.071065
0.058389 -0.069766 -0.073015
0.115079 -0.067872 -0.074334
0.178780 -0.065878 -0.074329
0.250679 -0.065142 -0.074329
0.330405 -0.064734 -0.074337
0.414019 -0.064293 -0.074344
0.490389 -0.064032 -0.074340
0.562647 -0.063927 -0.074343
0.631021 -0.063742 -0.074347
0.696619 -0.063451 -0.074350
0.758683 -0.062995 -0.074358
0.816058 -0.062311 -0.074376
0.867746 -0.061340 -0.074381
0.912043 -0.060479 -0.074386
-0.090825 0.055046 -0.079245
-0.062724 0.055046 -0.066298
0.058557 0.053858 -0.069363
0.106114 0.056513 -0.072311
0.160082 0.061837 -0.074333
0.220797 0.068400 -0.074338
0.292424 0.075577 -0.074338
0.370196 0.081685 -0.074343
0.452338 0.086679 -0.074340
0.533908 0.090414 -0.074345
0.608220 0.092771 -0.074347
0.677481 0.094682 -0.074351
0.743373 0.096604 -0.074365
0.805863 0.098620 -0.074378
0.861052 0.100597 -0.074383
0.905997 0.100872 -0.074388
-0.084886 0.105006 -0.070990
-0.056927 0.105006 -0.057099
0.064614 0.102260 -0.059859
0.109546 0.101636 -0.065512
0.164339 0.109263 -0.072787
0.225729 0.119884 -0.074282
0.298088 0.132654 -0.074342
0.377266 0.144987 -0.074342
0.455497 0.154875 -0.074339
0.534335 0.162407 -0.074347
0.609472 0.167976 -0.074346
0.679015 0.172485 -0.074352
0.744272 0.176597 -0.074368
0.806265 0.180560 -0.074380
0.861978 0.183625 -0.074386
0.907440 0.183244 -0.074396
-0.077623 0.157696 -0.059809
-0.049857 0.157696 -0.046322
0.073028 0.155454 -0.048497
0.119975 0.152667 -0.053677
0.169954 0.154530 -0.064909
0.234961 0.168099 -0.073371
0.308781 0.185272 -0.074207
0.389043 0.202656 -0.074305
0.467525 0.217163 -0.074343
0.545842 0.229261 -0.074350
0.621558 0.238982 -0.074352
0.691949 0.246660 -0.074356
0.756137 0.252822 -0.074371
0.815838 0.257948 -0.074384
0.869774 0.261245 -0.074389
0.914294 0.260020 -0.074404
-0.068610 0.216050 -0.048587
-0.041082 0.216050 -0.035553
0.082601 0.214710 -0.038062
0.132464 0.212235 -0.039573
0.183188 0.210030 -0.048350
0.242397 0.216931 -0.066917
0.319316 0.237638 -0.073314
0.401815 0.259042 -0.074007
0.482407 0.277188 -0.074170
0.559561 0.291982 -0.074284
0.633858 0.304044 -0.074308
0.704148 0.313743 -0.074343
0.767221 0.320851 -0.074377
0.824659 0.326051 -0.074384
0.876821 0.328939 -0.074394
0.920681 0.326717 -0.074402
-0.058892 0.282175 -0.038390
-0.031613 0.282175 -0.025738
0.093685 0.281971 -0.028985
0.146043 0.279779 -0.028995
0.201354 0.276476 -0.032271
0.256513 0.277112 -0.046863
0.326497 0.290208 -0.068534
0.411166 0.315124 -0.072742
0.493903 0.336720 -0.073519
0.571294 0.353583 -0.073905
0.644637 0.366809 -0.074042
0.714723 0.377447 -0.074148
0.776822 0.384710 -0.074189
0.832689 0.389427 -0.074199
0.883572 0.391448 -0.074266
0.927208 0.387753 -0.074037
-0.050911 0.353420 -0.029833
-0.023842 0.353420 -0.017485
0.104988 0.354262 -0.021210
0.159948 0.353907 -0.020547
0.220050 0.351613 -0.020013
0.277783 0.350109 -0.028074
0.337499 0.352514 -0.048647
0.416468 0.370702 -0.068841
0.501340 0.395206 -0.072013
0.579088 0.414008 -0.072933
0.651924 0.428212 -0.073312
0.721191 0.439431 -0.073476
0.783012 0.446715 -0.073532
0.838233 0.450744 -0.073677
0.888290 0.451889 -0.073616
0.932009 0.447301 -0.069947
-0.044576 0.428629 -0.022770
-0.017672 0.428629 -0.010723
0.116117 0.430045 -0.014638
0.173209 0.432020 -0.014283
0.236560 0.430784 -0.012765
0.298237 0.426703 -0.015860
0.358309 0.428919 -0.028356
0.422586 0.431351 -0.055957
0.503406 0.451288 -0.067389
0.582755 0.471961 -0.070897
0.655836 0.487502 -0.072007
0.724966 0.499266 -0.072312
0.786779 0.506328 -0.072611
0.841966 0.509723 -0.073113
0.891355 0.509965 -0.071891
0.934702 0.506093 -0.060349
-0.039682 0.505580 -0.017070
-0.012901 0.505580 -0.005301
0.125698 0.507670 -0.009468
0.184257 0.511399 -0.009601
0.250232 0.511726 -0.007975
0.316783 0.507415 -0.009017
0.378971 0.507428 -0.017685
0.441808 0.510300 -0.035062
0.507449 0.512623 -0.059598
0.583114 0.528896 -0.066198
0.657112 0.545128 -0.068512
0.726608 0.556985 -0.070620
0.789075 0.563934 -0.071899
0.844302 0.566973 -0.071881
0.893780 0.566727 -0.068267
0.936710 0.563096 -0.050594
-0.036379 0.580199 -0.013114
-0.009691 0.580199 -0.001538
0.132808 0.583596 -0.006019
0.192258 0.589023 -0.006701
0.260371 0.591429 -0.005390
0.331219 0.587864 -0.005230
0.395781 0.585228 -0.010876
0.460300 0.588597 -0.024078
0.524687 0.590683 -0.044473
0.587099 0.592120 -0.059298
0.656958 0.603002 -0.064625
0.726559 0.614315 -0.066549
0.790082 0.621278 -0.067928
0.846135 0.623732 -0.069278
0.895474 0.623613 -0.061922
0.938124 0.619633 -0.041278
-0.034163 0.655099 -0.010468
-0.007534 0.655099 0.000979
0.137770 0.659214 -0.004027
0.197812 0.665283 -0.005390
0.267734 0.668665 -0.004729
0.342161 0.666406 -0.004424
0.409637 0.662839 -0.008495
0.475522 0.664471 -0.018841
0.540221 0.667180 -0.034804
0.601960 0.668069 -0.049713
0.662504 0.668675 -0.059731
0.726936 0.673676 -0.063618
0.790246 0.678304 -0.064719
0.847419 0.680131 -0.065812
0.896772 0.679768 -0.056398
0.938836 0.675080 -0.036938
-0.033607 0.730121 -0.009674
-0.007000 0.730122 0.001609
0.139667 0.734905 -0.004186
0.199941 0.740726 -0.006375
0.271547 0.744335 -0.006683
0.349018 0.743001 -0.007072
0.419413 0.739261 -0.010608
0.486567 0.738019 -0.018795
0.552568 0.740757 -0.031782
0.613495 0.741743 -0.043663
0.674111 0.741939 -0.053992
0.734504 0.741503 -0.060281
0.792102 0.738560 -0.062615
0.847699 0.736892 -0.062597
0.897305 0.735752 -0.052314
0.938969 0.730260 -0.033047
-0.036132 0.801900 -0.012017
-0.009467 0.801900 -0.001147
0.136323 0.807767 -0.008404
0.196723 0.812744 -0.011532
0.270374 0.815803 -0.013024
0.350321 0.815029 -0.014656
0.423178 0.811477 -0.018513
0.491708 0.808798 -0.025252
0.557772 0.809538 -0.034873
0.618706 0.810655 -0.044264
0.679865 0.811322 -0.053245
0.741412 0.810950 -0.058204
0.801079 0.808702 -0.060613
0.849841 0.798543 -0.061215
0.897115 0.794512 -0.049802
0.938596 0.787674 -0.027494
-0.042843 0.865230 -0.016981
-0.016012 0.865230 -0.006512
0.128400 0.870416 -0.015632
0.190206 0.874357 -0.020447
0.266464 0.876590 -0.023175
0.346882 0.875921 -0.026229
0.420576 0.873007 -0.030779
0.489489 0.870347 -0.036703
0.554095 0.869244 -0.043489
0.615505 0.870357 -0.050602
0.676941 0.871484 -0.057939
0.739589 0.872301 -0.061799
0.800299 0.871235 -0.061013
0.856207 0.867941 -0.060252
0.898265 0.856436 -0.050364
0.938094 0.847140 -0.030015
-0.050187 0.914563 -0.021331
-0.023175 0.914563 -0.011270
0.120446 0.918361 -0.020500
0.182992 0.921503 -0.026705
0.259810 0.923241 -0.031112
0.339288 0.922337 -0.035302
0.412414 0.919895 -0.040040
0.480861 0.917406 -0.045302
0.544186 0.915692 -0.050806
0.604662 0.915834 -0.056056
0.665264 0.917169 -0.061580
0.727175 0.918483 -0.065360
0.789070 0.919429 -0.063430
0.846306 0.917824 -0.060804
0.897800 0.915142 -0.053218
0.937281 0.903533 -0.036190
-0.099959 -0.096693 0.049138
-0.084245 -0.096693 0.049138
0.054764 -0.095386 0.052658
0.114786 -0.096142 0.050653
0.181888 -0.097086 0.051808
0.257920 -0.098518 0.053972
0.338918 -0.098985 0.057382
0.424269 -0.098421 0.060642
0.505485 -0.098027 0.063156
0.578438 -0.097833 0.065034
0.646004 -0.097649 0.066288
0.710571 -0.097413 0.067184
0.771017 -0.096972 0.067878
0.827389 -0.096440 0.068510
0.877974 -0.095836 0.068788
0.921306 -0.095283 0.068521
-0.099959 -0.080807 0.049138
-0.071610 -0.068027 0.049138
0.054764 -0.066754 0.052658
0.114215 -0.067061 0.055258
0.181539 -0.068096 0.057538
0.258315 -0.069830 0.059931
0.340074 -0.070679 0.063359
0.425866 -0.070222 0.066669
0.507622 -0.069884 0.069064
0.580564 -0.069727 0.070794
0.648100 -0.069553 0.071904
0.712377 -0.069333 0.072632
0.772734 -0.068915 0.073165
0.828716 -0.068351 0.073484
0.879035 -0.067779 0.073355
0.922124 -0.067245 0.072656
-0.098578 0.054936 0.054496
-0.070260 0.054935 0.054495
0.052874 0.055498 0.055339
0.106031 0.053933 0.052299
0.169919 0.050678 0.045277
0.243355 0.045767 0.037600
0.321662 0.041748 0.032449
0.404000 0.038975 0.029004
0.486839 0.036968 0.026396
0.564055 0.035584 0.024465
0.633718 0.034566 0.023068
0.700052 0.033907 0.022067
0.762796 0.033661 0.021362
0.820989 0.033799 0.020885
0.872475 0.034376 0.020601
0.916045 0.035162 0.020806
-0.093616 0.103134 0.058836
-0.066307 0.103102 0.062547
0.050173 0.104330 0.054048
0.106783 0.102040 0.048387
0.167215 0.106624 0.038733
0.232715 0.113652 0.031807
0.305260 0.123081 0.028610
0.383488 0.131997 0.025986
0.461076 0.138446 0.023836
0.539039 0.142708 0.022136
0.612575 0.145505 0.020850
0.680081 0.147796 0.019870
0.745043 0.150291 0.019160
0.807752 0.152995 0.018673
0.863069 0.155286 0.018382
0.908193 0.154742 0.018749
-0.086425 0.155521 0.069090
-0.059733 0.155509 0.073617
0.046111 0.157879 0.053522
0.112467 0.154107 0.047203
0.168667 0.154184 0.037765
0.236995 0.166080 0.028095
0.312166 0.181577 0.025277
0.392833 0.197382 0.023620
0.471265 0.210048 0.022205
0.549409 0.220385 0.021029
0.625051 0.228703 0.020104
0.694748 0.235105 0.019390
0.758191 0.240217 0.018860
0.817688 0.244554 0.018506
0.871375 0.247381 0.018310
0.915358 0.245674 0.018728
-0.075081 0.214339 0.082121
-0.048369 0.214347 0.087050
0.046284 0.216572 0.057294
0.119572 0.214779 0.050082
0.178479 0.210542 0.044379
0.241315 0.216448 0.030289
0.320322 0.236026 0.023195
0.404107 0.256588 0.021749
0.485038 0.273552 0.020809
0.562218 0.287276 0.020016
0.636500 0.298406 0.019400
0.706451 0.307357 0.018915
0.769167 0.313850 0.018567
0.826473 0.318683 0.018349
0.878526 0.321208 0.018256
0.921696 0.318563 0.018742
-0.063383 0.281278 0.096829
-0.036703 0.281357 0.102075
0.049894 0.283071 0.063258
0.128063 0.282427 0.053587
0.193495 0.277913 0.052457
0.253181 0.277463 0.042158
0.325438 0.289574 0.025000
0.411839 0.313957 0.021104
0.495608 0.334966 0.020086
0.573276 0.350976 0.019406
0.646996 0.363568 0.018959
0.716958 0.373667 0.018636
0.778913 0.380442 0.018441
0.834604 0.384703 0.018360
0.885218 0.386442 0.018362
0.928406 0.382401 0.019159
-0.054178 0.353848 0.111175
-0.027514 0.354075 0.116777
0.053791 0.354818 0.069648
0.138105 0.356061 0.057772
0.208757 0.354322 0.058579
0.272378 0.351009 0.053666
0.335112 0.353033 0.039004
0.415432 0.370236 0.023323
0.501763 0.394459 0.020398
0.580292 0.412672 0.019492
0.653659 0.426508 0.019027
0.723250 0.437322 0.018840
0.785005 0.444177 0.018782
0.840031 0.447980 0.018721
0.889908 0.448628 0.018938
0.933465 0.443705 0.022343
-0.046961 0.430117 0.124452
-0.020344 0.430457 0.130333
0.057443 0.430400 0.075808
0.148195 0.432851 0.061413
0.221478 0.433802 0.062394
0.290757 0.428305 0.061144
0.354356 0.430020 0.052825
0.420940 0.432372 0.033590
0.502899 0.451239 0.023512
0.583167 0.471697 0.020634
0.657009 0.486867 0.019788
0.726322 0.498237 0.019608
0.788289 0.505025 0.019457
0.843467 0.508058 0.019227
0.892801 0.507913 0.020439
0.935902 0.503871 0.029928
-0.041467 0.508334 0.135948
-0.014886 0.508835 0.142036
0.060638 0.507829 0.081213
0.156716 0.511723 0.064570
0.231595 0.514781 0.065126
0.307021 0.509673 0.065407
0.373312 0.508482 0.059806
0.438869 0.511267 0.047636
0.506186 0.513665 0.030408
0.582576 0.529156 0.024457
0.657410 0.545081 0.022348
0.727317 0.556835 0.021060
0.790078 0.563340 0.020304
0.845511 0.566015 0.020335
0.894865 0.565509 0.023345
0.937861 0.561631 0.037210
-0.037852 0.584345 0.144710
-0.011354 0.584820 0.150912
0.063102 0.583139 0.085543
0.162799 0.588840 0.066969
0.238684 0.594100 0.066896
0.319339 0.590947 0.067802
0.388633 0.586719 0.064471
0.456195 0.589868 0.055353
0.522605 0.591999 0.041324
0.586244 0.593301 0.030492
0.656453 0.603486 0.025762
0.726788 0.614535 0.024094
0.790696 0.621142 0.023270
0.847008 0.623378 0.022517
0.896285 0.623020 0.028393
0.938842 0.618756 0.044111
-0.035741 0.659765 0.151330
-0.009310 0.660298 0.157640
0.064984 0.658222 0.088883
0.166924 0.665044 0.068565
0.243827 0.670934 0.067737
0.328407 0.669884 0.068534
0.401336 0.665236 0.066316
0.470361 0.665783 0.059296
0.537329 0.668694 0.048054
0.600446 0.669703 0.037982
0.661913 0.670084 0.030778
0.726623 0.674636 0.027486
0.790609 0.678939 0.026334
0.847980 0.680324 0.025755
0.897308 0.679779 0.033052
0.939276 0.674706 0.047679
-0.035557 0.734631 0.155246
-0.009164 0.735133 0.161560
0.065829 0.733381 0.090532
0.168435 0.740470 0.068787
0.246618 0.745997 0.067093
0.334097 0.746269 0.067185
0.410202 0.741703 0.065124
0.480420 0.739447 0.059690
0.548742 0.741987 0.050618
0.611228 0.743152 0.042363
0.672908 0.743468 0.035747
0.733964 0.742836 0.031330
0.792150 0.739621 0.029265
0.848046 0.737624 0.029296
0.897638 0.736233 0.037003
0.939404 0.730488 0.051449
-0.038926 0.806508 0.155435
-0.012485 0.806778 0.161591
0.064355 0.805916 0.089722
0.165560 0.812804 0.066606
0.244950 0.817292 0.063677
0.334601 0.817881 0.062555
0.413243 0.813808 0.060149
0.485149 0.810523 0.055613
0.553291 0.810832 0.049085
0.615850 0.811894 0.042672
0.677928 0.812576 0.036860
0.740208 0.812593 0.033867
0.800426 0.810161 0.032312
0.849863 0.800071 0.031902
0.897452 0.795364 0.040010
0.938824 0.788321 0.056492
-0.046478 0.869216 0.152091
-0.019851 0.869472 0.157923
0.060181 0.869001 0.087749
0.158997 0.874517 0.063149
0.240701 0.878172 0.058883
0.331125 0.878512 0.056209
0.410558 0.875340 0.052823
0.482891 0.872303 0.048704
0.549324 0.870503 0.044154
0.611887 0.871516 0.039553
0.674165 0.872704 0.034848
0.737561 0.873668 0.032290
0.799227 0.872858 0.033250
0.855928 0.869327 0.034165
0.898481 0.857736 0.040968
0.938368 0.848116 0.055927
-0.054055 0.917628 0.147792
-0.027224 0.917824 0.153262
0.056072 0.917378 0.086739
0.151744 0.921506 0.061715
0.234332 0.924534 0.056639
0.323665 0.924991 0.053086
0.402386 0.922180 0.049062
0.474199 0.919477 0.044701
0.539532 0.917371 0.040957
0.600896 0.916931 0.037472
0.662322 0.918206 0.033912
0.724700 0.919671 0.031335
0.787483 0.920777 0.032488
0.845268 0.919240 0.034908
0.897465 0.916567 0.040339
0.937460 0.905229 0.052877
-0.101536 -0.092927 0.088368
-0.086858 -0.092927 0.088368
0.046128 -0.089128 0.095098
0.105736 -0.088517 0.102703
0.175105 -0.091694 0.108807
0.255651 -0.095101 0.115012
0.343870 -0.098218 0.121061
0.432681 -0.099799 0.125630
0.517715 -0.101013 0.128610
0.591860 -0.101264 0.130986
0.659186 -0.101263 0.132581
0.722357 -0.101183 0.133577
0.781369 -0.100892 0.134215
0.836288 -0.100526 0.134657
0.885929 -0.100306 0.134476
0.928690 -0.100111 0.132923
-0.101536 -0.078148 0.088368
-0.073152 -0.064365 0.088368
0.050966 -0.060478 0.095966
0.105736 -0.060058 0.102703
0.174672 -0.062894 0.110461
0.255191 -0.066110 0.117574
0.343696 -0.069165 0.124116
0.432503 -0.070878 0.128852
0.517729 -0.072205 0.131859
0.591971 -0.072465 0.134262
0.659350 -0.072474 0.135878
0.722610 -0.072399 0.136854
0.781560 -0.072145 0.137421
0.836513 -0.071825 0.137666
0.886105 -0.071623 0.137278
0.928711 -0.071445 0.135486
-0.101475 0.054115 0.093948
-0.073086 0.058244 0.094623
0.046762 0.057892 0.100254
0.099411 0.056834 0.103114
0.166847 0.052284 0.107511
0.247660 0.044719 0.110417
0.339104 0.036630 0.112952
0.428843 0.030295 0.114805
0.516410 0.026073 0.116063
0.593525 0.023661 0.117084
0.661075 0.022133 0.117782
0.724179 0.021099 0.118131
0.783235 0.020496 0.118138
0.838353 0.020212 0.117886
0.887795 0.020153 0.117229
0.930022 0.020861 0.115635
-0.100908 0.103250 0.101915
-0.072546 0.103250 0.101915
0.040433 0.105079 0.104590
0.096997 0.105310 0.105640
0.159995 0.105254 0.103115
0.232393 0.105161 0.096275
0.318215 0.103944 0.087403
0.407455 0.097226 0.077152
0.488123 0.085992 0.068421
0.572030 0.079059 0.063338
0.646624 0.074969 0.059883
0.712709 0.072128 0.056844
0.774416 0.069942 0.054234
0.832103 0.068297 0.051945
0.881951 0.067043 0.049928
0.923965 0.066903 0.049093
-0.097330 0.155186 0.114014
-0.069250 0.155171 0.115325
0.034429 0.157293 0.112599
0.096485 0.157514 0.107936
0.161999 0.156892 0.102310
0.236629 0.164213 0.089951
0.320103 0.174088 0.076144
0.402176 0.183704 0.067624
0.480401 0.190887 0.062929
0.558796 0.196199 0.059415
0.634224 0.199539 0.056233
0.701441 0.201561 0.053370
0.764159 0.203387 0.050827
0.823004 0.205139 0.048564
0.875376 0.206039 0.046604
0.918319 0.205059 0.046374
-0.087700 0.214604 0.129703
-0.060328 0.214608 0.131524
0.035829 0.216579 0.124740
0.090876 0.218245 0.106781
0.167444 0.214636 0.098290
0.238733 0.217068 0.083372
0.324214 0.232998 0.065571
0.409807 0.250556 0.061146
0.492132 0.264967 0.058425
0.569472 0.275899 0.055773
0.643935 0.284597 0.053352
0.713040 0.291237 0.051117
